correlllab/MAGPIE/datasets/trajectories/1726681147.2353265_circuit_board_id-0/move.csv
timestamp,actual_q_0,actual_q_1,actual_q_2,actual_q_3,actual_q_4,actual_q_5,actual_TCP_pose_0,actual_TCP_pose_1,actual_TCP_pose_2,actual_TCP_pose_3,actual_TCP_pose_4,actual_TCP_pose_5,actual_qd_0,actual_qd_1,actual_qd_2,actual_qd_3,actual_qd_4,actual_qd_5,target_q_0,target_q_1,target_q_2,target_q_3,target_q_4,target_q_5,target_TCP_pose_0,target_TCP_pose_1,target_TCP_pose_2,target_TCP_pose_3,target_TCP_pose_4,target_TCP_pose_5
5666.776000,0.775909,-1.879162,1.977623,-2.104149,-1.280762,-0.504338,-0.177827,-0.361762,0.423337,-0.332762,-2.983410,0.787617,0.000000,0.000000,-0.000000,0.000000,0.000000,0.000000,0.775981,-1.879150,1.977623,-2.104113,-1.280822,-0.504266,-0.177807,-0.361774,0.423327,-0.332798,-2.983452,0.787517
5666.872000,0.775921,-1.879162,1.977612,-2.104137,-1.280773,-0.504338,-0.177824,-0.361764,0.423341,-0.332748,-2.983409,0.787605,0.000000,0.000000,-0.000000,0.000000,0.000000,0.000000,0.775985,-1.879123,1.977640,-2.104157,-1.280823,-0.504262,-0.177812,-0.361781,0.423314,-0.332798,-2.983452,0.787517
5666.968000,0.776568,-1.875143,1.980138,-2.111219,-1.281061,-0.503738,-0.178587,-0.362836,0.421362,-0.332554,-2.983107,0.787980,0.012566,0.088370,0.054405,-0.144098,-0.042712,0.006184,0.776645,-1.874652,1.980476,-2.111650,-1.281136,-0.503599,-0.178672,-0.362953,0.421052,-0.332798,-2.983451,0.787518
5667.160000,0.781191,-1.841848,1.999311,-2.164609,-1.282989,-0.499239,-0.184707,-0.371247,0.405058,-0.332381,-2.983577,0.787888,0.033479,0.264330,0.138570,-0.405187,-0.011481,0.035497,0.781200,-1.841459,1.999411,-2.165057,-1.283311,-0.499023,-0.184814,-0.371323,0.404901,-0.332794,-2.983448,0.787527
5667.256000,0.784915,-1.811576,2.013754,-2.210396,-1.284665,-0.495401,-0.189982,-0.378459,0.391165,-0.332482,-2.983627,0.788073,0.041354,0.367414,0.159905,-0.539482,-0.042161,0.047745,0.784911,-1.811194,2.013825,-2.210769,-1.285109,-0.495297,-0.190096,-0.378521,0.391011,-0.332792,-2.983445,0.787534
5667.352000,0.789322,-1.770810,2.029598,-2.268265,-1.287311,-0.490903,-0.196771,-0.387600,0.373452,-0.332709,-2.983320,0.787632,0.052270,0.483690,0.167332,-0.658461,-0.031950,0.049974,0.789400,-1.770268,2.029691,-2.268803,-1.287318,-0.490794,-0.196852,-0.387728,0.373245,-0.332788,-2.983441,0.787544
5667.448000,0.794149,-1.721340,2.044173,-2.333445,-1.289826,-0.486069,-0.204462,-0.398088,0.353163,-0.332799,-2.983418,0.787345,0.048729,0.527651,0.132165,-0.674784,-0.025431,0.049087,0.794176,-1.721004,2.044135,-2.333820,-1.289711,-0.486013,-0.204518,-0.398175,0.353086,-0.332784,-2.983436,0.787554
5667.544000,0.798616,-1.669174,2.054688,-2.397538,-1.291861,-0.481595,-0.212161,-0.408594,0.333012,-0.332684,-2.983389,0.787818,0.044396,0.557359,0.092052,-0.660331,-0.032142,0.047649,0.798652,-1.668922,2.054736,-2.397718,-1.291994,-0.481545,-0.212196,-0.408638,0.332897,-0.332780,-2.983432,0.787565
5667.640000,0.802844,-1.614372,2.061527,-2.459547,-1.294149,-0.477421,-0.219854,-0.419077,0.312581,-0.332906,-2.983980,0.786923,0.042734,0.577966,0.050238,-0.640533,-0.032741,0.042113,0.802851,-1.614405,2.061414,-2.460040,-1.294172,-0.477369,-0.219873,-0.419100,0.312708,-0.332776,-2.983427,0.787576
5667.736000,0.806844,-1.558026,2.064293,-2.519724,-1.296244,-0.473462,-0.227460,-0.429500,0.292467,-0.332903,-2.983973,0.786940,0.039602,0.601090,0.008999,-0.617068,-0.020133,0.038613,0.806798,-1.557805,2.064133,-2.520408,-1.296249,-0.473463,-0.227550,-0.429563,0.292520,-0.332773,-2.983423,0.787586
5667.832000,0.810281,-1.502919,2.063083,-2.574689,-1.297812,-0.469960,-0.234760,-0.439413,0.273445,-0.332945,-2.984002,0.787409,0.032341,0.520914,-0.025809,-0.508035,-0.006807,0.027947,0.810300,-1.502996,2.063067,-2.575071,-1.298117,-0.470015,-0.234772,-0.439404,0.273530,-0.332769,-2.983419,0.787597
5667.928000,0.812940,-1.458065,2.059742,-2.617056,-1.299465,-0.467368,-0.240569,-0.447289,0.258210,-0.332930,-2.983727,0.787363,0.022767,0.409662,-0.040267,-0.379253,-0.027588,0.019966,0.812968,-1.458242,2.059688,-2.617139,-1.299552,-0.467401,-0.240553,-0.447281,0.258329,-0.332766,-2.983415,0.787605
5668.024000,0.814916,-1.424256,2.055718,-2.647501,-1.300458,-0.465509,-0.244863,-0.453194,0.246898,-0.332761,-2.983634,0.787592,0.015851,0.294627,-0.040535,-0.262598,-0.025910,0.012943,0.814883,-1.424495,2.055718,-2.647411,-1.300588,-0.465534,-0.244859,-0.453150,0.247004,-0.332764,-2.983413,0.787611
5668.120000,0.816150,-1.401981,2.052485,-2.666781,-1.301129,-0.464490,-0.247673,-0.457034,0.239453,-0.332512,-2.983685,0.787494,0.011019,0.174567,-0.025809,-0.142636,0.033867,0.008077,0.816109,-1.402145,2.052436,-2.666794,-1.301255,-0.464341,-0.247692,-0.457010,0.239555,-0.332762,-2.983411,0.787615
5668.216000,0.816605,-1.391059,2.050724,-2.676013,-1.301393,-0.464034,-0.249103,-0.458876,0.235807,-0.332541,-2.983723,0.787446,0.000690,0.050353,-0.009293,-0.040507,-0.054097,0.035353,0.816689,-1.391389,2.050674,-2.675936,-1.301570,-0.463779,-0.249050,-0.458862,0.235983,-0.332762,-2.983411,0.787616
5668.312000,0.816629,-1.390304,2.050628,-2.676781,-1.301536,-0.463878,-0.249210,-0.458993,0.235556,-0.332745,-2.983569,0.787437,0.000435,-0.001342,-0.000000,0.001462,-0.001127,-0.001654,0.816745,-1.390351,2.050498,-2.676812,-1.301600,-0.463725,-0.249181,-0.459040,0.235638,-0.332762,-2.983410,0.787617
5668.408000,0.816653,-1.390328,2.050640,-2.676793,-1.301512,-0.463758,-0.249193,-0.458995,0.235565,-0.332878,-2.983581,0.787499,0.000205,-0.000294,-0.000000,0.000455,-0.000623,0.001606,0.816745,-1.390351,2.050498,-2.676812,-1.301600,-0.463725,-0.249181,-0.459040,0.235638,-0.332762,-2.983410,0.787617
5668.504000,0.816593,-1.390316,2.050604,-2.676817,-1.301548,-0.463770,-0.249231,-0.458988,0.235577,-0.332942,-2.983493,0.787507,0.000128,0.000000,-0.000000,0.000264,-0.000312,0.000551,0.816745,-1.390351,2.050498,-2.676812,-1.301600,-0.463725,-0.249181,-0.459040,0.235638,-0.332762,-2.983410,0.787617
5668.600000,0.816617,-1.390304,2.050640,-2.676805,-1.301584,-0.463758,-0.249217,-0.458986,0.235553,-0.332954,-2.983533,0.787410,0.000089,0.000000,-0.000000,0.000192,-0.000216,0.000288,0.816745,-1.390351,2.050498,-2.676812,-1.301600,-0.463725,-0.249181,-0.459040,0.235638,-0.332762,-2.983410,0.787617
5668.696000,0.816653,-1.390292,2.050556,-2.676781,-1.301596,-0.463770,-0.249218,-0.459011,0.235580,-0.332872,-2.983499,0.787451,0.000077,0.000000,-0.000268,0.000144,-0.000144,0.000216,0.816745,-1.390351,2.050498,-2.676812,-1.301600,-0.463725,-0.249181,-0.459040,0.235638,-0.332762,-2.983410,0.787617
5668.792000,0.816653,-1.390328,2.050508,-2.676817,-1.301596,-0.463746,-0.249224,-0.459018,0.235623,-0.332871,-2.983399,0.787580,0.000064,0.000000,-0.000396,0.000120,-0.000120,0.000216,0.816745,-1.390351,2.050498,-2.676812,-1.301600,-0.463725,-0.249181,-0.459040,0.235638,-0.332762,-2.983410,0.787617
5668.888000,0.816665,-1.390304,2.050532,-2.676829,-1.301596,-0.463698,-0.249216,-0.459019,0.235602,-0.332938,-2.983438,0.787547,0.000051,0.000000,-0.000192,0.000096,-0.000096,0.000216,0.816745,-1.390351,2.050498,-2.676812,-1.301600,-0.463725,-0.249181,-0.459040,0.235638,-0.332762,-2.983410,0.787617
5668.984000,0.816665,-1.390316,2.050556,-2.676793,-1.301620,-0.463686,-0.249211,-0.459011,0.235593,-0.332977,-2.983464,0.787474,0.000013,0.000000,-0.000128,0.000072,-0.000096,0.000216,0.816745,-1.390351,2.050498,-2.676812,-1.301600,-0.463725,-0.249181,-0.459040,0.235638,-0.332762,-2.983410,0.787617
5669.080000,0.816665,-1.390268,2.050532,-2.676793,-1.301644,-0.463710,-0.249222,-0.459020,0.235578,-0.332955,-2.983468,0.787421,0.000013,0.000000,-0.000089,0.000072,-0.000096,0.000144,0.816745,-1.390351,2.050498,-2.676812,-1.301600,-0.463725,-0.249181,-0.459040,0.235638,-0.332762,-2.983410,0.787617
5669.176000,0.816665,-1.390292,2.050520,-2.676805,-1.301596,-0.463686,-0.249219,-0.459022,0.235598,-0.332963,-2.983459,0.787523,0.000013,0.000000,-0.000077,0.000048,-0.000096,0.000120,0.816745,-1.390351,2.050498,-2.676812,-1.301600,-0.463725,-0.249181,-0.459040,0.235638,-0.332762,-2.983410,0.787617
5669.272000,0.816677,-1.390304,2.050544,-2.676781,-1.301608,-0.463674,-0.249208,-0.459018,0.235591,-0.332978,-2.983487,0.787476,0.000013,0.000000,-0.000064,0.000048,-0.000096,0.000096,0.816745,-1.390351,2.050498,-2.676812,-1.301600,-0.463725,-0.249181,-0.459040,0.235638,-0.332762,-2.983410,0.787617
5669.368000,0.816665,-1.390328,2.050497,-2.676817,-1.301620,-0.463639,-0.249222,-0.459022,0.235627,-0.333020,-2.983387,0.787579,0.000013,0.000000,-0.000051,0.000048,-0.000096,0.000096,0.816745,-1.390351,2.050498,-2.676812,-1.301600,-0.463725,-0.249181,-0.459040,0.235638,-0.332762,-2.983410,0.787617
5669.560000,0.816677,-1.390304,2.050508,-2.676817,-1.301620,-0.463674,-0.249217,-0.459025,0.235610,-0.332959,-2.983420,0.787539,0.000013,0.000000,-0.000038,0.000048,-0.000072,0.000096,0.816745,-1.390351,2.050498,-2.676812,-1.301600,-0.463725,-0.249181,-0.459040,0.235638,-0.332762,-2.983410,0.787617
5669.656000,0.816677,-1.390304,2.050508,-2.676769,-1.301608,-0.463674,-0.249215,-0.459025,0.235605,-0.332971,-2.983468,0.787500,0.000013,0.000000,-0.000038,0.000024,-0.000072,0.000096,0.816745,-1.390351,2.050498,-2.676812,-1.301600,-0.463725,-0.249181,-0.459040,0.235638,-0.332762,-2.983410,0.787617
5669.752000,0.816677,-1.390352,2.050497,-2.676793,-1.301620,-0.463723,-0.249213,-0.459022,0.235637,-0.332875,-2.983386,0.787573,0.000013,0.000000,-0.000026,0.000024,-0.000072,0.000096,0.816745,-1.390351,2.050498,-2.676812,-1.301600,-0.463725,-0.249181,-0.459040,0.235638,-0.332762,-2.983410,0.787617
5669.848000,0.816677,-1.390268,2.050508,-2.676805,-1.301632,-0.463674,-0.249221,-0.459028,0.235590,-0.332978,-2.983453,0.787476,0.000013,0.000000,-0.000026,0.000024,-0.000048,-0.000024,0.816745,-1.390351,2.050498,-2.676812,-1.301600,-0.463725,-0.249181,-0.459040,0.235638,-0.332762,-2.983410,0.787617
5669.944000,0.816689,-1.390268,2.050485,-2.676793,-1.301656,-0.463662,-0.249221,-0.459035,0.235599,-0.332981,-2.983434,0.787466,0.000013,0.000000,-0.000000,0.000024,-0.000048,-0.000024,0.816745,-1.390351,2.050498,-2.676812,-1.301600,-0.463725,-0.249181,-0.459040,0.235638,-0.332762,-2.983410,0.787617
5670.040000,0.816689,-1.390256,2.050520,-2.676769,-1.301644,-0.463651,-0.249214,-0.459029,0.235575,-0.333018,-2.983503,0.787403,0.000013,0.000000,-0.000000,0.000024,-0.000048,-0.000024,0.816745,-1.390351,2.050498,-2.676812,-1.301600,-0.463725,-0.249181,-0.459040,0.235638,-0.332762,-2.983410,0.787617
5670.136000,0.816629,-1.390256,2.050544,-2.676793,-1.301632,-0.463698,-0.249237,-0.459010,0.235568,-0.333030,-2.983482,0.787406,0.000013,0.000000,-0.000000,0.000024,-0.000048,-0.000024,0.816745,-1.390351,2.050498,-2.676812,-1.301600,-0.463725,-0.249181,-0.459040,0.235638,-0.332762,-2.983410,0.787617
5670.232000,0.816665,-1.390292,2.050485,-2.676793,-1.301656,-0.463698,-0.249229,-0.459026,0.235611,-0.332955,-2.983401,0.787486,0.000013,0.000000,-0.000000,0.000024,-0.000048,-0.000024,0.816745,-1.390351,2.050498,-2.676812,-1.301600,-0.463725,-0.249181,-0.459040,0.235638,-0.332762,-2.983410,0.787617
5670.328000,0.816701,-1.390292,2.050497,-2.676829,-1.301608,-0.463686,-0.249208,-0.459036,0.235611,-0.332899,-2.983426,0.787565,0.000013,0.000000,-0.000000,0.000024,-0.000024,-0.000024,0.816745,-1.390351,2.050498,-2.676812,-1.301600,-0.463725,-0.249181,-0.459040,0.235638,-0.332762,-2.983410,0.787617
5670.424000,0.816653,-1.390292,2.050472,-2.676793,-1.301632,-0.463674,-0.249236,-0.459027,0.235616,-0.332998,-2.983402,0.787524,0.000013,0.000000,-0.000000,0.000024,-0.000024,-0.000024,0.816745,-1.390351,2.050498,-2.676812,-1.301600,-0.463725,-0.249181,-0.459040,0.235638,-0.332762,-2.983410,0.787617
5670.520000,0.816713,-1.390304,2.050497,-2.676793,-1.301656,-0.463686,-0.249204,-0.459034,0.235612,-0.332902,-2.983422,0.787492,0.000013,0.000000,-0.000000,0.000024,-0.000024,-0.000024,0.816745,-1.390351,2.050498,-2.676812,-1.301600,-0.463725,-0.249181,-0.459040,0.235638,-0.332762,-2.983410,0.787617
5670.616000,0.816701,-1.390280,2.050472,-2.676817,-1.301644,-0.463686,-0.249216,-0.459040,0.235613,-0.332909,-2.983403,0.787528,0.000013,0.000000,-0.000000,0.000024,-0.000024,-0.000024,0.816745,-1.390351,2.050498,-2.676812,-1.301600,-0.463725,-0.249181,-0.459040,0.235638,-0.332762,-2.983410,0.787617
5670.712000,0.816653,-1.390256,2.050497,-2.676805,-1.301644,-0.463674,-0.249236,-0.459025,0.235589,-0.333016,-2.983436,0.787461,0.000013,0.000000,-0.000000,0.000024,-0.000024,-0.000024,0.816745,-1.390351,2.050498,-2.676812,-1.301600,-0.463725,-0.249181,-0.459040,0.235638,-0.332762,-2.983410,0.787617
5670.808000,0.816713,-1.390316,2.050520,-2.676817,-1.301632,-0.463674,-0.249197,-0.459030,0.235611,-0.332910,-2.983426,0.787530,0.000013,0.000000,-0.000000,0.000024,-0.000024,-0.000024,0.816745,-1.390351,2.050498,-2.676812,-1.301600,-0.463725,-0.249181,-0.459040,0.235638,-0.332762,-2.983410,0.787617
5670.904000,0.816677,-1.390256,2.050497,-2.676817,-1.301668,-0.463674,-0.249227,-0.459030,0.235590,-0.332984,-2.983421,0.787452,0.000013,0.000000,-0.000000,0.000024,-0.000024,-0.000024,0.816745,-1.390351,2.050498,-2.676812,-1.301600,-0.463725,-0.249181,-0.459040,0.235638,-0.332762,-2.983410,0.787617
5671.000000,0.816689,-1.390304,2.050472,-2.676817,-1.301632,-0.463686,-0.249219,-0.459035,0.235625,-0.332916,-2.983386,0.787565,0.000013,0.000000,-0.000000,0.000000,-0.000024,-0.000024,0.816745,-1.390351,2.050498,-2.676812,-1.301600,-0.463725,-0.249181,-0.459040,0.235638,-0.332762,-2.983410,0.787617
