correlllab/MAGPIE/datasets/trajectories/1726694078.771984_paper_airplane_id-0/move.csv
timestamp,actual_q_0,actual_q_1,actual_q_2,actual_q_3,actual_q_4,actual_q_5,actual_TCP_pose_0,actual_TCP_pose_1,actual_TCP_pose_2,actual_TCP_pose_3,actual_TCP_pose_4,actual_TCP_pose_5,actual_qd_0,actual_qd_1,actual_qd_2,actual_qd_3,actual_qd_4,actual_qd_5,target_q_0,target_q_1,target_q_2,target_q_3,target_q_4,target_q_5,target_TCP_pose_0,target_TCP_pose_1,target_TCP_pose_2,target_TCP_pose_3,target_TCP_pose_4,target_TCP_pose_5
18598.544000,0.896834,-1.849560,1.828571,-2.011665,-1.263866,-0.484713,-0.140968,-0.392776,0.477340,-0.170972,-3.017223,0.844890,0.000000,0.000000,-0.000000,0.000000,0.000000,0.000000,0.896810,-1.849572,1.828511,-2.011713,-1.263914,-0.484713,-0.140980,-0.392769,0.477380,-0.170988,-3.017082,0.844970
18598.640000,0.896906,-1.849320,1.829002,-2.012553,-1.263962,-0.484557,-0.141014,-0.392868,0.477129,-0.171062,-3.017032,0.845048,0.005024,0.022243,0.027778,-0.053689,-0.007550,0.009252,0.896960,-1.849129,1.829121,-2.012810,-1.263986,-0.484566,-0.141043,-0.392937,0.477022,-0.170988,-3.017083,0.844970
18598.736000,0.898367,-1.844750,1.835300,-2.024247,-1.264573,-0.483250,-0.141686,-0.394578,0.473483,-0.170724,-3.016714,0.845564,0.026014,0.080675,0.103914,-0.182376,-0.024304,0.025910,0.898539,-1.844387,1.835510,-2.024394,-1.264736,-0.483024,-0.141716,-0.394704,0.473245,-0.170987,-3.017085,0.844969
18598.832000,0.901624,-1.834352,1.848412,-2.048364,-1.266082,-0.480071,-0.143116,-0.398312,0.465478,-0.170800,-3.017025,0.845256,0.043808,0.137381,0.168418,-0.312237,-0.036720,0.045181,0.901787,-1.834119,1.848535,-2.048614,-1.266286,-0.479852,-0.143121,-0.398398,0.465347,-0.170987,-3.017089,0.844966
18598.928000,0.906618,-1.817849,1.867273,-2.085351,-1.268464,-0.475214,-0.145186,-0.403956,0.453534,-0.170723,-3.016859,0.845490,0.056591,0.208148,0.221762,-0.450271,-0.035641,0.059681,0.906597,-1.817576,1.867480,-2.085465,-1.268596,-0.475159,-0.145261,-0.404020,0.453328,-0.170986,-3.017096,0.844962
18599.024000,0.912750,-1.793946,1.891078,-2.134578,-1.271578,-0.468988,-0.148094,-0.411476,0.437364,-0.171205,-3.017003,0.845144,0.071202,0.293476,0.265596,-0.575291,-0.034682,0.066800,0.912817,-1.793633,1.891246,-2.134921,-1.271612,-0.469097,-0.148134,-0.411570,0.437189,-0.170985,-3.017105,0.844957
18599.120000,0.920187,-1.761324,1.918213,-2.196318,-1.275205,-0.461911,-0.151661,-0.420897,0.417140,-0.170980,-3.017066,0.845059,0.082157,0.380747,0.281703,-0.686049,-0.043287,0.077514,0.920231,-1.760952,1.918213,-2.196623,-1.275248,-0.461885,-0.151724,-0.421006,0.417017,-0.170984,-3.017117,0.844951
18599.216000,0.927684,-1.723391,1.943493,-2.261916,-1.278930,-0.454774,-0.155462,-0.430920,0.395768,-0.170672,-3.016770,0.845422,0.078578,0.414060,0.245399,-0.677636,-0.038685,0.074997,0.927710,-1.722896,1.943506,-2.262015,-1.278967,-0.454627,-0.155544,-0.431045,0.395556,-0.170982,-3.017129,0.844944
18599.312000,0.934834,-1.682233,1.965108,-2.326270,-1.282545,-0.447721,-0.159238,-0.440935,0.374363,-0.170985,-3.017085,0.845024,0.072455,0.445698,0.208506,-0.673537,-0.036768,0.070563,0.934802,-1.681571,1.965219,-2.326961,-1.282540,-0.447765,-0.159364,-0.441085,0.374094,-0.170981,-3.017142,0.844937
18599.408000,0.941600,-1.637743,1.983300,-2.390928,-1.285982,-0.441220,-0.163056,-0.450996,0.352860,-0.170890,-3.016949,0.845239,0.068352,0.478116,0.172304,-0.656975,-0.037247,0.065769,0.941536,-1.637142,1.983275,-2.391232,-1.285977,-0.441270,-0.163185,-0.451124,0.352632,-0.170980,-3.017154,0.844930
18599.504000,0.947863,-1.590413,1.997694,-2.454209,-1.289311,-0.435102,-0.166943,-0.461011,0.331366,-0.171085,-3.016991,0.845071,0.064708,0.507096,0.133801,-0.647675,-0.033508,0.061431,0.947940,-1.589816,1.997603,-2.454556,-1.289284,-0.435118,-0.167005,-0.461163,0.331170,-0.170978,-3.017166,0.844923
18599.600000,0.954008,-1.540484,2.008269,-2.516318,-1.292412,-0.429345,-0.170733,-0.471056,0.309920,-0.170860,-3.017029,0.845185,0.063571,0.529415,0.092179,-0.634565,-0.034155,0.058843,0.954037,-1.539844,2.008139,-2.516631,-1.292469,-0.429286,-0.170825,-0.471203,0.309708,-0.170977,-3.017179,0.844916
18599.696000,0.959828,-1.488136,2.014903,-2.576811,-1.295453,-0.423803,-0.174565,-0.481120,0.288487,-0.170840,-3.017029,0.845249,0.059557,0.555416,0.048627,-0.620687,-0.030895,0.054936,0.959849,-1.487512,2.014835,-2.577130,-1.295535,-0.423752,-0.174645,-0.481242,0.288246,-0.170975,-3.017191,0.844909
18599.792000,0.964834,-1.438415,2.017526,-2.630426,-1.298255,-0.419018,-0.178131,-0.490323,0.268877,-0.170940,-3.016943,0.845149,0.047605,0.468158,0.010163,-0.496890,-0.028091,0.043383,0.964903,-1.438140,2.017562,-2.630490,-1.298224,-0.418963,-0.178119,-0.490371,0.268731,-0.170974,-3.017202,0.844902
18599.888000,0.968750,-1.398396,2.017442,-2.671265,-1.300231,-0.415431,-0.180832,-0.497545,0.253455,-0.170756,-3.017058,0.845173,0.033952,0.363451,-0.010533,-0.365351,-0.011697,0.035306,0.968745,-1.398160,2.017449,-2.671303,-1.300280,-0.415339,-0.180859,-0.497573,0.253334,-0.170973,-3.017211,0.844897
18599.984000,0.971504,-1.368533,2.016161,-2.700484,-1.301584,-0.412828,-0.182822,-0.502828,0.242123,-0.170743,-3.017179,0.845245,0.021961,0.256597,-0.014087,-0.247330,-0.034059,0.025958,0.971482,-1.368383,2.016099,-2.700397,-1.301750,-0.412767,-0.182866,-0.502848,0.242059,-0.170972,-3.017217,0.844893
18600.176000,0.973768,-1.340985,2.014125,-2.726175,-1.302781,-0.410669,-0.184718,-0.507586,0.231725,-0.170880,-3.017519,0.844845,0.002275,0.028302,-0.003247,-0.023873,-0.043527,0.002924,0.973900,-1.341159,2.013960,-2.726067,-1.303052,-0.410500,-0.184680,-0.507614,0.231869,-0.170972,-3.017223,0.844890
18600.272000,0.973756,-1.340817,2.014113,-2.726175,-1.303021,-0.410669,-0.184757,-0.507597,0.231638,-0.171020,-3.017486,0.844445,0.000332,-0.000588,-0.000000,0.001079,0.001127,0.000527,0.973927,-1.340850,2.013931,-2.726354,-1.303067,-0.410475,-0.184701,-0.507668,0.231754,-0.170972,-3.017223,0.844890
