correlllab/MAGPIE/datasets/trajectories/1726689855.8823204_yellow_block_id-0/2.csv
timestamp,q0,q1,q2,q3,q4,q5,x,y,z,rx,ry,rz,dx,dy,dz,drx,dry,drz,aperture,d_aperture,contact_force,applied_force,d_applied_force,task,img,wrist_img
1726689872.8705068,0.941708,-1.367886,1.886372,-2.436119,-1.288784,-0.531231,-0.210819,-0.516634,0.268464,-2.7032276511585898,0.049154503277938376,3.1105192149043845,-9.999999999982245e-06,2.2999999999995246e-05,-2.199999999996649e-05,-6.870580854556607e-05,0.00010377668679257407,-1.2741875087929344e-05,32.41248855213753,0.0,0.08397885088757397,3.3430000000000004,0.0,moving back to original position with yellow block,2_1726689872.8588011.jpeg,2_1726689872.9015071.jpeg
1726689872.9665067,0.94166,-1.367886,1.88642,-2.436119,-1.288772,-0.531206,-0.210836,-0.516616,0.268442,-2.70326205928575,0.04920172773191865,3.110452540401759,7.000000000007001e-06,4.999999999921734e-06,0.0,-3.429768138518696e-05,5.65522328122986e-05,5.3932627537722766e-05,32.41248855213753,0.0,0.08397885088757397,3.3430000000000004,0.0,moving back to original position with yellow block,2_1726689872.9494224.jpeg,2_1726689872.991665.jpeg
1726689873.0625067,0.941432,-1.37587,1.886432,-2.428081,-1.288593,-0.531542,-0.209899,-0.515126,0.271827,-2.7032293843807187,0.04920304840635141,3.1105464631146122,-1.9999999999992246e-05,4.700000000001925e-05,4.300000000001525e-05,-6.950139758687968e-05,5.604488419167636e-05,-3.98742171072719e-05,32.41248855213753,0.0,0.08397885088757397,3.3430000000000004,0.0,moving back to original position with yellow block,2_1726689873.0382552.jpeg,2_1726689873.0797498.jpeg
1726689873.1585066,0.940702,-1.392966,1.886324,-2.410674,-1.288377,-0.532226,-0.207985,-0.511826,0.279061,-2.7033014887589055,0.049126280162939205,3.1104082495778522,1.000000000001e-06,5.999999999950489e-06,0.00010100000000001774,-2.1186889496149774e-06,0.00013256207274400106,9.686745976722477e-05,32.41248855213753,0.0,0.08397885088757397,3.3430000000000004,0.0,moving back to original position with yellow block,2_1726689873.1247613.jpeg,2_1726689873.1665173.jpeg
1726689873.2545066,0.939612,-1.419269,1.885115,-2.382602,-1.287826,-0.533294,-0.20496,-0.506715,0.2904,-2.703501394673216,0.04930950916165359,3.110303817639968,2.000000000002e-06,-5.999999999950489e-06,0.00016900000000003024,0.00018988703491285008,-4.978123585812344e-05,0.00019933786419334965,32.41248855213753,0.0,0.08397885088757397,3.3430000000000004,0.0,moving back to original position with yellow block,2_1726689873.2138476.jpeg,2_1726689873.2548952.jpeg
1726689873.3505065,0.938127,-1.454109,1.881642,-2.344052,-1.287107,-0.534853,-0.20087,-0.499828,0.305901,-2.7033453822059816,0.04919963945024472,3.1102598182666994,2.3999999999996247e-05,3.300000000000525e-05,0.00016399999999999748,2.3947144949243437e-05,6.062672580724182e-05,0.0002412597594636523,32.41248855213753,0.0,0.08397885088757397,3.3430000000000004,0.0,moving back to original position with yellow block,2_1726689873.3880012.jpeg,2_1726689873.342305.jpeg
1726689873.4465065,0.936127,-1.496744,1.874553,-2.293596,-1.286258,-0.537156,-0.195696,-0.491061,0.325479,-2.7035175238221942,0.04912395024947317,3.1103273556393356,4.300000000001525e-05,1.4000000000014001e-05,0.00015699999999996272,0.00018283468996704855,0.00013715357887249952,0.00017031788678734117,32.41248855213753,0.0,0.08397885088757397,3.3430000000000004,0.0,moving back to original position with yellow block,2_1726689873.473537.jpeg,2_1726689873.4287195.jpeg
1726689873.5425065,0.933924,-1.540987,1.863381,-2.237543,-1.285348,-0.539651,-0.19004,-0.481538,0.346794,-2.703570405641556,0.048955883904637905,3.1103498070336406,3.799999999998249e-05,9.000000000036756e-06,0.00013699999999999823,0.0002211980174986472,0.00030646400338779634,0.0001445198590479535,32.41248855213753,0.0,0.08397885088757397,3.3430000000000004,0.0,moving back to original position with yellow block,2_1726689873.5594642.jpeg,2_1726689873.5145783.jpeg
1726689873.6385064,0.931564,-1.582608,1.848688,-2.180559,-1.28433,-0.542266,-0.184432,-0.472052,0.368013,-2.703576437104441,0.04885522953578786,3.1103497567837057,5.7000000000001494e-05,2.000000000002e-06,0.00012500000000004174,0.00021334318742960434,0.0004081589438389571,0.00014119446847882244,32.41248855213753,0.0,0.08397885088757397,3.3430000000000004,0.0,moving back to original position with yellow block,2_1726689873.643597.jpeg,2_1726689873.5992763.jpeg
1726689873.7345064,0.929468,-1.616758,1.833133,-2.129932,-1.283192,-0.544581,-0.179491,-0.463787,0.386425,-2.7037128698748987,0.04915189427341201,3.1104087848613298,-2.000000000002e-06,-3.999999999998449e-05,0.00010999999999999899,0.00033715407865386737,0.00011212800154192237,7.873280585357634e-05,32.41248855213753,0.0,0.08397885088757397,3.3430000000000004,0.0,moving back to original position with yellow block,2_1726689873.7283177.jpeg,2_1726689873.7694635.jpeg
1726689873.8305063,0.927732,-1.641772,1.819075,-2.090344,-1.282462,-0.546344,-0.175716,-0.457394,0.400778,-2.7037295391495935,0.049173322544200704,3.1102626123567947,2.0000000000020002e-05,-3.799999999998249e-05,6.599999999995498e-05,0.0003438959129229424,9.123734634731984e-05,0.000222827681283011,32.41248855213753,0.0,0.08397885088757397,3.3430000000000004,0.0,moving back to original position with yellow block,2_1726689873.8143291.jpeg,2_1726689873.8534114.jpeg
1726689873.9265063,0.926474,-1.658981,1.808011,-2.06199,-1.281827,-0.547784,-0.172985,-0.452809,0.411136,-2.703433288851646,0.049038587641657326,3.1103535096349533,0.0,-5.499999999997174e-05,-7.20000000000165e-05,4.102732006217025e-05,0.00022633060594792753,0.00013054530452105695,32.41248855213753,0.0,0.08397885088757397,3.3430000000000004,0.0,moving back to original position with yellow block,2_1726689873.8979676.jpeg,2_1726689873.9386272.jpeg
1726689874.0225062,0.92584,-1.668886,1.801029,-2.044691,-1.28136,-0.54842,-0.171289,-0.450098,0.417261,-2.703515342695781,0.049332058697674826,3.110336572687582,-6.90000000000135e-05,-2.4999999999997247e-05,-6.60000000000105e-05,0.00011912229791199991,-6.663789942860238e-05,0.00014618414186928774,32.41248855213753,0.0,0.08397885088757397,3.3430000000000004,0.0,moving back to original position with yellow block,2_1726689873.9831407.jpeg,2_1726689874.023353.jpeg
1726689874.1185062,0.925636,-1.672171,1.798731,-2.039169,-1.281252,-0.548719,-0.170717,-0.449185,0.419302,-2.703400957362538,0.04924175810640675,3.1104098145450556,-9.899999999998799e-05,-2.4999999999997247e-05,-6.40000000000085e-05,3.4725392583645487e-06,2.406925037181512e-05,7.30001696753746e-05,32.41248855213753,0.0,0.08397885088757397,3.3430000000000004,0.0,moving back to original position with yellow block,2_1726689874.15356.jpeg,2_1726689874.108203.jpeg
1726689874.2145061,0.9256,-1.671992,1.798851,-2.039349,-1.281097,-0.548791,-0.170756,-0.44923,0.419183,-2.7034117551796455,0.04940065159282419,3.110491553279268,-6.0000000000004494e-05,2.0000000000020002e-05,5.500000000002725e-05,1.4270356365919667e-05,-0.00013482423604562616,-8.73856453686983e-06,32.41248855213753,0.0,0.08397885088757397,3.3430000000000004,0.0,moving back to original position with yellow block,2_1726689874.2379215.jpeg,2_1726689874.1933298.jpeg
1726689874.310506,0.925492,-1.671956,1.798815,-2.039325,-1.281097,-0.548983,-0.170813,-0.449223,0.419181,-2.703422135789155,0.04933317477667697,3.1105570037432777,-3.0000000000030003e-06,1.2999999999985246e-05,5.699999999997374e-05,2.465096587522808e-05,-6.734741989841003e-05,-7.418902854672282e-05,32.41248855213753,0.0,0.08397885088757397,3.3430000000000004,0.0,moving back to original position with yellow block,2_1726689874.322137.jpeg,2_1726689874.2778184.jpeg
1726689874.406506,0.925528,-1.671896,1.798815,-2.039349,-1.281049,-0.549067,-0.170806,-0.449248,0.419157,-2.7034227066929386,0.0493547994600712,3.1106854463161033,-9.999999999982245e-06,3.799999999998249e-05,8.099999999999774e-05,2.522186965903117e-05,-8.8972103292638e-05,-0.00020263160137234948,32.41248855213753,0.0,0.08397885088757397,3.3430000000000004,0.0,moving back to original position with yellow block,2_1726689874.406506.jpeg,2_1726689874.3618987.jpeg
