correlllab/MAGPIE/datasets/trajectories/1726695141.1641197_circuit_board_id-0/2.csv
timestamp,q0,q1,q2,q3,q4,q5,x,y,z,rx,ry,rz,dx,dy,dz,drx,dry,drz,aperture,d_aperture,contact_force,applied_force,d_applied_force,task,img,wrist_img
1726695161.16441,0.937037,-1.306209,1.862063,-2.571091,-1.285168,-0.444674,-0.22562,-0.533212,0.261414,-2.621816512738684,0.04043651288465765,3.0347401831151664,-1.2000000000012001e-05,2.0000000000575113e-06,-3.300000000000525e-05,-4.778689336948361e-05,-3.406975305084159e-05,-3.894648325353245e-05,65.27462582447,0.0,0.1621207100591716,3.926249999999999,0.0,moving back to original position with circuit board,2_1726695161.2390814.jpeg,2_1726695161.2151132.jpeg
1726695161.26041,0.936965,-1.307132,1.862519,-2.570348,-1.285156,-0.444698,-0.225486,-0.532961,0.261639,-2.6220510505613177,0.04056908185931659,3.0346804148082316,3.300000000000525e-05,4.999999999999449e-05,0.00020100000000000673,0.00024031824085968267,-0.0001985128096419972,2.321023802487332e-05,65.27462582447,0.0,0.1621207100591716,3.926249999999999,0.0,moving back to original position with circuit board,2_1726695161.279438.jpeg,2_1726695161.2565594.jpeg
1726695161.35641,0.93651,-1.317729,1.865775,-2.5635,-1.285012,-0.445094,-0.224053,-0.530582,0.2653,-2.6215652154748748,0.04020416953048529,3.0346114142366702,3.900000000001125e-05,5.699999999997374e-05,0.00021000000000004349,0.00018086585816545764,-8.357040303515889e-05,0.00010974555428422406,65.27462582447,0.0,0.1621207100591716,3.926249999999999,0.0,moving back to original position with circuit board,2_1726695161.326851.jpeg,2_1726695161.3615575.jpeg
1726695161.45241,0.93554,-1.339067,1.871847,-2.549024,-1.284689,-0.445922,-0.221187,-0.525786,0.272704,-2.6207470678302496,0.039579406584589034,3.0344463514838496,4.999999999999449e-05,3.399999999997849e-05,0.00014599999999997948,0.00021603772813261202,4.145321263115953e-05,0.00031021314690526935,65.27462582447,0.0,0.1621207100591716,3.926249999999999,0.0,moving back to original position with circuit board,2_1726695161.460157.jpeg,2_1726695161.428172.jpeg
1726695161.54841,0.934127,-1.370763,1.879965,-2.526992,-1.283947,-0.447409,-0.216855,-0.518654,0.283798,-2.6190866300629447,0.03853890391922116,3.03457759924876,3.300000000000525e-05,6.199999999989547e-05,6.20000000000065e-05,-0.00016517848410746439,0.0003317137973818454,0.00023197991740664392,65.27462582447,0.0,0.1621207100591716,3.926249999999999,0.0,moving back to original position with circuit board,2_1726695161.526894.jpeg,2_1726695161.56298.jpeg
1726695161.64441,0.932055,-1.412759,1.889066,-2.495796,-1.282797,-0.449532,-0.211097,-0.509082,0.298553,-2.6171116936257097,0.037379777015402266,3.0347308062926053,2.8000000000000247e-05,3.6000000000036e-05,-1.2999999999985246e-05,-0.0004340463900516234,0.0004914588599514366,0.00014729064214114018,65.27462582447,0.0,0.1621207100591716,3.926249999999999,0.0,moving back to original position with circuit board,2_1726695161.6621318.jpeg,2_1726695161.6316142.jpeg
1726695161.7404099,0.929373,-1.464168,1.897305,-2.454365,-1.281288,-0.452291,-0.203942,-0.497212,0.316864,-2.6149421154256753,0.03611795692830215,3.0349190804269695,4.000000000004e-06,-2.000000000002e-06,-0.00012899999999999023,-0.0004894514321032162,0.0005126580808715517,4.129837357336186e-05,65.27462582447,0.0,0.1621207100591716,3.926249999999999,0.0,moving back to original position with circuit board,2_1726695161.7290018.jpeg,2_1726695161.7632408.jpeg
1726695161.8364098,0.926331,-1.516767,1.902598,-2.408623,-1.279672,-0.455278,-0.196489,-0.484776,0.335877,-2.6128714877856036,0.03489662681922821,3.0349530755408245,4.299999999998749e-05,-9.000000000036756e-06,-2.799999999997249e-05,-0.00033938278775202946,0.0004318829825258677,9.121155134961256e-05,65.27462582447,0.0,0.1621207100591716,3.926249999999999,0.0,moving back to original position with circuit board,2_1726695161.8629773.jpeg,2_1726695161.830019.jpeg
1726695161.9324098,0.923253,-1.568098,1.904059,-2.360418,-1.277996,-0.45836,-0.188976,-0.472385,0.355008,-2.6106845640261467,0.03361490995297226,3.0350400506999113,2.0999999999993246e-05,2.999999999997449e-05,-4.399999999998849e-05,-0.0003057494085134671,0.00041093496847308814,8.531412650158998e-05,65.27462582447,0.0,0.1621207100591716,3.926249999999999,0.0,moving back to original position with circuit board,2_1726695161.9297378.jpeg,2_1726695161.9633598.jpeg
1726695162.0284097,0.919875,-1.618029,1.902132,-2.310431,-1.276164,-0.461755,-0.181454,-0.459917,0.374147,-2.6082379636872974,0.03218413469542019,3.0351526340346333,-9.000000000009e-06,-7.99999999995249e-06,-6.899999999998574e-05,-0.0005319243340249358,0.0005384853322481925,5.0974808258441584e-05,65.27462582447,0.0,0.1621207100591716,3.926249999999999,0.0,moving back to original position with circuit board,2_1726695161.995956.jpeg,2_1726695162.0299814.jpeg
1726695162.1244097,0.916307,-1.665972,1.896491,-2.257956,-1.274176,-0.465366,-0.173933,-0.447487,0.393177,-2.606363974082398,0.031151868128177232,3.035285428491877,-3.899999999998349e-05,-7.99999999995249e-06,1.6000000000016e-05,-0.00018613279183599118,0.0002682510050076095,-6.766709792049852e-06,65.27462582447,0.0,0.1621207100591716,3.926249999999999,0.0,moving back to original position with circuit board,2_1726695162.129372.jpeg,2_1726695162.0966132.jpeg
1726695162.2204096,0.912379,-1.711626,1.887163,-2.204287,-1.272141,-0.46936,-0.166517,-0.435111,0.412198,-2.6042744430567497,0.029852737688025367,3.035399718767047,3.700000000000925e-05,4.6000000000046004e-05,0.00010999999999999899,-5.5493912189508166e-05,0.000263151930334677,-4.911559289855205e-05,65.27462582447,0.0,0.1621207100591716,3.926249999999999,0.0,moving back to original position with circuit board,2_1726695162.1960533.jpeg,2_1726695162.2300875.jpeg
1726695162.3164096,0.908187,-1.755184,1.874265,-2.149497,-1.269961,-0.473522,-0.159054,-0.422695,0.431335,-2.6018083307289355,0.02839030160231536,3.035453151972259,3.700000000000925e-05,1.2000000000012001e-05,1.399999999995849e-05,-0.0003101798399871569,0.00042740380402564795,-3.2842781495290296e-05,65.27462582447,0.0,0.1621207100591716,3.926249999999999,0.0,moving back to original position with circuit board,2_1726695162.3290415.jpeg,2_1726695162.295446.jpeg
1726695162.4124095,0.904282,-1.7909,1.860171,-2.100464,-1.26789,-0.477277,-0.152582,-0.41193,0.447862,-2.60014111930879,0.027535401407397766,3.0354044288364292,4.899999999999349e-05,6.0000000000060005e-06,3.300000000000525e-05,-5.6549790610205264e-05,0.00015435980995708032,7.349625328956222e-05,65.27462582447,0.0,0.1621207100591716,3.926249999999999,0.0,moving back to original position with circuit board,2_1726695162.3960578.jpeg,2_1726695162.4297268.jpeg
1726695162.5084095,0.901085,-1.817453,1.847359,-2.062146,-1.266357,-0.480431,-0.147521,-0.40352,0.460825,-2.5984933419068246,0.026453082128354566,3.035376917688885,3.500000000000725e-05,-3.100000000000325e-05,-5.499999999997174e-05,-0.0002091787830282854,0.0003579512935451973,0.0001444543116009278,65.27462582447,0.0,0.1621207100591716,3.926249999999999,0.0,moving back to original position with circuit board,2_1726695162.5298312.jpeg,2_1726695162.4961686.jpeg
1726695162.6044095,0.898738,-1.835743,1.837216,-2.034343,-1.265112,-0.48271,-0.143856,-0.397491,0.470108,-2.5973431763973047,0.025843683121924695,3.035376838639414,-2.1999999999994246e-05,-7.40000000000185e-05,-0.000132000000000021,-0.00028994178704522255,0.00034001700151339853,0.00017484287705871182,65.27462582447,0.0,0.1621207100591716,3.926249999999999,0.0,moving back to original position with circuit board,2_1726695162.5959878.jpeg,2_1726695162.6294215.jpeg
1726695162.7004094,0.896918,-1.849752,1.828595,-2.011617,-1.264214,-0.484557,-0.140912,-0.392715,0.47739,-2.596972758202126,0.02558961348261255,3.0353927332501267,-6.599999999998274e-05,-3.700000000000925e-05,-1.2999999999985246e-05,0.00019852516422425026,8.911732018286253e-05,0.0001827010290655906,65.27462582447,0.0,0.1621207100591716,3.926249999999999,0.0,moving back to original position with circuit board,2_1726695162.7293642.jpeg,2_1726695162.6950636.jpeg
1726695162.7964094,0.896918,-1.849584,1.82869,-2.011785,-1.264046,-0.484594,-0.140942,-0.392774,0.477299,-2.596971599220795,0.025749357707755487,3.035500163348001,-3.599999999998049e-05,2.2000000000022002e-05,7.80000000000225e-05,0.00019736618289334373,-7.062690496007287e-05,7.527093119108486e-05,65.27462582447,0.0,0.1621207100591716,3.926249999999999,0.0,moving back to original position with circuit board,2_1726695162.7964094.jpeg,2_1726695162.762815.jpeg
