correlllab/MAGPIE/datasets/trajectories/1726692950.3229165_yellow_ducky_id-0/0.csv
timestamp,q0,q1,q2,q3,q4,q5,x,y,z,rx,ry,rz,dx,dy,dz,drx,dry,drz,aperture,d_aperture,contact_force,applied_force,d_applied_force,task,img,wrist_img
1726692952.5596137,0.896882,-1.849536,1.828607,-2.011737,-1.263866,-0.484713,-0.140956,-0.392791,0.477321,-2.596893943574601,0.025830111249186303,3.0356478977771464,-2.3999999999996247e-05,2.2000000000022002e-05,5.900000000003125e-05,6.785877085357939e-05,-9.456530497432142e-05,-9.176633303731307e-05,42.47526771391085,0.0,0.0,0.0,0.0,moving to grasp dataset builder/deligrasp dataset/trajectories/1726692950.3229165 yellow ducky,"[[[ 97  88  81]
  [ 97  88  81]
  [ 97  86  80]
  ...
  [110 105 101]
  [111 106 102]
  [113 108 104]]

 [[ 95  86  81]
  [ 96  87  80]
  [ 98  87  83]
  ...
  [103  98  94]
  [106 101  97]
  [109 104 100]]

 [[ 93  83  81]
  [ 95  86  81]
  [ 97  87  85]
  ...
  [100  95  91]
  [103  98  94]
  [107 102  98]]

 ...

 [[161 148 131]
  [163 150 133]
  [167 155 139]
  ...
  [145 137 116]
  [144 136 115]
  [144 136 115]]

 [[166 148 124]
  [163 147 124]
  [162 147 126]
  ...
  [144 136 113]
  [144 136 113]
  [143 135 112]]

 [[168 148 121]
  [165 148 122]
  [165 147 123]
  ...
  [143 135 112]
  [143 135 112]
  [142 134 111]]]","[[[ 53  62  59]
  [ 54  63  60]
  [ 53  62  59]
  ...
  [125 125 125]
  [127 127 127]
  [130 130 130]]

 [[ 54  63  60]
  [ 53  62  59]
  [ 52  61  58]
  ...
  [127 127 127]
  [129 129 129]
  [130 130 130]]

 [[ 55  65  64]
  [ 52  62  61]
  [ 50  60  59]
  ...
  [129 129 129]
  [129 129 129]
  [130 130 130]]

 ...

 [[ 53  59  59]
  [ 52  58  56]
  [ 51  57  57]
  ...
  [ 63  65  60]
  [ 64  66  61]
  [ 64  66  61]]

 [[ 53  58  61]
  [ 52  58  58]
  [ 51  56  59]
  ...
  [ 57  60  53]
  [ 59  62  55]
  [ 63  66  59]]

 [[ 52  57  60]
  [ 52  57  60]
  [ 51  56  59]
  ...
  [ 54  57  50]
  [ 55  58  51]
  [ 58  61  54]]]"
1726692952.6556137,0.896918,-1.84938,1.828774,-2.012325,-1.263938,-0.484678,-0.140992,-0.392851,0.477242,-2.5967049139530807,0.025652597572292525,3.0356304816452764,-4.199999999998649e-05,-4.599999999999049e-05,-7.80000000000225e-05,-0.00012117085066654099,8.294837191945639e-05,-7.435020116730584e-05,42.47526771391085,0.0,0.0,0.0,0.0,moving to grasp dataset builder/deligrasp dataset/trajectories/1726692950.3229165 yellow ducky,"[[[ 97  88  81]
  [ 97  88  81]
  [ 97  86  80]
  ...
  [110 105 101]
  [111 106 102]
  [113 108 104]]

 [[ 95  86  81]
  [ 96  87  80]
  [ 98  87  83]
  ...
  [103  98  94]
  [106 101  97]
  [109 104 100]]

 [[ 93  83  81]
  [ 95  86  81]
  [ 97  87  85]
  ...
  [100  95  91]
  [103  98  94]
  [107 102  98]]

 ...

 [[161 148 131]
  [163 150 133]
  [167 155 139]
  ...
  [145 137 116]
  [144 136 115]
  [144 136 115]]

 [[166 148 124]
  [163 147 124]
  [162 147 126]
  ...
  [144 136 113]
  [144 136 113]
  [143 135 112]]

 [[168 148 121]
  [165 148 122]
  [165 147 123]
  ...
  [143 135 112]
  [143 135 112]
  [142 134 111]]]","[[[ 54  60  60]
  [ 50  56  56]
  [ 49  54  57]
  ...
  [129 127 128]
  [129 127 128]
  [129 127 128]]

 [[ 54  60  60]
  [ 52  58  58]
  [ 52  57  60]
  ...
  [129 127 128]
  [129 127 128]
  [129 127 128]]

 [[ 55  60  63]
  [ 54  59  62]
  [ 53  61  63]
  ...
  [129 127 128]
  [129 127 128]
  [129 127 128]]

 ...

 [[ 52  58  58]
  [ 52  58  58]
  [ 51  57  57]
  ...
  [ 62  67  61]
  [ 64  69  63]
  [ 62  67  61]]

 [[ 52  58  58]
  [ 54  60  60]
  [ 51  57  57]
  ...
  [ 57  62  56]
  [ 59  64  58]
  [ 58  63  57]]

 [[ 50  56  56]
  [ 54  60  60]
  [ 51  57  57]
  ...
  [ 53  58  52]
  [ 55  60  54]
  [ 56  61  55]]]"
1726692952.7516136,0.898283,-1.844415,1.833241,-2.022506,-1.264454,-0.483562,-0.141794,-0.394673,0.474198,-2.5963362658147235,0.02545086088556484,3.0358884837889537,-5.099999999999549e-05,-0.00013299999999999423,-0.0002650000000000152,-0.0004910300266747214,0.00028667008149442855,-0.000330380711198508,42.47526771391085,0.0,0.0,0.0,0.0,moving to grasp dataset builder/deligrasp dataset/trajectories/1726692950.3229165 yellow ducky,"[[[ 99  85  82]
  [100  86  83]
  [ 98  87  81]
  ...
  [108 105 100]
  [110 105 101]
  [107 102  98]]

 [[ 99  85  82]
  [ 97  83  80]
  [ 95  84  78]
  ...
  [106 101  97]
  [108 103  99]
  [108 103  99]]

 [[ 98  84  81]
  [ 95  81  78]
  [ 92  81  75]
  ...
  [102  94  91]
  [105  97  94]
  [106  98  95]]

 ...

 [[166 148 128]
  [167 150 132]
  [171 155 139]
  ...
  [145 137 118]
  [145 137 118]
  [145 137 118]]

 [[169 148 121]
  [164 144 119]
  [161 145 122]
  ...
  [145 137 118]
  [145 137 118]
  [145 137 118]]

 [[172 149 118]
  [167 146 117]
  [163 145 121]
  ...
  [145 137 118]
  [145 137 118]
  [145 137 118]]]","[[[ 51  59  61]
  [ 53  61  63]
  [ 53  61  63]
  ...
  [130 126 127]
  [130 126 127]
  [129 125 126]]

 [[ 52  60  62]
  [ 54  62  64]
  [ 54  62  64]
  ...
  [133 129 130]
  [134 130 131]
  [133 129 130]]

 [[ 52  60  62]
  [ 54  62  64]
  [ 54  62  64]
  ...
  [133 129 130]
  [134 130 131]
  [133 129 130]]

 ...

 [[ 54  61  67]
  [ 48  55  61]
  [ 48  56  59]
  ...
  [ 64  69  62]
  [ 65  70  63]
  [ 66  71  64]]

 [[ 53  60  66]
  [ 48  55  61]
  [ 47  55  58]
  ...
  [ 55  62  54]
  [ 57  64  56]
  [ 58  65  57]]

 [[ 52  59  65]
  [ 51  58  64]
  [ 50  58  61]
  ...
  [ 53  60  52]
  [ 55  62  54]
  [ 57  64  56]]]"
1726692952.8476136,0.901588,-1.832541,1.843251,-2.044967,-1.265926,-0.480192,-0.143593,-0.398909,0.466989,-2.5966040432885835,0.02580208241635911,3.0357972088549356,-3.800000000001025e-05,-9.799999999998699e-05,-0.00016499999999997073,-0.00022526106313591754,-6.217181588179244e-05,-0.00023633675691936418,42.47526771391085,0.0,0.0,0.0,0.0,moving to grasp dataset builder/deligrasp dataset/trajectories/1726692950.3229165 yellow ducky,"[[[ 92  84  73]
  [ 91  83  72]
  [ 93  85  74]
  ...
  [108 105  98]
  [110 107 100]
  [111 108 101]]

 [[ 93  85  74]
  [ 92  84  73]
  [ 94  86  75]
  ...
  [104 101  94]
  [107 104  97]
  [110 107 100]]

 [[ 94  86  75]
  [ 93  85  74]
  [ 92  86  74]
  ...
  [ 99  96  89]
  [103 100  93]
  [106 103  96]]

 ...

 [[162 147 128]
  [167 151 135]
  [172 159 142]
  ...
  [145 137 116]
  [145 137 116]
  [145 137 116]]

 [[166 149 129]
  [164 147 127]
  [164 147 129]
  ...
  [145 137 116]
  [145 137 116]
  [144 136 115]]

 [[166 148 126]
  [164 146 124]
  [164 145 128]
  ...
  [146 138 117]
  [145 137 116]
  [143 135 114]]]","[[[ 56  61  64]
  [ 56  61  64]
  [ 58  63  66]
  ...
  [126 124 125]
  [130 126 127]
  [131 127 128]]

 [[ 56  61  64]
  [ 56  61  64]
  [ 57  62  65]
  ...
  [128 126 127]
  [132 128 129]
  [133 129 130]]

 [[ 56  61  64]
  [ 55  60  63]
  [ 57  62  65]
  ...
  [132 128 129]
  [133 129 130]
  [133 129 130]]

 ...

 [[ 52  57  63]
  [ 51  56  62]
  [ 52  57  61]
  ...
  [ 62  65  58]
  [ 64  67  60]
  [ 66  69  62]]

 [[ 51  56  62]
  [ 51  56  62]
  [ 51  56  60]
  ...
  [ 60  63  56]
  [ 61  64  55]
  [ 62  65  56]]

 [[ 50  55  61]
  [ 51  56  62]
  [ 52  57  61]
  ...
  [ 57  60  53]
  [ 58  61  52]
  [ 57  60  51]]]"
1726692952.9436135,0.906642,-1.813699,1.857921,-2.079841,-1.268429,-0.47525,-0.146286,-0.40538,0.455963,-2.5967083476968544,0.025788977933824408,3.035733225386119,-0.00010499999999999399,-0.00011800000000000699,-0.00012499999999998623,-0.0001244123006487463,-4.357270543899755e-05,-0.0001679235885156949,42.47526771391085,0.0,0.0,0.0,0.0,moving to grasp dataset builder/deligrasp dataset/trajectories/1726692950.3229165 yellow ducky,"[[[ 92  89  72]
  [ 92  89  72]
  [ 94  90  78]
  ...
  [104  99  95]
  [109 104 100]
  [115 110 106]]

 [[ 92  89  74]
  [ 90  87  72]
  [ 90  86  74]
  ...
  [101  96  92]
  [105 100  96]
  [109 104 100]]

 [[ 91  87  75]
  [ 91  87  75]
  [ 89  85  73]
  ...
  [102  97  93]
  [103  98  94]
  [106 101  97]]

 ...

 [[164 152 130]
  [164 153 133]
  [170 159 141]
  ...
  [143 135 116]
  [144 136 117]
  [144 136 117]]

 [[165 151 125]
  [162 147 124]
  [163 148 127]
  ...
  [143 135 116]
  [144 136 117]
  [144 136 117]]

 [[165 149 123]
  [162 146 121]
  [162 147 124]
  ...
  [144 136 117]
  [144 136 117]
  [145 137 118]]]","[[[ 57  63  63]
  [ 56  62  62]
  [ 54  59  62]
  ...
  [127 127 125]
  [125 125 123]
  [128 128 126]]

 [[ 56  62  62]
  [ 55  61  61]
  [ 55  60  63]
  ...
  [128 128 126]
  [126 126 124]
  [129 129 127]]

 [[ 55  60  63]
  [ 55  60  63]
  [ 55  60  63]
  ...
  [128 128 126]
  [126 126 126]
  [128 128 128]]

 ...

 [[ 55  61  61]
  [ 53  59  59]
  [ 51  57  57]
  ...
  [ 54  57  50]
  [ 60  63  56]
  [ 67  70  63]]

 [[ 55  60  63]
  [ 55  60  63]
  [ 50  55  58]
  ...
  [ 58  61  54]
  [ 58  61  52]
  [ 64  67  58]]

 [[ 55  60  64]
  [ 55  60  64]
  [ 49  54  58]
  ...
  [ 61  64  57]
  [ 57  60  51]
  [ 61  64  55]]]"
1726692953.0396135,0.912917,-1.786641,1.875942,-2.126571,-1.271638,-0.468928,-0.150057,-0.414124,0.441075,-2.596892966819241,0.025827659267568328,3.035466391066855,-6.80000000000125e-05,-0.00015700000000001824,-0.00010100000000001774,5.597331784867876e-05,-7.658790079651673e-05,0.00010473648593034568,42.47526771391085,0.0,0.0,0.0,0.0,moving to grasp dataset builder/deligrasp dataset/trajectories/1726692950.3229165 yellow ducky,"[[[ 94  90  81]
  [ 93  89  80]
  [ 94  91  84]
  ...
  [107 103 100]
  [110 106 105]
  [111 107 106]]

 [[ 93  89  80]
  [ 92  88  79]
  [ 90  87  80]
  ...
  [106 102  99]
  [110 106 105]
  [114 110 109]]

 [[ 94  87  79]
  [ 95  91  82]
  [ 91  88  81]
  ...
  [100  95  92]
  [104 100  97]
  [107 103 100]]

 ...

 [[166 148 134]
  [172 154 140]
  [174 158 145]
  ...
  [145 137 118]
  [146 138 119]
  [146 138 119]]

 [[167 146 127]
  [169 148 131]
  [165 146 131]
  ...
  [144 136 117]
  [145 137 118]
  [145 137 118]]

 [[167 145 124]
  [166 145 124]
  [166 145 128]
  ...
  [144 136 117]
  [145 137 118]
  [145 137 118]]]","[[[ 56  61  64]
  [ 56  61  64]
  [ 56  61  64]
  ...
  [130 130 130]
  [129 129 129]
  [127 127 127]]

 [[ 56  61  64]
  [ 56  61  64]
  [ 56  61  64]
  ...
  [130 130 130]
  [129 129 129]
  [127 127 127]]

 [[ 54  62  64]
  [ 54  62  64]
  [ 54  62  64]
  ...
  [130 130 130]
  [129 129 129]
  [129 129 129]]

 ...

 [[ 51  56  59]
  [ 50  55  58]
  [ 51  57  57]
  ...
  [ 52  54  51]
  [ 53  55  52]
  [ 52  54  51]]

 [[ 52  57  60]
  [ 52  57  60]
  [ 52  57  60]
  ...
  [ 51  53  50]
  [ 50  52  49]
  [ 50  52  49]]

 [[ 51  56  59]
  [ 53  58  61]
  [ 53  58  61]
  ...
  [ 52  54  51]
  [ 50  52  49]
  [ 51  53  50]]]"
1726692953.1356134,0.920522,-1.750219,1.895677,-2.185013,-1.275314,-0.461635,-0.154752,-0.425184,0.422451,-2.596727676154337,0.02572141504316344,3.035565327446755,-7.399999999999074e-05,-0.00015399999999998748,-0.00018899999999999473,-0.00011497832416340614,3.821439760127998e-05,1.3885176849637304e-05,42.47526771391085,0.0,0.0,0.0,0.0,moving to grasp dataset builder/deligrasp dataset/trajectories/1726692950.3229165 yellow ducky,"[[[ 90  89  71]
  [ 95  94  76]
  [ 88  89  75]
  ...
  [107 104  97]
  [107 107  97]
  [107 107  97]]

 [[ 93  90  73]
  [ 89  87  72]
  [ 92  90  77]
  ...
  [102  99  92]
  [104 104  94]
  [108 108  98]]

 [[ 94  88  74]
  [ 91  88  73]
  [ 92  88  76]
  ...
  [ 96  93  86]
  [100  97  88]
  [105 102  93]]

 ...

 [[163 150 131]
  [167 154 135]
  [171 158 141]
  ...
  [145 137 118]
  [145 137 118]
  [145 137 118]]

 [[166 148 128]
  [163 145 125]
  [161 144 126]
  ...
  [145 137 118]
  [146 138 119]
  [146 138 119]]

 [[171 150 129]
  [166 145 124]
  [163 145 125]
  ...
  [145 137 118]
  [145 137 118]
  [146 138 119]]]","[[[ 55  59  68]
  [ 60  64  73]
  [ 60  65  71]
  ...
  [135 132 127]
  [134 131 126]
  [133 130 125]]

 [[ 56  60  69]
  [ 59  63  72]
  [ 58  63  69]
  ...
  [135 132 127]
  [134 131 126]
  [133 130 125]]

 [[ 54  61  67]
  [ 55  62  68]
  [ 54  61  67]
  ...
  [135 131 128]
  [134 130 127]
  [134 130 127]]

 ...

 [[ 53  59  59]
  [ 53  59  59]
  [ 53  59  59]
  ...
  [ 58  59  54]
  [ 60  61  56]
  [ 61  62  57]]

 [[ 54  60  60]
  [ 53  59  59]
  [ 53  59  59]
  ...
  [ 53  54  49]
  [ 54  55  50]
  [ 55  56  51]]

 [[ 54  60  60]
  [ 53  59  59]
  [ 52  58  58]
  ...
  [ 50  51  46]
  [ 52  53  48]
  [ 53  54  49]]]"
1726692953.2316134,0.928259,-1.708064,1.913783,-2.247468,-1.279157,-0.454234,-0.159811,-0.437124,0.402207,-2.5966666827514877,0.02562327052449499,3.035639122359566,-8.800000000000474e-05,-0.00014700000000000824,-0.00013999999999997348,-0.00018223309196274684,0.00014462807347500467,-5.191381483360402e-05,42.47526771391085,0.0,0.0,0.0,0.0,moving to grasp dataset builder/deligrasp dataset/trajectories/1726692950.3229165 yellow ducky,"[[[ 99  86  80]
  [100  89  83]
  [ 95  84  78]
  ...
  [103 103  95]
  [107 104  97]
  [115 112 105]]

 [[104  91  85]
  [ 95  84  78]
  [ 94  85  78]
  ...
  [101 101  93]
  [105 102  95]
  [111 108 101]]

 [[ 96  85  79]
  [ 97  86  80]
  [ 95  86  81]
  ...
  [103 100  93]
  [104 101  94]
  [107 104  97]]

 ...

 [[169 152 132]
  [168 153 134]
  [171 155 139]
  ...
  [147 136 118]
  [147 136 118]
  [146 135 117]]

 [[168 150 128]
  [165 147 125]
  [163 146 126]
  ...
  [147 134 117]
  [148 135 118]
  [147 134 117]]

 [[168 148 124]
  [165 147 123]
  [164 146 126]
  ...
  [148 135 118]
  [149 136 119]
  [149 136 119]]]","[[[ 53  61  63]
  [ 53  61  63]
  [ 53  61  63]
  ...
  [130 128 129]
  [131 129 130]
  [132 130 131]]

 [[ 54  62  64]
  [ 54  62  64]
  [ 54  62  64]
  ...
  [130 128 129]
  [131 129 130]
  [132 130 131]]

 [[ 56  64  66]
  [ 54  62  64]
  [ 54  62  64]
  ...
  [131 129 130]
  [131 129 130]
  [132 130 131]]

 ...

 [[ 52  61  60]
  [ 51  60  59]
  [ 55  64  63]
  ...
  [ 52  55  46]
  [ 59  62  55]
  [ 58  61  54]]

 [[ 51  60  59]
  [ 51  60  59]
  [ 53  62  61]
  ...
  [ 49  52  43]
  [ 51  54  47]
  [ 54  57  50]]

 [[ 50  59  58]
  [ 50  59  58]
  [ 51  60  59]
  ...
  [ 50  53  44]
  [ 46  49  42]
  [ 49  52  45]]]"
1726692953.3276134,0.935492,-1.66319,1.927937,-2.308632,-1.282917,-0.447217,-0.164905,-0.449077,0.382078,-2.5965683059287628,0.02544389842625834,3.0355565151016335,-6.80000000000125e-05,-0.000128000000000017,-0.00020599999999998397,-0.0002870681322217905,0.00033295311406625686,3.9575737888153384e-05,42.47526771391085,0.0,0.0,0.0,0.0,moving to grasp dataset builder/deligrasp dataset/trajectories/1726692950.3229165 yellow ducky,"[[[ 94  86  75]
  [ 97  89  78]
  [ 94  87  77]
  ...
  [107 103 100]
  [109 105 104]
  [111 107 106]]

 [[ 98  90  79]
  [ 93  85  74]
  [ 94  87  77]
  ...
  [101  97  94]
  [104 100  99]
  [106 102 101]]

 [[ 94  86  75]
  [ 95  87  76]
  [ 97  90  80]
  ...
  [101  97  94]
  [105 101  98]
  [107 103 100]]

 ...

 [[167 150 134]
  [166 150 134]
  [170 154 139]
  ...
  [146 138 119]
  [149 138 120]
  [149 138 120]]

 [[163 145 121]
  [163 145 123]
  [165 148 128]
  ...
  [147 139 120]
  [150 139 121]
  [149 138 120]]

 [[167 147 120]
  [164 147 121]
  [165 147 125]
  ...
  [148 140 121]
  [150 139 121]
  [148 137 119]]]","[[[ 52  60  63]
  [ 51  59  62]
  [ 51  59  62]
  ...
  [128 126 129]
  [129 127 130]
  [131 129 132]]

 [[ 54  62  65]
  [ 53  61  64]
  [ 53  61  64]
  ...
  [130 128 131]
  [130 128 131]
  [132 130 133]]

 [[ 56  64  67]
  [ 56  64  67]
  [ 56  64  67]
  ...
  [131 129 132]
  [131 129 132]
  [131 129 132]]

 ...

 [[ 52  58  58]
  [ 53  59  59]
  [ 53  59  59]
  ...
  [ 55  57  54]
  [ 57  59  56]
  [ 58  60  57]]

 [[ 50  56  56]
  [ 51  57  57]
  [ 51  57  57]
  ...
  [ 52  54  51]
  [ 55  57  54]
  [ 55  57  54]]

 [[ 53  59  59]
  [ 53  59  59]
  [ 52  58  58]
  ...
  [ 49  51  48]
  [ 53  55  52]
  [ 53  55  52]]]"
1726692953.4236133,0.942379,-1.615883,1.938631,-2.368192,-1.286282,-0.440584,-0.169913,-0.461006,0.361827,-2.5967467244401115,0.02567816060706443,3.035603259055156,-0.00013299999999999423,-0.00013199999999996548,-0.00014999999999998348,-0.00011491077617842294,0.00010696032031433378,8.275581557803946e-07,42.47526771391085,0.0,0.0,0.0,0.0,moving to grasp dataset builder/deligrasp dataset/trajectories/1726692950.3229165 yellow ducky,"[[[ 96  82  79]
  [ 97  86  82]
  [ 97  86  84]
  ...
  [109 104  98]
  [111 106 100]
  [110 105  99]]

 [[ 98  84  81]
  [ 93  82  78]
  [ 95  85  83]
  ...
  [105 100  94]
  [108 103  97]
  [109 104  98]]

 [[ 98  87  83]
  [ 95  84  80]
  [ 97  87  85]
  ...
  [100  95  89]
  [104  99  93]
  [107 102  96]]

 ...

 [[169 150 135]
  [168 151 135]
  [172 156 141]
  ...
  [146 138 117]
  [144 138 116]
  [144 138 116]]

 [[168 147 128]
  [165 147 127]
  [164 147 129]
  ...
  [145 137 116]
  [144 138 116]
  [144 138 116]]

 [[168 146 125]
  [168 147 126]
  [165 146 129]
  ...
  [145 137 116]
  [144 138 116]
  [144 138 116]]]","[[[ 54  63  60]
  [ 55  64  61]
  [ 57  66  63]
  ...
  [131 130 125]
  [130 130 122]
  [130 130 122]]

 [[ 54  63  60]
  [ 55  64  61]
  [ 56  65  62]
  ...
  [132 131 126]
  [130 129 124]
  [130 130 122]]

 [[ 54  63  62]
  [ 55  64  63]
  [ 55  64  63]
  ...
  [133 132 127]
  [131 130 125]
  [131 130 125]]

 ...

 [[ 52  58  58]
  [ 51  57  57]
  [ 50  56  56]
  ...
  [ 55  56  50]
  [ 54  55  49]
  [ 55  56  50]]

 [[ 53  59  59]
  [ 51  57  57]
  [ 49  55  55]
  ...
  [ 55  56  48]
  [ 54  55  47]
  [ 56  57  49]]

 [[ 56  62  62]
  [ 54  60  60]
  [ 51  57  57]
  ...
  [ 52  53  45]
  [ 49  50  42]
  [ 50  51  43]]]"
1726692953.5196133,0.948678,-1.566384,1.94535,-2.426282,-1.289563,-0.434551,-0.175031,-0.47292,0.341734,-2.596572700885277,0.025528519116976435,3.03560139239578,-8.800000000000474e-05,-0.00015100000000001224,-0.0002530000000000032,-0.0002945753169658616,0.00026493719390675505,1.1377697993975033e-05,42.47526771391085,0.0,0.0,0.0,0.0,moving to grasp dataset builder/deligrasp dataset/trajectories/1726692950.3229165 yellow ducky,"[[[ 93  89  86]
  [ 91  87  84]
  [ 94  89  85]
  ...
  [107 104  99]
  [110 105 101]
  [112 107 103]]

 [[ 95  91  88]
  [ 94  90  87]
  [ 94  89  85]
  ...
  [103 100  95]
  [108 103  99]
  [113 108 104]]

 [[ 90  85  81]
  [ 93  88  84]
  [ 91  86  82]
  ...
  [ 99  94  90]
  [103  98  94]
  [108 103  99]]

 ...

 [[167 150 130]
  [170 155 136]
  [172 156 140]
  ...
  [144 137 118]
  [144 137 118]
  [144 137 118]]

 [[166 146 121]
  [165 147 123]
  [162 144 122]
  ...
  [144 137 118]
  [144 137 118]
  [144 137 118]]

 [[166 145 116]
  [169 149 122]
  [167 147 123]
  ...
  [144 137 118]
  [144 137 118]
  [143 136 117]]]","[[[ 60  61  66]
  [ 57  60  65]
  [ 55  60  63]
  ...
  [130 127 122]
  [131 128 123]
  [133 130 125]]

 [[ 60  61  66]
  [ 57  60  65]
  [ 56  61  64]
  ...
  [130 127 122]
  [130 127 122]
  [132 129 124]]

 [[ 57  60  65]
  [ 57  60  65]
  [ 55  60  63]
  ...
  [132 128 125]
  [132 129 124]
  [132 129 124]]

 ...

 [[ 54  56  55]
  [ 54  56  55]
  [ 53  57  56]
  ...
  [ 53  55  52]
  [ 52  52  52]
  [ 49  49  49]]

 [[ 54  56  55]
  [ 55  57  56]
  [ 55  59  58]
  ...
  [ 51  53  48]
  [ 51  51  49]
  [ 49  49  47]]

 [[ 54  56  55]
  [ 56  58  57]
  [ 56  60  59]
  ...
  [ 48  50  45]
  [ 48  48  46]
  [ 47  47  45]]]"
1726692953.6156132,0.95475,-1.514717,1.948379,-2.482325,-1.292616,-0.428793,-0.180102,-0.484887,0.321492,-2.596723281576044,0.025684864033806525,3.0356795897405813,-9.099999999997999e-05,-0.00011800000000000699,-0.00020599999999998397,-0.00015047208712370974,0.00011776869834597553,-5.853628324548055e-05,42.47526771391085,0.0,0.0,0.0,0.0,moving to grasp dataset builder/deligrasp dataset/trajectories/1726692950.3229165 yellow ducky,"[[[ 92  86  74]
  [ 99  93  81]
  [ 94  90  79]
  ...
  [111 106 102]
  [110 107 102]
  [108 105 100]]

 [[ 95  89  77]
  [ 97  91  79]
  [ 93  89  78]
  ...
  [105 100  96]
  [107 104  99]
  [109 106 101]]

 [[ 94  87  77]
  [ 92  85  75]
  [ 88  84  75]
  ...
  [100  95  91]
  [104  99  95]
  [108 103  99]]

 ...

 [[163 150 134]
  [164 152 138]
  [168 159 144]
  ...
  [144 136 115]
  [144 136 115]
  [144 136 115]]

 [[164 148 132]
  [157 144 127]
  [157 144 128]
  ...
  [144 136 113]
  [144 136 113]
  [144 136 113]]

 [[161 146 127]
  [161 146 127]
  [161 148 132]
  ...
  [144 136 113]
  [144 136 113]
  [144 136 113]]]","[[[ 59  60  64]
  [ 59  60  64]
  [ 58  62  65]
  ...
  [132 128 129]
  [131 127 128]
  [131 127 128]]

 [[ 60  61  65]
  [ 59  60  64]
  [ 58  62  65]
  ...
  [133 129 130]
  [132 128 129]
  [131 127 128]]

 [[ 57  61  64]
  [ 57  61  64]
  [ 57  61  64]
  ...
  [133 129 130]
  [133 129 130]
  [131 127 128]]

 ...

 [[ 51  56  52]
  [ 54  59  55]
  [ 56  61  57]
  ...
  [ 62  63  58]
  [ 64  64  62]
  [ 61  61  61]]

 [[ 51  56  50]
  [ 53  58  52]
  [ 55  60  54]
  ...
  [ 62  63  58]
  [ 63  63  61]
  [ 60  60  58]]

 [[ 51  56  50]
  [ 52  57  51]
  [ 54  59  53]
  ...
  [ 55  56  50]
  [ 55  55  53]
  [ 55  55  53]]]"
1726692953.7116132,0.960378,-1.461962,1.947697,-2.535856,-1.295502,-0.423372,-0.185139,-0.496707,0.301488,-2.5966782841916105,0.025752900733349477,3.035654753836576,-6.90000000000135e-05,-9.500000000001174e-05,-0.00016699999999997273,-0.00020173031639902916,5.8001721735295025e-05,-2.570482336583524e-05,42.47526771391085,0.0,0.0,0.0,0.0,moving to grasp dataset builder/deligrasp dataset/trajectories/1726692950.3229165 yellow ducky,"[[[ 93  86  80]
  [ 93  86  80]
  [ 91  86  82]
  ...
  [110 101  96]
  [112 103  98]
  [116 107 102]]

 [[ 94  87  81]
  [ 95  88  82]
  [ 93  88  84]
  ...
  [104  95  90]
  [108  99  94]
  [114 105 100]]

 [[ 92  87  83]
  [ 92  87  83]
  [ 93  88  84]
  ...
  [102  93  88]
  [106  97  92]
  [111 102  97]]

 ...

 [[164 153 133]
  [164 156 135]
  [167 158 141]
  ...
  [144 136 113]
  [144 136 113]
  [144 137 111]]

 [[165 153 129]
  [162 150 126]
  [162 149 130]
  ...
  [145 137 114]
  [145 137 114]
  [143 136 110]]

 [[165 151 125]
  [162 148 122]
  [159 147 125]
  ...
  [148 140 117]
  [147 139 116]
  [144 137 111]]]","[[[ 58  58  56]
  [ 60  60  58]
  [ 64  64  66]
  ...
  [128 124 121]
  [130 127 122]
  [132 129 124]]

 [[ 60  60  58]
  [ 60  60  60]
  [ 63  63  65]
  ...
  [131 127 124]
  [132 129 124]
  [133 130 125]]

 [[ 59  61  60]
  [ 59  61  60]
  [ 62  63  65]
  ...
  [134 130 127]
  [134 130 127]
  [134 130 127]]

 ...

 [[ 57  62  56]
  [ 56  63  56]
  [ 57  64  57]
  ...
  [ 67  69  64]
  [ 64  66  63]
  [ 62  64  61]]

 [[ 52  59  52]
  [ 53  60  53]
  [ 54  61  54]
  ...
  [ 65  67  62]
  [ 68  70  67]
  [ 66  68  65]]

 [[ 49  56  49]
  [ 50  57  50]
  [ 50  60  52]
  ...
  [ 63  65  60]
  [ 66  68  65]
  [ 63  65  62]]]"
1726692953.8076131,0.964977,-1.416092,1.944236,-2.57933,-1.29792,-0.419018,-0.189389,-0.506741,0.284489,-2.596757485057757,0.025795101303487986,3.035658377713115,-6.999999999998674e-05,-5.999999999994898e-05,-8.900000000000574e-05,-0.0001277762988207698,2.2769440545897246e-05,-2.2418271989899097e-05,42.47526771391085,0.0,0.0,0.0,0.0,moving to grasp dataset builder/deligrasp dataset/trajectories/1726692950.3229165 yellow ducky,"[[[ 96  83  75]
  [ 98  85  77]
  [ 97  86  80]
  ...
  [110 102 100]
  [110 102  99]
  [110 102  99]]

 [[ 95  82  74]
  [ 97  84  76]
  [ 97  86  80]
  ...
  [105  97  95]
  [108 100  97]
  [112 104 101]]

 [[ 95  82  74]
  [ 96  83  75]
  [ 96  85  79]
  ...
  [102  94  92]
  [105  97  94]
  [111 103 100]]

 ...

 [[167 150 134]
  [169 153 138]
  [175 159 144]
  ...
  [147 136 116]
  [147 136 116]
  [148 137 117]]

 [[164 145 128]
  [162 143 126]
  [163 144 129]
  ...
  [146 135 115]
  [148 135 116]
  [149 136 117]]

 [[171 150 131]
  [167 146 127]
  [163 144 129]
  ...
  [146 135 115]
  [147 134 115]
  [149 136 117]]]","[[[ 57  63  63]
  [ 57  63  63]
  [ 58  64  64]
  ...
  [128 124 121]
  [129 125 122]
  [133 129 126]]

 [[ 56  62  62]
  [ 55  61  61]
  [ 56  62  62]
  ...
  [129 125 122]
  [130 126 123]
  [132 128 125]]

 [[ 56  61  64]
  [ 56  61  64]
  [ 57  62  65]
  ...
  [132 128 125]
  [132 128 125]
  [133 129 126]]

 ...

 [[ 50  56  52]
  [ 51  57  53]
  [ 52  58  54]
  ...
  [ 63  69  57]
  [ 63  69  57]
  [ 61  67  55]]

 [[ 52  57  51]
  [ 52  57  51]
  [ 53  58  52]
  ...
  [ 61  67  55]
  [ 61  67  53]
  [ 60  66  52]]

 [[ 54  59  53]
  [ 53  58  52]
  [ 52  57  51]
  ...
  [ 57  63  51]
  [ 60  66  52]
  [ 61  67  53]]]"
1726692953.903613,0.968354,-1.379922,1.939661,-2.611432,-1.29956,-0.415911,-0.192704,-0.514527,0.27129,-2.5969867144163166,0.026024786834654437,3.0357921563164827,-3.200000000000425e-05,1.8999999999991246e-05,6.60000000000105e-05,9.78206584711927e-05,-0.000200960290640647,-0.00015028246527437616,42.47526771391085,0.0,0.0,0.0,0.0,moving to grasp dataset builder/deligrasp dataset/trajectories/1726692950.3229165 yellow ducky,"[[[ 93  83  71]
  [ 96  88  75]
  [ 96  87  78]
  ...
  [108 101  95]
  [109 102  94]
  [115 108 100]]

 [[ 93  83  73]
  [ 94  86  75]
  [ 94  87  77]
  ...
  [105  98  92]
  [108 101  93]
  [112 105  97]]

 [[ 93  84  75]
  [ 93  84  77]
  [ 93  86  78]
  ...
  [103  96  90]
  [106  99  91]
  [108 101  93]]

 ...

 [[168 149 135]
  [167 149 137]
  [168 152 139]
  ...
  [145 137 118]
  [145 137 118]
  [145 137 118]]

 [[169 148 129]
  [166 145 126]
  [161 142 127]
  ...
  [145 137 118]
  [146 138 119]
  [145 137 118]]

 [[167 145 122]
  [166 145 124]
  [165 144 125]
  ...
  [146 138 119]
  [146 138 119]
  [144 136 117]]]","[[[ 57  65  67]
  [ 57  65  67]
  [ 58  66  68]
  ...
  [132 128 125]
  [132 128 125]
  [132 128 125]]

 [[ 57  65  67]
  [ 57  65  67]
  [ 57  65  67]
  ...
  [133 129 126]
  [132 128 125]
  [132 128 125]]

 [[ 56  64  66]
  [ 56  64  66]
  [ 56  64  66]
  ...
  [133 129 126]
  [133 129 126]
  [133 129 126]]

 ...

 [[ 55  61  61]
  [ 52  58  58]
  [ 51  57  57]
  ...
  [ 47  52  55]
  [ 43  48  51]
  [ 40  46  46]]

 [[ 55  61  61]
  [ 53  59  59]
  [ 53  59  59]
  ...
  [ 58  67  66]
  [ 54  63  62]
  [ 51  60  57]]

 [[ 50  56  56]
  [ 51  57  57]
  [ 53  59  59]
  ...
  [ 56  65  64]
  [ 54  63  60]
  [ 53  62  59]]]"
1726692953.999613,0.970666,-1.354423,1.935565,-2.63346,-1.30071,-0.4138,-0.195008,-0.519965,0.262098,-2.5969065462239156,0.026024830977519498,3.035888245402737,-3.0000000000002247e-05,4.099999999995774e-05,9.199999999998099e-05,1.4610817939075815e-05,-0.0001970997596672172,-0.00024311640788265976,42.47526771391085,0.0,0.0,0.0,0.0,moving to grasp dataset builder/deligrasp dataset/trajectories/1726692950.3229165 yellow ducky,"[[[ 85  82  65]
  [ 89  86  69]
  [ 91  88  73]
  ...
  [106 101  97]
  [107 102  98]
  [110 105 101]]

 [[ 86  83  68]
  [ 90  87  72]
  [ 91  88  73]
  ...
  [103  98  94]
  [107 102  98]
  [112 107 103]]

 [[ 85  81  69]
  [ 89  85  73]
  [ 89  85  73]
  ...
  [100  95  91]
  [105 100  96]
  [110 105 101]]

 ...

 [[167 150 134]
  [169 152 136]
  [173 157 142]
  ...
  [146 138 115]
  [146 139 113]
  [147 140 114]]

 [[169 146 128]
  [166 145 126]
  [164 145 128]
  ...
  [146 139 113]
  [146 139 113]
  [146 139 113]]

 [[172 147 127]
  [169 147 126]
  [169 146 130]
  ...
  [146 139 113]
  [145 138 112]
  [144 137 111]]]","[[[ 54  62  65]
  [ 55  63  66]
  [ 59  67  70]
  ...
  [132 128 127]
  [131 127 126]
  [131 127 126]]

 [[ 56  64  67]
  [ 54  62  65]
  [ 56  64  67]
  ...
  [132 128 127]
  [133 129 128]
  [134 130 129]]

 [[ 56  64  67]
  [ 55  63  66]
  [ 57  65  68]
  ...
  [132 128 125]
  [133 129 126]
  [135 131 128]]

 ...

 [[ 57  62  66]
  [ 56  61  64]
  [ 54  59  62]
  ...
  [ 35  39  40]
  [ 39  43  44]
  [ 36  42  42]]

 [[ 54  59  62]
  [ 57  62  65]
  [ 54  59  62]
  ...
  [ 56  60  61]
  [ 57  61  62]
  [ 51  57  55]]

 [[ 51  56  59]
  [ 56  61  64]
  [ 53  59  59]
  ...
  [ 65  69  70]
  [ 57  61  60]
  [ 54  60  58]]]"
1726692954.095613,0.972139,-1.335746,1.932128,-2.649108,-1.301872,-0.412528,-0.196799,-0.523871,0.255387,-2.5970155266225565,0.025655792663452782,3.035816132155379,6.90000000000135e-05,-3.300000000006076e-05,6.80000000000125e-05,0.00012158304795573116,0.0001743185857335204,-0.00016823437823276777,42.47526771391085,0.0,0.0,0.0,0.0,moving to grasp dataset builder/deligrasp dataset/trajectories/1726692950.3229165 yellow ducky,"[[[ 89  84  88]
  [ 89  84  88]
  [ 90  85  89]
  ...
  [106 101  97]
  [109 104 100]
  [113 108 104]]

 [[ 86  81  85]
  [ 88  83  87]
  [ 88  83  87]
  ...
  [105 100  96]
  [108 103  99]
  [112 107 103]]

 [[ 85  81  82]
  [ 86  82  83]
  [ 87  83  84]
  ...
  [101  96  92]
  [102  97  93]
  [105 100  96]]

 ...

 [[169 147 133]
  [169 150 135]
  [172 154 140]
  ...
  [147 139 118]
  [146 138 117]
  [144 136 115]]

 [[170 147 131]
  [168 145 129]
  [167 145 131]
  ...
  [145 137 114]
  [144 136 113]
  [143 135 112]]

 [[173 147 130]
  [169 146 128]
  [169 146 130]
  ...
  [142 134 111]
  [142 134 111]
  [141 133 110]]]","[[[ 56  61  64]
  [ 57  62  65]
  [ 60  65  68]
  ...
  [132 128 125]
  [134 130 127]
  [132 128 125]]

 [[ 56  61  64]
  [ 57  62  65]
  [ 59  64  67]
  ...
  [131 127 124]
  [133 129 126]
  [131 127 124]]

 [[ 55  63  65]
  [ 55  63  65]
  [ 56  64  66]
  ...
  [132 128 125]
  [133 129 126]
  [132 128 125]]

 ...

 [[ 53  58  61]
  [ 51  56  59]
  [ 53  58  61]
  ...
  [114 118 119]
  [116 120 121]
  [117 121 122]]

 [[ 52  57  61]
  [ 51  56  60]
  [ 53  58  61]
  ...
  [114 118 119]
  [115 119 120]
  [116 120 121]]

 [[ 51  56  60]
  [ 53  58  62]
  [ 55  60  63]
  ...
  [115 119 120]
  [115 119 120]
  [115 119 120]]]"
1726692954.191613,0.972151,-1.335806,1.932117,-2.649072,-1.301836,-0.412444,-0.196786,-0.523867,0.255421,-2.5969720150736113,0.0257103170486069,3.035774301295159,5.6000000000000494e-05,-3.700000000006476e-05,3.399999999997849e-05,7.807149901051247e-05,0.00011979420057940324,-0.00012640351801262995,42.47526771391085,0.0,0.0,0.0,0.0,moving to grasp dataset builder/deligrasp dataset/trajectories/1726692950.3229165 yellow ducky,"[[[ 93  79  76]
  [ 94  83  79]
  [ 96  85  81]
  ...
  [110 105  99]
  [106 101  95]
  [110 105  99]]

 [[ 93  79  76]
  [ 95  81  78]
  [ 95  84  80]
  ...
  [106 101  95]
  [105 100  94]
  [110 105  99]]

 [[ 92  78  77]
  [ 94  80  79]
  [ 94  83  81]
  ...
  [100  95  89]
  [101  96  90]
  [107 102  96]]

 ...

 [[161 149 125]
  [162 151 129]
  [168 157 137]
  ...
  [143 135 114]
  [144 136 115]
  [144 136 115]]

 [[163 149 123]
  [161 147 121]
  [161 146 125]
  ...
  [143 135 114]
  [144 136 115]
  [143 135 114]]

 [[167 151 125]
  [164 148 123]
  [160 145 122]
  ...
  [144 136 115]
  [145 137 116]
  [144 136 115]]]","[[[ 60  65  68]
  [ 60  65  68]
  [ 60  65  68]
  ...
  [133 129 130]
  [133 129 128]
  [134 130 129]]

 [[ 59  64  67]
  [ 60  65  68]
  [ 60  65  68]
  ...
  [134 130 131]
  [134 130 129]
  [135 131 130]]

 [[ 59  64  67]
  [ 59  64  67]
  [ 59  64  67]
  ...
  [136 132 131]
  [135 131 130]
  [135 131 130]]

 ...

 [[ 48  57  56]
  [ 49  58  57]
  [ 51  57  57]
  ...
  [111 115 116]
  [112 116 117]
  [113 117 118]]

 [[ 49  58  57]
  [ 50  59  58]
  [ 50  59  58]
  ...
  [110 114 115]
  [112 116 117]
  [113 117 118]]

 [[ 49  58  57]
  [ 50  59  58]
  [ 49  58  57]
  ...
  [111 115 116]
  [113 117 118]
  [114 118 119]]]"
