correlllab/MAGPIE/datasets/trajectories/1726692950.3229165_yellow_ducky_id-0/2.csv
timestamp,q0,q1,q2,q3,q4,q5,x,y,z,rx,ry,rz,dx,dy,dz,drx,dry,drz,aperture,d_aperture,contact_force,applied_force,d_applied_force,task,img,wrist_img
1726692987.3257637,0.992474,-1.368222,1.909627,-2.550691,-1.354581,-0.413716,-0.188272,-0.523223,0.270371,-2.6572515371285172,0.002674068946904139,3.0324581412888723,-4.000000000004e-06,-1.6000000000016e-05,-2.2999999999995246e-05,-1.906337125401336e-05,6.419973437119192e-05,3.577309965896447e-05,29.88116121050554,0.0,0.15489387857142856,1.2810000000000001,0.0,moving back to original position with dataset builder/deligrasp dataset/trajectories/1726692950.3229165 yellow ducky,"[[[ 92  87  84]
  [ 92  87  84]
  [ 95  87  84]
  ...
  [106 103  94]
  [109 106  99]
  [111 108 101]]

 [[ 91  86  83]
  [ 92  87  84]
  [ 95  87  84]
  ...
  [102  99  90]
  [105 102  95]
  [109 106  99]]

 [[ 90  85  82]
  [ 91  86  83]
  [ 92  87  83]
  ...
  [ 97  94  85]
  [102  99  92]
  [106 103  96]]

 ...

 [[166 150 134]
  [167 154 137]
  [173 161 145]
  ...
  [146 138 117]
  [145 137 116]
  [145 137 116]]

 [[166 149 129]
  [166 149 129]
  [163 148 129]
  ...
  [145 137 116]
  [146 138 117]
  [145 137 116]]

 [[167 149 127]
  [163 147 124]
  [162 145 125]
  ...
  [145 137 116]
  [146 138 117]
  [146 138 117]]]",2_1726692987.4001584.jpeg
1726692987.4217637,0.992355,-1.369097,1.909819,-2.549624,-1.354461,-0.413835,-0.188196,-0.523005,0.270631,-2.6575479414754124,0.0028837386174160795,3.0324889038131158,2.9000000000001247e-05,6.8000000000068e-05,0.00019599999999997397,0.0004167198093507629,-9.1606267391802e-05,1.0279766955001435e-05,29.88116121050554,0.0,0.15489387857142856,1.2810000000000001,0.0,moving back to original position with dataset builder/deligrasp dataset/trajectories/1726692950.3229165 yellow ducky,"[[[ 92  87  84]
  [ 92  87  84]
  [ 95  87  84]
  ...
  [106 103  94]
  [109 106  99]
  [111 108 101]]

 [[ 91  86  83]
  [ 92  87  84]
  [ 95  87  84]
  ...
  [102  99  90]
  [105 102  95]
  [109 106  99]]

 [[ 90  85  82]
  [ 91  86  83]
  [ 92  87  83]
  ...
  [ 97  94  85]
  [102  99  92]
  [106 103  96]]

 ...

 [[166 150 134]
  [167 154 137]
  [173 161 145]
  ...
  [146 138 117]
  [145 137 116]
  [145 137 116]]

 [[166 149 129]
  [166 149 129]
  [163 148 129]
  ...
  [145 137 116]
  [146 138 117]
  [145 137 116]]

 [[167 149 127]
  [163 147 124]
  [162 145 125]
  ...
  [145 137 116]
  [146 138 117]
  [146 138 117]]]",2_1726692987.4001584.jpeg
1726692987.5177636,0.991097,-1.379515,1.911915,-2.541937,-1.353335,-0.414531,-0.187332,-0.520589,0.27439,-2.6565437199862534,0.0031485401637192535,3.0322829543601437,3.900000000001125e-05,6.399999999995298e-05,0.0002649999999999597,0.0005296633474896062,6.98993696336323e-05,0.00026064903062961164,29.88116121050554,0.0,0.15489387857142856,1.2810000000000001,0.0,moving back to original position with dataset builder/deligrasp dataset/trajectories/1726692950.3229165 yellow ducky,"[[[ 89  86  79]
  [ 91  88  81]
  [ 94  89  83]
  ...
  [112 103  98]
  [115 104 100]
  [117 106 102]]

 [[ 91  88  81]
  [ 92  89  82]
  [ 93  88  82]
  ...
  [107  98  93]
  [112 101  97]
  [114 103  99]]

 [[ 89  89  81]
  [ 91  88  81]
  [ 92  87  81]
  ...
  [105  96  91]
  [110  99  95]
  [113 102  98]]

 ...

 [[169 150 135]
  [171 154 138]
  [176 160 145]
  ...
  [145 137 116]
  [147 139 118]
  [148 140 119]]

 [[168 145 129]
  [166 145 128]
  [165 146 131]
  ...
  [144 136 115]
  [146 138 117]
  [146 138 117]]

 [[172 146 129]
  [169 146 128]
  [168 147 130]
  ...
  [145 137 116]
  [144 136 115]
  [143 135 114]]]",2_1726692987.5156577.jpeg
1726692987.6137636,0.988522,-1.400506,1.915483,-2.526141,-1.350199,-0.416318,-0.185553,-0.515788,0.282148,-2.653854369113897,0.00404007947276357,3.0325412848403066,9.000000000009e-06,8.700000000005925e-05,0.00016199999999999548,7.353892809769391e-05,3.199583484413213e-05,9.152742540807779e-05,29.88116121050554,0.0,0.15489387857142856,1.2810000000000001,0.0,moving back to original position with dataset builder/deligrasp dataset/trajectories/1726692950.3229165 yellow ducky,"[[[ 94  87  81]
  [ 94  87  81]
  [ 94  87  81]
  ...
  [109 104 100]
  [108 104 101]
  [111 107 104]]

 [[ 91  86  80]
  [ 92  87  81]
  [ 92  87  81]
  ...
  [103  98  94]
  [104 100  97]
  [108 104 101]]

 [[ 90  87  82]
  [ 91  88  83]
  [ 90  87  82]
  ...
  [ 99  94  90]
  [103  98  94]
  [107 102  98]]

 ...

 [[166 151 128]
  [168 156 134]
  [175 162 143]
  ...
  [142 136 114]
  [143 137 115]
  [142 136 114]]

 [[162 146 121]
  [162 148 122]
  [164 149 126]
  ...
  [142 136 114]
  [144 138 116]
  [144 138 116]]

 [[165 149 123]
  [163 147 121]
  [161 146 123]
  ...
  [144 138 116]
  [143 137 115]
  [139 133 111]]]",2_1726692987.5837789.jpeg
1726692987.7097635,0.98445,-1.431497,1.91995,-2.501433,-1.345744,-0.419137,-0.182971,-0.508569,0.293576,-2.6504678180108114,0.005370070877558186,3.032732249699279,5.099999999999549e-05,0.00010400000000010401,0.00021700000000002273,3.8027078371083434e-05,-1.879370431241787e-05,3.883676634863775e-05,29.88116121050554,0.0,0.15489387857142856,1.2810000000000001,0.0,moving back to original position with dataset builder/deligrasp dataset/trajectories/1726692950.3229165 yellow ducky,"[[[ 98  89  82]
  [ 96  87  80]
  [ 95  86  79]
  ...
  [105 102  95]
  [110 107 100]
  [110 107 100]]

 [[ 95  86  79]
  [ 95  86  79]
  [ 95  86  79]
  ...
  [101  98  91]
  [105 102  95]
  [108 105  98]]

 [[ 93  84  77]
  [ 94  85  78]
  [ 94  87  81]
  ...
  [ 99  94  88]
  [102  97  91]
  [108 103  97]]

 ...

 [[165 148 130]
  [170 153 135]
  [177 161 145]
  ...
  [145 137 114]
  [146 139 113]
  [145 138 112]]

 [[168 147 126]
  [166 145 124]
  [165 147 127]
  ...
  [144 137 111]
  [145 138 112]
  [146 139 113]]

 [[169 147 124]
  [166 146 122]
  [166 145 126]
  ...
  [143 136 110]
  [145 138 112]
  [148 141 115]]]",2_1726692987.72119.jpeg
1726692987.8057635,0.978965,-1.472357,1.924069,-2.467008,-1.339781,-0.423012,-0.179446,-0.498949,0.30884,-2.6460143588362324,0.007116523270456153,3.033040834728658,2.2999999999995246e-05,0.00013299999999999423,0.0002630000000000132,5.1823656465277423e-05,-5.95597944396389e-05,-7.925698005006865e-05,29.88116121050554,0.0,0.15489387857142856,1.2810000000000001,0.0,moving back to original position with dataset builder/deligrasp dataset/trajectories/1726692950.3229165 yellow ducky,"[[[100  91  84]
  [ 99  90  83]
  [ 97  88  83]
  ...
  [107 103  92]
  [108 104  93]
  [110 106  95]]

 [[ 97  88  81]
  [ 97  88  81]
  [ 96  87  82]
  ...
  [103  99  88]
  [107 103  92]
  [110 106  95]]

 [[ 93  86  80]
  [ 93  86  80]
  [ 93  85  82]
  ...
  [101  97  86]
  [105 101  90]
  [108 104  93]]

 ...

 [[170 153 135]
  [171 154 138]
  [176 160 145]
  ...
  [147 139 120]
  [147 138 121]
  [145 136 119]]

 [[167 145 124]
  [165 144 125]
  [165 146 129]
  ...
  [146 138 119]
  [147 138 121]
  [145 136 119]]

 [[172 147 125]
  [167 145 124]
  [165 144 125]
  ...
  [145 137 118]
  [145 136 119]
  [145 136 119]]]",2_1726692987.7872262.jpeg
1726692987.9017634,0.971612,-1.522103,1.926093,-2.421867,-1.332249,-0.428061,-0.175174,-0.486968,0.327839,-2.6406532275833534,0.009347480623204299,3.0331423855451702,8.600000000000274e-05,0.00011100000000002774,0.00024000000000001798,0.0002287695605014406,-0.00017850105162981085,6.547977240822789e-05,29.88116121050554,0.0,0.15489387857142856,1.2810000000000001,0.0,moving back to original position with dataset builder/deligrasp dataset/trajectories/1726692950.3229165 yellow ducky,"[[[ 91  88  81]
  [ 92  89  82]
  [ 92  89  82]
  ...
  [107 103  92]
  [110 106  95]
  [112 108  97]]

 [[ 91  88  81]
  [ 91  88  81]
  [ 92  89  82]
  ...
  [102  98  87]
  [108 104  93]
  [112 108  97]]

 [[ 92  87  81]
  [ 92  87  81]
  [ 93  88  82]
  ...
  [ 99  95  84]
  [104 100  88]
  [108 104  92]]

 ...

 [[161 153 132]
  [164 158 136]
  [171 164 145]
  ...
  [143 138 116]
  [142 137 115]
  [141 136 114]]

 [[164 154 129]
  [157 150 124]
  [155 147 124]
  ...
  [140 138 115]
  [140 138 115]
  [140 138 115]]

 [[161 151 124]
  [158 148 121]
  [158 147 125]
  ...
  [141 139 116]
  [141 139 116]
  [142 140 117]]]",2_1726692987.9210024.jpeg
1726692987.9977634,0.96354,-1.572823,1.924776,-2.372536,-1.324275,-0.433843,-0.170654,-0.4744,0.347752,-2.634947043334966,0.011443003930975951,3.0333464624156368,0.00012100000000000999,0.00010599999999999499,0.00026199999999998447,0.0003412098526354157,-5.579634896705869e-05,0.00013296105716742446,29.88116121050554,0.0,0.15489387857142856,1.2810000000000001,0.0,moving back to original position with dataset builder/deligrasp dataset/trajectories/1726692950.3229165 yellow ducky,"[[[ 98  89  74]
  [ 97  88  73]
  [ 96  88  75]
  ...
  [112 103  94]
  [114 105  96]
  [116 107  98]]

 [[ 98  88  76]
  [ 97  87  75]
  [ 96  88  75]
  ...
  [106  97  88]
  [110 101  92]
  [115 106  97]]

 [[ 97  87  77]
  [ 95  85  75]
  [ 95  87  76]
  ...
  [102  93  84]
  [106  97  88]
  [112 103  94]]

 ...

 [[166 149 139]
  [169 152 142]
  [172 158 147]
  ...
  [145 137 114]
  [144 137 111]
  [144 137 111]]

 [[167 148 134]
  [165 146 132]
  [164 146 132]
  ...
  [144 136 113]
  [146 136 111]
  [145 135 110]]

 [[166 144 130]
  [161 142 127]
  [162 143 128]
  ...
  [144 136 113]
  [148 138 113]
  [146 136 111]]]",2_1726692987.9935992.jpeg
1726692988.0937634,0.955145,-1.621927,1.919961,-2.320798,-1.315821,-0.440032,-0.165996,-0.461812,0.36763,-2.629435420581728,0.01389409444358847,3.033782340932559,1.7000000000017e-05,8.099999999999774e-05,0.00031999999999998696,0.0006492025324797979,-0.00029112574713375215,-1.8051380861194843e-05,29.88116121050554,0.0,0.15489387857142856,1.2810000000000001,0.0,moving back to original position with dataset builder/deligrasp dataset/trajectories/1726692950.3229165 yellow ducky,"[[[100  93  75]
  [ 98  91  73]
  [ 95  88  72]
  ...
  [110 106  94]
  [112 108  96]
  [113 110  95]]

 [[ 96  89  73]
  [ 96  89  73]
  [ 96  88  75]
  ...
  [105 101  90]
  [108 104  92]
  [111 108  93]]

 [[ 94  86  75]
  [ 95  87  76]
  [ 97  89  78]
  ...
  [ 99  95  84]
  [102  98  86]
  [107 103  91]]

 ...

 [[162 148 135]
  [165 153 139]
  [171 159 147]
  ...
  [146 138 117]
  [146 138 117]
  [146 138 117]]

 [[165 149 134]
  [163 150 134]
  [164 150 137]
  ...
  [145 137 116]
  [146 138 117]
  [146 138 117]]

 [[162 146 131]
  [162 146 131]
  [159 145 132]
  ...
  [143 135 114]
  [144 136 115]
  [146 138 117]]]",2_1726692988.12072.jpeg
1726692988.1897633,0.946043,-1.668874,1.91122,-2.267568,-1.307032,-0.446774,-0.161463,-0.449276,0.38763,-2.623461303991687,0.016125064139614304,3.0341443502177707,3.799999999998249e-05,0.00010799999999999699,0.0002550000000000052,0.0004955465603782017,-0.00030746644007313695,-8.281288079503568e-05,29.88116121050554,0.0,0.15489387857142856,1.2810000000000001,0.0,moving back to original position with dataset builder/deligrasp dataset/trajectories/1726692950.3229165 yellow ducky,"[[[ 95  90  87]
  [ 93  88  85]
  [ 92  87  84]
  ...
  [109 104 101]
  [110 105 102]
  [111 106 103]]

 [[ 94  89  86]
  [ 93  88  85]
  [ 93  88  85]
  ...
  [105 100  97]
  [108 103 100]
  [112 107 104]]

 [[ 93  88  84]
  [ 92  87  83]
  [ 92  87  83]
  ...
  [ 99  94  90]
  [102  97  93]
  [107 102  98]]

 ...

 [[164 150 137]
  [166 152 139]
  [177 163 150]
  ...
  [144 136 115]
  [144 136 115]
  [144 136 115]]

 [[168 152 137]
  [159 146 130]
  [160 147 131]
  ...
  [146 138 117]
  [147 139 118]
  [147 139 118]]

 [[162 146 130]
  [159 143 127]
  [161 148 132]
  ...
  [147 139 118]
  [148 140 119]
  [148 140 119]]]",2_1726692988.1870594.jpeg
1726692988.2857633,0.936247,-1.713653,1.898993,-2.212869,-1.298136,-0.45409,-0.156962,-0.436685,0.407621,-2.6174929377969205,0.018140989584818513,3.034353107579307,9.199999999998099e-05,7.999999999996898e-05,0.00019999999999997797,0.00034800701550663504,-0.00011061357042586525,1.9198944731346756e-05,29.88116121050554,0.0,0.15489387857142856,1.2810000000000001,0.0,moving back to original position with dataset builder/deligrasp dataset/trajectories/1726692950.3229165 yellow ducky,"[[[ 98  86  88]
  [100  88  90]
  [ 98  88  87]
  ...
  [109 104  98]
  [109 106  99]
  [109 106  99]]

 [[ 99  87  89]
  [100  88  88]
  [ 98  88  87]
  ...
  [102  97  91]
  [105 102  95]
  [109 106  99]]

 [[ 99  87  87]
  [ 99  87  87]
  [ 98  88  87]
  ...
  [ 97  93  84]
  [100  97  88]
  [104 101  92]]

 ...

 [[168 151 133]
  [170 153 135]
  [176 160 144]
  ...
  [145 137 114]
  [145 137 114]
  [145 137 114]]

 [[167 145 122]
  [165 144 123]
  [165 147 127]
  ...
  [144 137 111]
  [144 137 111]
  [145 138 112]]

 [[171 147 123]
  [168 146 122]
  [168 147 126]
  ...
  [143 136 110]
  [143 136 110]
  [145 138 112]]]",2_1726692988.2536292.jpeg
1726692988.3817632,0.925972,-1.755891,1.883271,-2.156759,-1.288915,-0.461827,-0.152389,-0.424135,0.427534,-2.6116852209000703,0.0203369897021177,3.0345806104673327,6.699999999998374e-05,7.699999999999374e-05,0.00019699999999994722,0.00035493344126402704,-9.860352545373527e-05,0.00011447215384174925,29.88116121050554,0.0,0.15489387857142856,1.2810000000000001,0.0,moving back to original position with dataset builder/deligrasp dataset/trajectories/1726692950.3229165 yellow ducky,"[[[103  93  81]
  [102  92  80]
  [ 99  91  80]
  ...
  [108 104  92]
  [110 106  95]
  [111 107  96]]

 [[100  90  80]
  [ 99  91  80]
  [ 97  89  78]
  ...
  [103  99  87]
  [108 104  93]
  [113 109  98]]

 [[ 96  87  78]
  [ 96  87  78]
  [ 96  87  78]
  ...
  [ 98  94  83]
  [103  99  88]
  [108 104  93]]

 ...

 [[165 150 131]
  [169 156 137]
  [174 161 144]
  ...
  [147 139 118]
  [147 139 118]
  [148 140 119]]

 [[161 145 122]
  [163 147 124]
  [163 148 127]
  ...
  [147 139 118]
  [147 139 118]
  [147 139 118]]

 [[167 149 125]
  [166 150 125]
  [162 145 125]
  ...
  [146 138 117]
  [146 138 117]
  [146 138 117]]]",2_1726692988.3870745.jpeg
1726692988.4777632,0.916319,-1.791079,1.866243,-2.105841,-1.280223,-0.469551,-0.148306,-0.413046,0.44522,-2.6065011018692537,0.022343821090163092,3.035206720089391,1.000000000001e-06,6.80000000000125e-05,9.300000000000974e-05,0.0003063526771138747,-0.0001572595449487145,-0.00021582125891006498,29.88116121050554,0.0,0.15489387857142856,1.2810000000000001,0.0,moving back to original position with dataset builder/deligrasp dataset/trajectories/1726692950.3229165 yellow ducky,"[[[ 98  88  87]
  [100  90  89]
  [100  90  89]
  ...
  [108 101  95]
  [112 103  98]
  [116 107 102]]

 [[ 98  88  87]
  [ 99  89  88]
  [ 99  89  88]
  ...
  [105  98  92]
  [110 101  96]
  [115 106 101]]

 [[ 97  87  85]
  [ 97  87  85]
  [ 97  89  86]
  ...
  [102  95  89]
  [107  98  93]
  [112 103  98]]

 ...

 [[167 150 134]
  [169 153 138]
  [173 160 144]
  ...
  [147 137 110]
  [147 137 110]
  [147 137 110]]

 [[168 149 132]
  [165 146 129]
  [162 145 129]
  ...
  [147 135 109]
  [147 135 109]
  [147 136 108]]

 [[166 145 126]
  [165 147 127]
  [166 147 132]
  ...
  [148 136 110]
  [149 138 110]
  [149 138 110]]]",2_1726692988.4545264.jpeg
1726692988.5737631,0.908103,-1.817189,1.851107,-2.06582,-1.273373,-0.475885,-0.145196,-0.404303,0.45909,-2.602182941144512,0.023637729831321695,3.035307399264154,3.300000000000525e-05,-6.999999999979245e-06,-2.2999999999995246e-05,6.051324905165245e-06,7.207907966381641e-05,-7.84836015461643e-05,29.88116121050554,0.0,0.15489387857142856,1.2810000000000001,0.0,moving back to original position with dataset builder/deligrasp dataset/trajectories/1726692950.3229165 yellow ducky,"[[[100  91  86]
  [ 99  90  85]
  [ 97  88  83]
  ...
  [109 101  88]
  [112 103  88]
  [114 105  90]]

 [[ 98  89  84]
  [ 98  89  84]
  [ 98  89  84]
  ...
  [106  98  85]
  [110 100  88]
  [113 104  89]]

 [[ 96  89  83]
  [ 96  89  83]
  [ 97  90  84]
  ...
  [102  96  82]
  [107  99  86]
  [109 101  88]]

 ...

 [[167 152 133]
  [165 150 131]
  [169 156 139]
  ...
  [146 135 113]
  [147 136 114]
  [148 137 115]]

 [[169 151 129]
  [163 145 123]
  [160 143 123]
  ...
  [146 136 111]
  [148 136 112]
  [149 137 113]]

 [[168 148 124]
  [167 149 125]
  [167 149 129]
  ...
  [146 136 111]
  [148 136 112]
  [149 137 113]]]",2_1726692988.5872371.jpeg
1726692988.669763,0.901983,-1.835192,1.83918,-2.036492,-1.268249,-0.480479,-0.142911,-0.397996,0.469071,-2.5991886896947904,0.02481346918888518,3.035281526842095,1.5000000000015001e-05,-5.899999999997574e-05,-7.80000000000225e-05,-8.798971876267103e-05,-5.411073231233882e-06,0.00012316895936237415,29.88116121050554,0.0,0.15489387857142856,1.2810000000000001,0.0,moving back to original position with dataset builder/deligrasp dataset/trajectories/1726692950.3229165 yellow ducky,"[[[103  93  84]
  [102  92  82]
  [103  91  79]
  ...
  [108 103  97]
  [111 106 100]
  [111 106 100]]

 [[102  92  83]
  [101  91  81]
  [100  90  78]
  ...
  [104  99  93]
  [108 103  97]
  [113 108 102]]

 [[100  91  84]
  [ 99  90  81]
  [ 98  90  79]
  ...
  [ 99  94  88]
  [103  98  92]
  [108 103  97]]

 ...

 [[169 150 135]
  [173 155 141]
  [180 164 149]
  ...
  [149 141 120]
  [145 137 116]
  [145 137 116]]

 [[171 150 133]
  [167 146 129]
  [163 146 130]
  ...
  [148 140 119]
  [144 136 115]
  [145 137 116]]

 [[168 145 127]
  [167 146 127]
  [165 146 131]
  ...
  [145 137 116]
  [143 135 114]
  [148 140 119]]]",2_1726692988.6544368.jpeg
1726692988.765763,0.898187,-1.845758,1.831504,-2.01822,-1.265112,-0.483538,-0.141508,-0.394164,0.475092,-2.597671912519419,0.025606649732535947,3.035417006511034,6.0000000000060005e-06,-4.699999999996374e-05,0.0,0.00017714477839581022,-0.00012321642632903348,9.75614067320052e-05,29.88116121050554,0.0,0.15489387857142856,1.2810000000000001,0.0,moving back to original position with dataset builder/deligrasp dataset/trajectories/1726692950.3229165 yellow ducky,"[[[101  91  81]
  [ 99  89  79]
  [100  87  78]
  ...
  [110 105  99]
  [112 109 102]
  [114 111 104]]

 [[101  91  81]
  [ 99  89  79]
  [100  87  78]
  ...
  [102  97  91]
  [106 103  96]
  [110 107 100]]

 [[101  91  82]
  [ 99  89  80]
  [ 98  88  79]
  ...
  [ 98  93  87]
  [103 100  93]
  [108 105  98]]

 ...

 [[165 153 141]
  [167 155 143]
  [173 161 149]
  ...
  [147 139 116]
  [146 138 115]
  [146 138 115]]

 [[161 145 132]
  [161 145 132]
  [165 149 136]
  ...
  [147 139 116]
  [146 138 115]
  [146 138 115]]

 [[164 146 132]
  [167 149 135]
  [167 149 137]
  ...
  [146 138 115]
  [145 137 114]
  [145 137 114]]]",2_1726692988.7874987.jpeg
1726692988.861763,0.896858,-1.84956,1.82863,-2.011785,-1.264166,-0.484653,-0.140981,-0.392769,0.477317,-2.596997388592234,0.025608989653994496,3.035437118865303,1.000000000001e-06,0.0,6.300000000003525e-05,0.0001713037884867319,0.00012655629021748535,0.00011901257880619909,29.88116121050554,0.0,0.15489387857142856,1.2810000000000001,0.0,moving back to original position with dataset builder/deligrasp dataset/trajectories/1726692950.3229165 yellow ducky,"[[[ 96  91  87]
  [ 93  88  84]
  [ 93  88  84]
  ...
  [114 100  99]
  [117 103 102]
  [120 106 105]]

 [[ 97  92  88]
  [ 94  89  85]
  [ 94  89  85]
  ...
  [110  96  95]
  [115 101 100]
  [119 105 104]]

 [[ 96  91  87]
  [ 94  89  85]
  [ 94  89  85]
  ...
  [104  93  89]
  [109  98  94]
  [113 102  98]]

 ...

 [[166 150 135]
  [168 155 139]
  [174 160 147]
  ...
  [145 137 116]
  [145 137 116]
  [145 137 116]]

 [[163 146 130]
  [161 145 129]
  [164 148 133]
  ...
  [145 137 116]
  [145 137 116]
  [144 136 115]]

 [[165 148 130]
  [163 146 128]
  [162 146 130]
  ...
  [146 138 117]
  [145 137 116]
  [144 136 115]]]",2_1726692988.85417.jpeg
1726692988.957763,0.896906,-1.849536,1.828607,-2.011737,-1.264118,-0.484713,-0.140964,-0.392785,0.477315,-2.5970142453115717,0.02563958362622998,3.0355566440635355,-1.5999999999988246e-05,1.6000000000016e-05,6.500000000003725e-05,0.00018816050782444194,9.596231798199989e-05,-5.126194264626349e-07,29.88116121050554,0.0,0.15489387857142856,1.2810000000000001,0.0,moving back to original position with dataset builder/deligrasp dataset/trajectories/1726692950.3229165 yellow ducky,"[[[ 95  86  81]
  [ 97  88  83]
  [ 98  89  82]
  ...
  [112 102 100]
  [114 104 102]
  [114 104 102]]

 [[ 95  86  81]
  [ 96  87  82]
  [ 96  87  80]
  ...
  [108  98  96]
  [110 100  98]
  [112 102 100]]

 [[ 95  86  81]
  [ 95  86  81]
  [ 94  85  78]
  ...
  [105  95  93]
  [108  98  96]
  [110 100  98]]

 ...

 [[167 150 130]
  [169 154 133]
  [174 161 144]
  ...
  [146 138 117]
  [146 138 117]
  [146 138 117]]

 [[167 149 125]
  [165 147 123]
  [164 147 127]
  ...
  [145 137 116]
  [146 138 117]
  [146 138 117]]

 [[168 148 123]
  [166 149 123]
  [167 149 127]
  ...
  [145 137 116]
  [145 137 116]
  [145 137 116]]]",2_1726692988.921838.jpeg
