correlllab/MAGPIE/datasets/trajectories/1726691753.9317017_cardboard_box_id-0/move.csv
timestamp,actual_q_0,actual_q_1,actual_q_2,actual_q_3,actual_q_4,actual_q_5,actual_TCP_pose_0,actual_TCP_pose_1,actual_TCP_pose_2,actual_TCP_pose_3,actual_TCP_pose_4,actual_TCP_pose_5,actual_qd_0,actual_qd_1,actual_qd_2,actual_qd_3,actual_qd_4,actual_qd_5,target_q_0,target_q_1,target_q_2,target_q_3,target_q_4,target_q_5,target_TCP_pose_0,target_TCP_pose_1,target_TCP_pose_2,target_TCP_pose_3,target_TCP_pose_4,target_TCP_pose_5
16273.520000,0.896738,-1.849644,1.828403,-2.011713,-1.264022,-0.484533,-0.140999,-0.392735,0.477461,-0.171353,-3.016869,0.845065,0.000000,0.000000,-0.000000,0.000000,0.000000,0.000000,0.896726,-1.849632,1.828391,-2.011665,-1.264034,-0.484521,-0.141007,-0.392735,0.477457,-0.171407,-3.016901,0.845001
16273.616000,0.896774,-1.849524,1.828391,-2.012085,-1.264010,-0.484425,-0.141020,-0.392785,0.477465,-0.171379,-3.016679,0.845375,0.000000,0.019072,-0.000000,-0.017737,0.000000,0.028570,0.896785,-1.849367,1.828459,-2.012014,-1.264062,-0.484464,-0.141055,-0.392830,0.477359,-0.171407,-3.016901,0.845001
16273.712000,0.898031,-1.843479,1.829768,-2.020212,-1.264513,-0.483455,-0.142134,-0.394931,0.475328,-0.170860,-3.016393,0.845822,0.024556,0.113527,0.026206,-0.141150,-0.001582,0.036792,0.898199,-1.842991,1.830040,-2.020377,-1.264729,-0.483090,-0.142198,-0.395092,0.475010,-0.171406,-3.016900,0.845002
16273.808000,0.901241,-1.828211,1.833288,-2.039601,-1.265962,-0.480299,-0.144856,-0.400275,0.469702,-0.170985,-3.016715,0.845554,0.043412,0.202089,0.046927,-0.249607,-0.016586,0.044509,0.901422,-1.827939,1.833432,-2.039742,-1.266253,-0.479961,-0.144867,-0.400371,0.469529,-0.171404,-3.016899,0.845005
16273.904000,0.906271,-1.804332,1.837923,-2.069553,-1.268417,-0.475334,-0.148932,-0.408513,0.461110,-0.171140,-3.016680,0.845511,0.058534,0.298743,0.047937,-0.368179,-0.021596,0.059202,0.906281,-1.803809,1.837916,-2.069736,-1.268564,-0.475246,-0.149061,-0.408666,0.460916,-0.171401,-3.016897,0.845009
16274.000000,0.912438,-1.770703,1.842389,-2.109394,-1.271494,-0.469048,-0.154657,-0.419760,0.449413,-0.171637,-3.016650,0.845437,0.070959,0.402325,0.042427,-0.461824,-0.035665,0.066009,0.912531,-1.770013,1.842364,-2.109737,-1.271561,-0.469187,-0.154781,-0.419977,0.449171,-0.171396,-3.016894,0.845015
16274.096000,0.919780,-1.726533,1.845311,-2.158500,-1.275086,-0.462043,-0.161918,-0.434090,0.434524,-0.171498,-3.016631,0.845374,0.082784,0.514945,0.018855,-0.552856,-0.042232,0.078808,0.919886,-1.725854,1.845239,-2.158815,-1.275123,-0.462070,-0.162024,-0.434304,0.434297,-0.171390,-3.016891,0.845022
16274.192000,0.927229,-1.676464,1.844868,-2.210276,-1.278714,-0.454966,-0.169882,-0.449843,0.418231,-0.171276,-3.016527,0.845515,0.075523,0.524008,-0.023444,-0.534137,-0.037223,0.072529,0.927310,-1.675879,1.844856,-2.210442,-1.278758,-0.454900,-0.169967,-0.450014,0.417985,-0.171383,-3.016887,0.845029
16274.384000,0.940426,-1.572475,1.833313,-2.306016,-1.285348,-0.442155,-0.185760,-0.481279,0.385481,-0.171527,-3.016699,0.845203,0.062599,0.550610,-0.098635,-0.470021,-0.027899,0.059921,0.940450,-1.571966,1.833065,-2.306095,-1.285292,-0.442255,-0.185854,-0.481435,0.385361,-0.171370,-3.016879,0.845045
16274.480000,0.945768,-1.523673,1.823098,-2.345996,-1.288042,-0.437010,-0.193020,-0.495621,0.370593,-0.171568,-3.016712,0.845194,0.047195,0.455554,-0.108184,-0.370504,-0.021164,0.040890,0.945785,-1.523330,1.822883,-2.345955,-1.287981,-0.437143,-0.193081,-0.495729,0.370519,-0.171364,-3.016875,0.845052
16274.576000,0.949696,-1.484610,1.812776,-2.375775,-1.289850,-0.433327,-0.198783,-0.506979,0.358866,-0.171387,-3.016805,0.845383,0.034668,0.349454,-0.098482,-0.269909,-0.028594,0.033796,0.949749,-1.484502,1.812750,-2.375685,-1.289990,-0.433355,-0.198784,-0.507009,0.358808,-0.171359,-3.016873,0.845057
16274.672000,0.952546,-1.455859,1.804107,-2.396686,-1.291167,-0.430700,-0.202941,-0.515295,0.350291,-0.171178,-3.016795,0.845608,0.023623,0.247329,-0.076558,-0.179332,-0.002900,0.018072,0.952525,-1.455848,1.804161,-2.396468,-1.291403,-0.430707,-0.202962,-0.515272,0.350228,-0.171356,-3.016871,0.845062
16274.768000,0.954283,-1.437468,1.798216,-2.409415,-1.292041,-0.429213,-0.205591,-0.520563,0.344741,-0.170979,-3.016955,0.845358,0.012272,0.135156,-0.045789,-0.093477,0.042113,0.011769,0.954235,-1.437577,1.798199,-2.409218,-1.292275,-0.429079,-0.205615,-0.520519,0.344780,-0.171354,-3.016869,0.845064
16274.864000,0.954870,-1.429531,1.795581,-2.414597,-1.292436,-0.428565,-0.206806,-0.522792,0.342315,-0.171212,-3.017140,0.844971,0.001687,0.027420,-0.008578,-0.022339,-0.054456,0.042137,0.954950,-1.429793,1.795545,-2.414532,-1.292641,-0.428399,-0.206743,-0.522750,0.342464,-0.171353,-3.016869,0.845065
16274.960000,0.954918,-1.429435,1.795510,-2.414537,-1.292735,-0.428565,-0.206822,-0.522819,0.342285,-0.171265,-3.017034,0.844599,0.000000,-0.001061,-0.000486,0.001055,0.001342,-0.001198,0.954977,-1.429491,1.795441,-2.414737,-1.292655,-0.428373,-0.206787,-0.522836,0.342374,-0.171353,-3.016869,0.845065
16275.056000,0.954882,-1.429447,1.795497,-2.414573,-1.292687,-0.428445,-0.206837,-0.522813,0.342302,-0.171468,-3.017023,0.844720,0.000000,-0.000281,-0.000217,0.000407,0.000431,0.001894,0.954977,-1.429491,1.795441,-2.414737,-1.292655,-0.428373,-0.206787,-0.522836,0.342374,-0.171353,-3.016869,0.845065
16275.152000,0.954870,-1.429459,1.795497,-2.414705,-1.292723,-0.428469,-0.206846,-0.522810,0.342324,-0.171422,-3.016872,0.844848,0.000000,-0.000153,-0.000141,-0.000623,0.000264,0.000647,0.954977,-1.429491,1.795441,-2.414737,-1.292655,-0.428373,-0.206787,-0.522836,0.342374,-0.171353,-3.016869,0.845065
16275.248000,0.954894,-1.429447,1.795510,-2.414729,-1.292735,-0.428409,-0.206836,-0.522816,0.342314,-0.171481,-3.016883,0.844843,0.000000,-0.000115,-0.000102,-0.000671,0.000192,0.000312,0.954977,-1.429491,1.795441,-2.414737,-1.292655,-0.428373,-0.206787,-0.522836,0.342374,-0.171353,-3.016869,0.845065
16275.344000,0.954942,-1.429495,1.795485,-2.414741,-1.292735,-0.428421,-0.206806,-0.522819,0.342354,-0.171369,-3.016826,0.844942,0.000000,-0.000089,-0.000077,-0.000336,0.000144,0.000216,0.954977,-1.429491,1.795441,-2.414737,-1.292655,-0.428373,-0.206787,-0.522836,0.342374,-0.171353,-3.016869,0.845065
16275.440000,0.954894,-1.429471,1.795510,-2.414754,-1.292711,-0.428433,-0.206831,-0.522812,0.342331,-0.171423,-3.016854,0.844920,0.000077,-0.000064,-0.000064,-0.000216,0.000120,0.000144,0.954977,-1.429491,1.795441,-2.414737,-1.292655,-0.428373,-0.206787,-0.522836,0.342374,-0.171353,-3.016869,0.845065
16275.536000,0.954894,-1.429495,1.795522,-2.414741,-1.292759,-0.428397,-0.206829,-0.522803,0.342336,-0.171494,-3.016829,0.844877,0.000077,-0.000051,-0.000051,-0.000168,0.000096,0.000120,0.954977,-1.429491,1.795441,-2.414737,-1.292655,-0.428373,-0.206787,-0.522836,0.342374,-0.171353,-3.016869,0.845065
16275.632000,0.954918,-1.429459,1.795510,-2.414754,-1.292723,-0.428397,-0.206821,-0.522819,0.342324,-0.171449,-3.016871,0.844899,0.000077,-0.000051,-0.000038,-0.000120,0.000072,0.000096,0.954977,-1.429491,1.795441,-2.414737,-1.292655,-0.428373,-0.206787,-0.522836,0.342374,-0.171353,-3.016869,0.845065
16275.728000,0.954942,-1.429495,1.795497,-2.414766,-1.292735,-0.428397,-0.206805,-0.522818,0.342351,-0.171401,-3.016820,0.844958,0.000077,-0.000038,-0.000038,-0.000096,0.000072,0.000096,0.954977,-1.429491,1.795441,-2.414737,-1.292655,-0.428373,-0.206787,-0.522836,0.342374,-0.171353,-3.016869,0.845065
16275.824000,0.954942,-1.429483,1.795497,-2.414790,-1.292723,-0.428385,-0.206807,-0.522821,0.342348,-0.171413,-3.016821,0.844985,0.000077,-0.000038,-0.000038,-0.000096,0.000048,0.000072,0.954977,-1.429491,1.795441,-2.414737,-1.292655,-0.428373,-0.206787,-0.522836,0.342374,-0.171353,-3.016869,0.845065
16275.920000,0.954918,-1.429435,1.795510,-2.414825,-1.292723,-0.428397,-0.206825,-0.522826,0.342320,-0.171436,-3.016831,0.844954,0.000064,-0.000026,-0.000026,-0.000096,0.000048,0.000072,0.954977,-1.429491,1.795441,-2.414737,-1.292655,-0.428373,-0.206787,-0.522836,0.342374,-0.171353,-3.016869,0.845065
16276.016000,0.954954,-1.429483,1.795557,-2.414790,-1.292699,-0.428409,-0.206793,-0.522817,0.342319,-0.171366,-3.016886,0.844937,0.000051,-0.000026,-0.000026,-0.000096,-0.000024,0.000072,0.954977,-1.429491,1.795441,-2.414737,-1.292655,-0.428373,-0.206787,-0.522836,0.342374,-0.171353,-3.016869,0.845065
16276.112000,0.954918,-1.429483,1.795510,-2.414813,-1.292735,-0.428349,-0.206819,-0.522815,0.342344,-0.171504,-3.016801,0.844987,0.000038,-0.000026,-0.000026,-0.000096,0.000000,0.000072,0.954977,-1.429491,1.795441,-2.414737,-1.292655,-0.428373,-0.206787,-0.522836,0.342374,-0.171353,-3.016869,0.845065
16276.208000,0.954930,-1.429459,1.795510,-2.414790,-1.292723,-0.428373,-0.206815,-0.522822,0.342328,-0.171459,-3.016849,0.844943,0.000038,-0.000026,-0.000026,-0.000096,0.000000,0.000072,0.954977,-1.429491,1.795441,-2.414737,-1.292655,-0.428373,-0.206787,-0.522836,0.342374,-0.171353,-3.016869,0.845065
16276.304000,0.954930,-1.429411,1.795557,-2.414801,-1.292711,-0.428385,-0.206817,-0.522826,0.342281,-0.171459,-3.016925,0.844857,0.000038,-0.000026,-0.000026,-0.000096,0.000000,0.000072,0.954977,-1.429491,1.795441,-2.414737,-1.292655,-0.428373,-0.206787,-0.522836,0.342374,-0.171353,-3.016869,0.845065
16276.400000,0.954918,-1.429471,1.795522,-2.414813,-1.292711,-0.428361,-0.206818,-0.522817,0.342332,-0.171484,-3.016835,0.844982,0.000026,-0.000013,-0.000013,-0.000096,0.000000,0.000072,0.954977,-1.429491,1.795441,-2.414737,-1.292655,-0.428373,-0.206787,-0.522836,0.342374,-0.171353,-3.016869,0.845065
16276.496000,0.954966,-1.429435,1.795462,-2.414825,-1.292723,-0.428349,-0.206805,-0.522842,0.342343,-0.171425,-3.016816,0.845016,0.000026,-0.000013,-0.000013,-0.000072,0.000000,0.000072,0.954977,-1.429491,1.795441,-2.414737,-1.292655,-0.428373,-0.206787,-0.522836,0.342374,-0.171353,-3.016869,0.845065
16276.592000,0.954942,-1.429447,1.795485,-2.414790,-1.292723,-0.428349,-0.206813,-0.522831,0.342334,-0.171474,-3.016847,0.844960,0.000026,-0.000013,-0.000013,-0.000072,0.000000,0.000072,0.954977,-1.429491,1.795441,-2.414737,-1.292655,-0.428373,-0.206787,-0.522836,0.342374,-0.171353,-3.016869,0.845065
16276.784000,0.954930,-1.429435,1.795510,-2.414801,-1.292735,-0.428397,-0.206820,-0.522827,0.342316,-0.171429,-3.016847,0.844916,0.000026,0.000000,-0.000013,-0.000048,0.000000,0.000072,0.954977,-1.429491,1.795441,-2.414737,-1.292655,-0.428373,-0.206787,-0.522836,0.342374,-0.171353,-3.016869,0.845065
16276.880000,0.954942,-1.429411,1.795497,-2.414850,-1.292723,-0.428349,-0.206818,-0.522838,0.342316,-0.171470,-3.016837,0.844974,0.000013,0.000000,-0.000013,-0.000048,0.000000,0.000048,0.954977,-1.429491,1.795441,-2.414737,-1.292655,-0.428373,-0.206787,-0.522836,0.342374,-0.171353,-3.016869,0.845065
