correlllab/MAGPIE/datasets/csv/cardboard box_trajectory.csv
timestamp,q0,q1,q2,q3,q4,q5,x,y,z,rx,ry,rz,dx,dy,dz,drx,dry,drz,aperture,d_aperture,contact_force,applied_force,d_applied_force,task,img,wrist_img
1726691755.669865,0.896738,-1.849644,1.828403,-2.011713,-1.264022,-0.484533,-0.140999,-0.392735,0.477461,-2.59673,0.025651,3.035285,-8e-06,0.0,-4e-06,-4.6e-05,2.3e-05,-2.9e-05,81.25589,0.0,0.0,0.0,0.0,moving to grasp cardboard box,"[[[ 17  20  25]
  [ 14  18  21]
  [ 22  22  22]
  ...
  [110 104 104]
  [110 104 104]
  [113 107 107]]

 [[ 13  16  21]
  [ 14  15  19]
  [ 19  19  19]
  ...
  [106 100 100]
  [109 103 103]
  [114 108 108]]

 [[ 12  13  17]
  [ 15  16  18]
  [ 17  17  15]
  ...
  [100  95  92]
  [104  99  96]
  [108 103 100]]

 ...

 [[164 145 128]
  [166 149 131]
  [170 153 137]
  ...
  [146 138 115]
  [146 138 115]
  [146 138 115]]

 [[170 150 126]
  [169 148 127]
  [167 149 129]
  ...
  [147 139 116]
  [147 139 116]
  [147 139 116]]

 [[169 147 123]
  [168 148 123]
  [169 148 127]
  ...
  [147 139 116]
  [147 139 116]
  [147 139 116]]]","[[[ 55  67  67]
  [ 56  68  68]
  [ 57  69  69]
  ...
  [134 134 136]
  [138 138 140]
  [138 138 140]]

 [[ 54  66  66]
  [ 54  66  66]
  [ 55  67  67]
  ...
  [134 134 136]
  [137 137 139]
  [137 137 139]]

 [[ 54  65  67]
  [ 54  65  67]
  [ 54  65  67]
  ...
  [134 134 136]
  [137 137 139]
  [137 137 139]]

 ...

 [[ 53  65  63]
  [ 53  65  63]
  [ 55  67  67]
  ...
  [ 67  69  64]
  [ 68  70  65]
  [ 68  70  65]]

 [[ 55  67  65]
  [ 53  65  63]
  [ 54  66  66]
  ...
  [ 63  68  61]
  [ 65  70  63]
  [ 65  70  63]]

 [[ 52  64  62]
  [ 52  64  62]
  [ 55  67  67]
  ...
  [ 59  64  57]
  [ 59  64  57]
  [ 58  63  56]]]"
1726691755.765865,0.896774,-1.849524,1.828391,-2.012085,-1.26401,-0.484425,-0.14102,-0.392785,0.477465,-2.596503,0.025575,3.035242,-3.5e-05,-4.5e-05,-0.000106,-0.000273,9.9e-05,1.4e-05,81.25589,0.0,0.0,0.0,0.0,moving to grasp cardboard box,"[[[ 17  20  25]
  [ 14  18  21]
  [ 22  22  22]
  ...
  [110 104 104]
  [110 104 104]
  [113 107 107]]

 [[ 13  16  21]
  [ 14  15  19]
  [ 19  19  19]
  ...
  [106 100 100]
  [109 103 103]
  [114 108 108]]

 [[ 12  13  17]
  [ 15  16  18]
  [ 17  17  15]
  ...
  [100  95  92]
  [104  99  96]
  [108 103 100]]

 ...

 [[164 145 128]
  [166 149 131]
  [170 153 137]
  ...
  [146 138 115]
  [146 138 115]
  [146 138 115]]

 [[170 150 126]
  [169 148 127]
  [167 149 129]
  ...
  [147 139 116]
  [147 139 116]
  [147 139 116]]

 [[169 147 123]
  [168 148 123]
  [169 148 127]
  ...
  [147 139 116]
  [147 139 116]
  [147 139 116]]]","[[[ 55  67  67]
  [ 56  68  68]
  [ 57  69  69]
  ...
  [134 134 136]
  [138 138 140]
  [138 138 140]]

 [[ 54  66  66]
  [ 54  66  66]
  [ 55  67  67]
  ...
  [134 134 136]
  [137 137 139]
  [137 137 139]]

 [[ 54  65  67]
  [ 54  65  67]
  [ 54  65  67]
  ...
  [134 134 136]
  [137 137 139]
  [137 137 139]]

 ...

 [[ 53  65  63]
  [ 53  65  63]
  [ 55  67  67]
  ...
  [ 67  69  64]
  [ 68  70  65]
  [ 68  70  65]]

 [[ 55  67  65]
  [ 53  65  63]
  [ 54  66  66]
  ...
  [ 63  68  61]
  [ 65  70  63]
  [ 65  70  63]]

 [[ 52  64  62]
  [ 52  64  62]
  [ 55  67  67]
  ...
  [ 59  64  57]
  [ 59  64  57]
  [ 58  63  56]]]"
1726691755.861865,0.898031,-1.843479,1.829768,-2.020212,-1.264513,-0.483455,-0.142134,-0.394931,0.475328,-2.596163,0.025329,3.03551,-6.4e-05,-0.000161,-0.000318,-0.000613,0.000344,-0.000254,81.25589,0.0,0.0,0.0,0.0,moving to grasp cardboard box,"[[[ 17  20  25]
  [ 14  18  21]
  [ 22  22  22]
  ...
  [110 104 104]
  [110 104 104]
  [113 107 107]]

 [[ 13  16  21]
  [ 14  15  19]
  [ 19  19  19]
  ...
  [106 100 100]
  [109 103 103]
  [114 108 108]]

 [[ 12  13  17]
  [ 15  16  18]
  [ 17  17  15]
  ...
  [100  95  92]
  [104  99  96]
  [108 103 100]]

 ...

 [[164 145 128]
  [166 149 131]
  [170 153 137]
  ...
  [146 138 115]
  [146 138 115]
  [146 138 115]]

 [[170 150 126]
  [169 148 127]
  [167 149 129]
  ...
  [147 139 116]
  [147 139 116]
  [147 139 116]]

 [[169 147 123]
  [168 148 123]
  [169 148 127]
  ...
  [147 139 116]
  [147 139 116]
  [147 139 116]]]","[[[ 55  67  67]
  [ 56  68  68]
  [ 57  69  69]
  ...
  [134 134 136]
  [138 138 140]
  [138 138 140]]

 [[ 54  66  66]
  [ 54  66  66]
  [ 55  67  67]
  ...
  [134 134 136]
  [137 137 139]
  [137 137 139]]

 [[ 54  65  67]
  [ 54  65  67]
  [ 54  65  67]
  ...
  [134 134 136]
  [137 137 139]
  [137 137 139]]

 ...

 [[ 53  65  63]
  [ 53  65  63]
  [ 55  67  67]
  ...
  [ 67  69  64]
  [ 68  70  65]
  [ 68  70  65]]

 [[ 55  67  65]
  [ 53  65  63]
  [ 54  66  66]
  ...
  [ 63  68  61]
  [ 65  70  63]
  [ 65  70  63]]

 [[ 52  64  62]
  [ 52  64  62]
  [ 55  67  67]
  ...
  [ 59  64  57]
  [ 59  64  57]
  [ 58  63  56]]]"
1726691755.957865,0.901241,-1.828211,1.833288,-2.039601,-1.265962,-0.480299,-0.144856,-0.400275,0.469702,-2.596396,0.025571,3.035504,-1.1e-05,-9.6e-05,-0.000173,-0.000378,0.000102,-0.000247,81.25589,0.0,0.0,0.0,0.0,moving to grasp cardboard box,"[[[ 17  20  25]
  [ 14  18  21]
  [ 22  22  22]
  ...
  [110 104 104]
  [110 104 104]
  [113 107 107]]

 [[ 13  16  21]
  [ 14  15  19]
  [ 19  19  19]
  ...
  [106 100 100]
  [109 103 103]
  [114 108 108]]

 [[ 12  13  17]
  [ 15  16  18]
  [ 17  17  15]
  ...
  [100  95  92]
  [104  99  96]
  [108 103 100]]

 ...

 [[164 145 128]
  [166 149 131]
  [170 153 137]
  ...
  [146 138 115]
  [146 138 115]
  [146 138 115]]

 [[170 150 126]
  [169 148 127]
  [167 149 129]
  ...
  [147 139 116]
  [147 139 116]
  [147 139 116]]

 [[169 147 123]
  [168 148 123]
  [169 148 127]
  ...
  [147 139 116]
  [147 139 116]
  [147 139 116]]]","[[[ 55  67  67]
  [ 56  68  68]
  [ 57  69  69]
  ...
  [134 134 136]
  [138 138 140]
  [138 138 140]]

 [[ 54  66  66]
  [ 54  66  66]
  [ 55  67  67]
  ...
  [134 134 136]
  [137 137 139]
  [137 137 139]]

 [[ 54  65  67]
  [ 54  65  67]
  [ 54  65  67]
  ...
  [134 134 136]
  [137 137 139]
  [137 137 139]]

 ...

 [[ 53  65  63]
  [ 53  65  63]
  [ 55  67  67]
  ...
  [ 67  69  64]
  [ 68  70  65]
  [ 68  70  65]]

 [[ 55  67  65]
  [ 53  65  63]
  [ 54  66  66]
  ...
  [ 63  68  61]
  [ 65  70  63]
  [ 65  70  63]]

 [[ 52  64  62]
  [ 52  64  62]
  [ 55  67  67]
  ...
  [ 59  64  57]
  [ 59  64  57]
  [ 58  63  56]]]"
1726691756.053865,0.906271,-1.804332,1.837923,-2.069553,-1.268417,-0.475334,-0.148932,-0.408513,0.46111,-2.596417,0.025561,3.035398,-0.000129,-0.000153,-0.000194,-0.000354,0.00011,-0.000139,81.25589,0.0,0.0,0.0,0.0,moving to grasp cardboard box,"[[[ 17  20  25]
  [ 14  18  21]
  [ 22  22  22]
  ...
  [110 104 104]
  [110 104 104]
  [113 107 107]]

 [[ 13  16  21]
  [ 14  15  19]
  [ 19  19  19]
  ...
  [106 100 100]
  [109 103 103]
  [114 108 108]]

 [[ 12  13  17]
  [ 15  16  18]
  [ 17  17  15]
  ...
  [100  95  92]
  [104  99  96]
  [108 103 100]]

 ...

 [[164 145 128]
  [166 149 131]
  [170 153 137]
  ...
  [146 138 115]
  [146 138 115]
  [146 138 115]]

 [[170 150 126]
  [169 148 127]
  [167 149 129]
  ...
  [147 139 116]
  [147 139 116]
  [147 139 116]]

 [[169 147 123]
  [168 148 123]
  [169 148 127]
  ...
  [147 139 116]
  [147 139 116]
  [147 139 116]]]","[[[ 55  67  67]
  [ 56  68  68]
  [ 57  69  69]
  ...
  [134 134 136]
  [138 138 140]
  [138 138 140]]

 [[ 54  66  66]
  [ 54  66  66]
  [ 55  67  67]
  ...
  [134 134 136]
  [137 137 139]
  [137 137 139]]

 [[ 54  65  67]
  [ 54  65  67]
  [ 54  65  67]
  ...
  [134 134 136]
  [137 137 139]
  [137 137 139]]

 ...

 [[ 53  65  63]
  [ 53  65  63]
  [ 55  67  67]
  ...
  [ 67  69  64]
  [ 68  70  65]
  [ 68  70  65]]

 [[ 55  67  65]
  [ 53  65  63]
  [ 54  66  66]
  ...
  [ 63  68  61]
  [ 65  70  63]
  [ 65  70  63]]

 [[ 52  64  62]
  [ 52  64  62]
  [ 55  67  67]
  ...
  [ 59  64  57]
  [ 59  64  57]
  [ 58  63  56]]]"
1726691756.149865,0.912438,-1.770703,1.842389,-2.109394,-1.271494,-0.469048,-0.154657,-0.41976,0.449413,-2.596465,0.025624,3.035085,-0.000124,-0.000217,-0.000242,-0.000302,4.5e-05,0.000177,81.25589,0.0,0.0,0.0,0.0,moving to grasp cardboard box,"[[[ 17  20  25]
  [ 14  18  21]
  [ 22  22  22]
  ...
  [110 104 104]
  [110 104 104]
  [113 107 107]]

 [[ 13  16  21]
  [ 14  15  19]
  [ 19  19  19]
  ...
  [106 100 100]
  [109 103 103]
  [114 108 108]]

 [[ 12  13  17]
  [ 15  16  18]
  [ 17  17  15]
  ...
  [100  95  92]
  [104  99  96]
  [108 103 100]]

 ...

 [[164 145 128]
  [166 149 131]
  [170 153 137]
  ...
  [146 138 115]
  [146 138 115]
  [146 138 115]]

 [[170 150 126]
  [169 148 127]
  [167 149 129]
  ...
  [147 139 116]
  [147 139 116]
  [147 139 116]]

 [[169 147 123]
  [168 148 123]
  [169 148 127]
  ...
  [147 139 116]
  [147 139 116]
  [147 139 116]]]","[[[ 55  67  67]
  [ 56  68  68]
  [ 57  69  69]
  ...
  [134 134 136]
  [138 138 140]
  [138 138 140]]

 [[ 54  66  66]
  [ 54  66  66]
  [ 55  67  67]
  ...
  [134 134 136]
  [137 137 139]
  [137 137 139]]

 [[ 54  65  67]
  [ 54  65  67]
  [ 54  65  67]
  ...
  [134 134 136]
  [137 137 139]
  [137 137 139]]

 ...

 [[ 53  65  63]
  [ 53  65  63]
  [ 55  67  67]
  ...
  [ 67  69  64]
  [ 68  70  65]
  [ 68  70  65]]

 [[ 55  67  65]
  [ 53  65  63]
  [ 54  66  66]
  ...
  [ 63  68  61]
  [ 65  70  63]
  [ 65  70  63]]

 [[ 52  64  62]
  [ 52  64  62]
  [ 55  67  67]
  ...
  [ 59  64  57]
  [ 59  64  57]
  [ 58  63  56]]]"
1726691756.245865,0.91978,-1.726533,1.845311,-2.1585,-1.275086,-0.462043,-0.161918,-0.43409,0.434524,-2.596496,0.025557,3.035157,-0.000106,-0.000214,-0.000227,-0.000266,0.00011,0.000108,81.25589,0.0,0.0,0.0,0.0,moving to grasp cardboard box,"[[[ 17  20  25]
  [ 14  18  21]
  [ 22  22  22]
  ...
  [110 104 104]
  [110 104 104]
  [113 107 107]]

 [[ 13  16  21]
  [ 14  15  19]
  [ 19  19  19]
  ...
  [106 100 100]
  [109 103 103]
  [114 108 108]]

 [[ 12  13  17]
  [ 15  16  18]
  [ 17  17  15]
  ...
  [100  95  92]
  [104  99  96]
  [108 103 100]]

 ...

 [[164 145 128]
  [166 149 131]
  [170 153 137]
  ...
  [146 138 115]
  [146 138 115]
  [146 138 115]]

 [[170 150 126]
  [169 148 127]
  [167 149 129]
  ...
  [147 139 116]
  [147 139 116]
  [147 139 116]]

 [[169 147 123]
  [168 148 123]
  [169 148 127]
  ...
  [147 139 116]
  [147 139 116]
  [147 139 116]]]","[[[ 55  67  67]
  [ 56  68  68]
  [ 57  69  69]
  ...
  [134 134 136]
  [138 138 140]
  [138 138 140]]

 [[ 54  66  66]
  [ 54  66  66]
  [ 55  67  67]
  ...
  [134 134 136]
  [137 137 139]
  [137 137 139]]

 [[ 54  65  67]
  [ 54  65  67]
  [ 54  65  67]
  ...
  [134 134 136]
  [137 137 139]
  [137 137 139]]

 ...

 [[ 53  65  63]
  [ 53  65  63]
  [ 55  67  67]
  ...
  [ 67  69  64]
  [ 68  70  65]
  [ 68  70  65]]

 [[ 55  67  65]
  [ 53  65  63]
  [ 54  66  66]
  ...
  [ 63  68  61]
  [ 65  70  63]
  [ 65  70  63]]

 [[ 52  64  62]
  [ 52  64  62]
  [ 55  67  67]
  ...
  [ 59  64  57]
  [ 59  64  57]
  [ 58  63  56]]]"
1726691756.341865,0.927229,-1.676464,1.844868,-2.210276,-1.278714,-0.454966,-0.169882,-0.449843,0.418231,-2.596384,0.025454,3.035272,-8.5e-05,-0.000171,-0.000246,-0.000372,0.00021,-4e-06,81.25589,0.0,0.0,0.0,0.0,moving to grasp cardboard box,"[[[ 17  20  25]
  [ 14  18  21]
  [ 22  22  22]
  ...
  [110 104 104]
  [110 104 104]
  [113 107 107]]

 [[ 13  16  21]
  [ 14  15  19]
  [ 19  19  19]
  ...
  [106 100 100]
  [109 103 103]
  [114 108 108]]

 [[ 12  13  17]
  [ 15  16  18]
  [ 17  17  15]
  ...
  [100  95  92]
  [104  99  96]
  [108 103 100]]

 ...

 [[164 145 128]
  [166 149 131]
  [170 153 137]
  ...
  [146 138 115]
  [146 138 115]
  [146 138 115]]

 [[170 150 126]
  [169 148 127]
  [167 149 129]
  ...
  [147 139 116]
  [147 139 116]
  [147 139 116]]

 [[169 147 123]
  [168 148 123]
  [169 148 127]
  ...
  [147 139 116]
  [147 139 116]
  [147 139 116]]]","[[[ 55  67  67]
  [ 56  68  68]
  [ 57  69  69]
  ...
  [134 134 136]
  [138 138 140]
  [138 138 140]]

 [[ 54  66  66]
  [ 54  66  66]
  [ 55  67  67]
  ...
  [134 134 136]
  [137 137 139]
  [137 137 139]]

 [[ 54  65  67]
  [ 54  65  67]
  [ 54  65  67]
  ...
  [134 134 136]
  [137 137 139]
  [137 137 139]]

 ...

 [[ 53  65  63]
  [ 53  65  63]
  [ 55  67  67]
  ...
  [ 67  69  64]
  [ 68  70  65]
  [ 68  70  65]]

 [[ 55  67  65]
  [ 53  65  63]
  [ 54  66  66]
  ...
  [ 63  68  61]
  [ 65  70  63]
  [ 65  70  63]]

 [[ 52  64  62]
  [ 52  64  62]
  [ 55  67  67]
  ...
  [ 59  64  57]
  [ 59  64  57]
  [ 58  63  56]]]"
1726691756.437865,0.940426,-1.572475,1.833313,-2.306016,-1.285348,-0.442155,-0.18576,-0.481279,0.385481,-2.596614,0.025576,3.035144,-9.4e-05,-0.000156,-0.00012,-0.000131,8.2e-05,0.000132,81.25589,0.0,0.0,0.0,0.0,moving to grasp cardboard box,"[[[ 17  20  25]
  [ 14  18  21]
  [ 22  22  22]
  ...
  [110 104 104]
  [110 104 104]
  [113 107 107]]

 [[ 13  16  21]
  [ 14  15  19]
  [ 19  19  19]
  ...
  [106 100 100]
  [109 103 103]
  [114 108 108]]

 [[ 12  13  17]
  [ 15  16  18]
  [ 17  17  15]
  ...
  [100  95  92]
  [104  99  96]
  [108 103 100]]

 ...

 [[164 145 128]
  [166 149 131]
  [170 153 137]
  ...
  [146 138 115]
  [146 138 115]
  [146 138 115]]

 [[170 150 126]
  [169 148 127]
  [167 149 129]
  ...
  [147 139 116]
  [147 139 116]
  [147 139 116]]

 [[169 147 123]
  [168 148 123]
  [169 148 127]
  ...
  [147 139 116]
  [147 139 116]
  [147 139 116]]]","[[[ 55  67  67]
  [ 56  68  68]
  [ 57  69  69]
  ...
  [134 134 136]
  [138 138 140]
  [138 138 140]]

 [[ 54  66  66]
  [ 54  66  66]
  [ 55  67  67]
  ...
  [134 134 136]
  [137 137 139]
  [137 137 139]]

 [[ 54  65  67]
  [ 54  65  67]
  [ 54  65  67]
  ...
  [134 134 136]
  [137 137 139]
  [137 137 139]]

 ...

 [[ 53  65  63]
  [ 53  65  63]
  [ 55  67  67]
  ...
  [ 67  69  64]
  [ 68  70  65]
  [ 68  70  65]]

 [[ 55  67  65]
  [ 53  65  63]
  [ 54  66  66]
  ...
  [ 63  68  61]
  [ 65  70  63]
  [ 65  70  63]]

 [[ 52  64  62]
  [ 52  64  62]
  [ 55  67  67]
  ...
  [ 59  64  57]
  [ 59  64  57]
  [ 58  63  56]]]"
1726691756.533865,0.945768,-1.523673,1.823098,-2.345996,-1.288042,-0.43701,-0.19302,-0.495621,0.370593,-2.596623,0.025594,3.035122,-6.1e-05,-0.000108,-7.4e-05,-0.000117,6.1e-05,0.000156,81.25589,0.0,0.0,0.0,0.0,moving to grasp cardboard box,"[[[ 20  20   8]
  [ 19  17   4]
  [ 28  25   6]
  ...
  [113 106 100]
  [115 106 101]
  [115 106 101]]

 [[ 20  20   8]
  [ 16  17   3]
  [ 25  22   5]
  ...
  [106  99  93]
  [111 102  97]
  [114 105 100]]

 [[ 17  19   8]
  [ 17  17   5]
  [ 21  19   4]
  ...
  [104  97  91]
  [109 100  95]
  [115 106 101]]

 ...

 [[169 147 133]
  [172 153 138]
  [174 158 142]
  ...
  [146 138 117]
  [146 138 117]
  [146 138 117]]

 [[173 148 128]
  [170 148 127]
  [167 149 129]
  ...
  [147 139 118]
  [147 139 118]
  [147 139 118]]

 [[174 148 125]
  [171 147 123]
  [168 147 126]
  ...
  [147 139 118]
  [147 139 118]
  [147 139 118]]]","[[[ 58  71  79]
  [ 57  70  78]
  [ 57  70  78]
  ...
  [139 137 140]
  [139 137 140]
  [141 139 142]]

 [[ 57  70  78]
  [ 56  69  77]
  [ 56  69  77]
  ...
  [140 138 141]
  [139 137 140]
  [141 139 142]]

 [[ 58  71  77]
  [ 58  71  77]
  [ 58  71  77]
  ...
  [140 138 141]
  [139 137 140]
  [141 139 142]]

 ...

 [[ 53  64  66]
  [ 53  64  66]
  [ 53  64  66]
  ...
  [ 48  53  47]
  [ 47  52  46]
  [ 52  57  51]]

 [[ 53  65  65]
  [ 53  65  65]
  [ 53  65  65]
  ...
  [ 48  53  46]
  [ 49  54  47]
  [ 57  62  55]]

 [[ 53  65  65]
  [ 53  65  65]
  [ 53  65  65]
  ...
  [ 56  61  54]
  [ 55  60  53]
  [ 57  62  55]]]"
1726691756.629865,0.949696,-1.48461,1.812776,-2.375775,-1.28985,-0.433327,-0.198783,-0.506979,0.358866,-2.596526,0.025693,3.035274,-1e-06,-3e-05,-5.8e-05,-0.00021,-3.9e-05,7e-06,81.25589,0.0,0.0,0.0,0.0,moving to grasp cardboard box,"[[[ 20  20   8]
  [ 19  17   4]
  [ 28  25   6]
  ...
  [113 106 100]
  [115 106 101]
  [115 106 101]]

 [[ 20  20   8]
  [ 16  17   3]
  [ 25  22   5]
  ...
  [106  99  93]
  [111 102  97]
  [114 105 100]]

 [[ 17  19   8]
  [ 17  17   5]
  [ 21  19   4]
  ...
  [104  97  91]
  [109 100  95]
  [115 106 101]]

 ...

 [[169 147 133]
  [172 153 138]
  [174 158 142]
  ...
  [146 138 117]
  [146 138 117]
  [146 138 117]]

 [[173 148 128]
  [170 148 127]
  [167 149 129]
  ...
  [147 139 118]
  [147 139 118]
  [147 139 118]]

 [[174 148 125]
  [171 147 123]
  [168 147 126]
  ...
  [147 139 118]
  [147 139 118]
  [147 139 118]]]","[[[ 58  71  79]
  [ 57  70  78]
  [ 57  70  78]
  ...
  [139 137 140]
  [139 137 140]
  [141 139 142]]

 [[ 57  70  78]
  [ 56  69  77]
  [ 56  69  77]
  ...
  [140 138 141]
  [139 137 140]
  [141 139 142]]

 [[ 58  71  77]
  [ 58  71  77]
  [ 58  71  77]
  ...
  [140 138 141]
  [139 137 140]
  [141 139 142]]

 ...

 [[ 53  64  66]
  [ 53  64  66]
  [ 53  64  66]
  ...
  [ 48  53  47]
  [ 47  52  46]
  [ 52  57  51]]

 [[ 53  65  65]
  [ 53  65  65]
  [ 53  65  65]
  ...
  [ 48  53  46]
  [ 49  54  47]
  [ 57  62  55]]

 [[ 53  65  65]
  [ 53  65  65]
  [ 53  65  65]
  ...
  [ 56  61  54]
  [ 55  60  53]
  [ 57  62  55]]]"
1726691756.725865,0.952546,-1.455859,1.804107,-2.396686,-1.291167,-0.4307,-0.202941,-0.515295,0.350291,-2.596385,0.025702,3.035417,-2.1e-05,2.3e-05,-6.3e-05,-0.000348,-4.9e-05,-0.000133,81.25589,0.0,0.0,0.0,0.0,moving to grasp cardboard box,"[[[ 20  20   8]
  [ 19  17   4]
  [ 28  25   6]
  ...
  [113 106 100]
  [115 106 101]
  [115 106 101]]

 [[ 20  20   8]
  [ 16  17   3]
  [ 25  22   5]
  ...
  [106  99  93]
  [111 102  97]
  [114 105 100]]

 [[ 17  19   8]
  [ 17  17   5]
  [ 21  19   4]
  ...
  [104  97  91]
  [109 100  95]
  [115 106 101]]

 ...

 [[169 147 133]
  [172 153 138]
  [174 158 142]
  ...
  [146 138 117]
  [146 138 117]
  [146 138 117]]

 [[173 148 128]
  [170 148 127]
  [167 149 129]
  ...
  [147 139 118]
  [147 139 118]
  [147 139 118]]

 [[174 148 125]
  [171 147 123]
  [168 147 126]
  ...
  [147 139 118]
  [147 139 118]
  [147 139 118]]]","[[[ 58  71  79]
  [ 57  70  78]
  [ 57  70  78]
  ...
  [139 137 140]
  [139 137 140]
  [141 139 142]]

 [[ 57  70  78]
  [ 56  69  77]
  [ 56  69  77]
  ...
  [140 138 141]
  [139 137 140]
  [141 139 142]]

 [[ 58  71  77]
  [ 58  71  77]
  [ 58  71  77]
  ...
  [140 138 141]
  [139 137 140]
  [141 139 142]]

 ...

 [[ 53  64  66]
  [ 53  64  66]
  [ 53  64  66]
  ...
  [ 48  53  47]
  [ 47  52  46]
  [ 52  57  51]]

 [[ 53  65  65]
  [ 53  65  65]
  [ 53  65  65]
  ...
  [ 48  53  46]
  [ 49  54  47]
  [ 57  62  55]]

 [[ 53  65  65]
  [ 53  65  65]
  [ 53  65  65]
  ...
  [ 56  61  54]
  [ 55  60  53]
  [ 57  62  55]]]"
1726691756.821865,0.954283,-1.437468,1.798216,-2.409415,-1.292041,-0.429213,-0.205591,-0.520563,0.344741,-2.596565,0.025731,3.03556,-2.4e-05,4.4e-05,3.9e-05,-0.000165,-7.9e-05,-0.000275,81.25589,0.0,0.0,0.0,0.0,moving to grasp cardboard box,"[[[ 20  20   8]
  [ 19  17   4]
  [ 28  25   6]
  ...
  [113 106 100]
  [115 106 101]
  [115 106 101]]

 [[ 20  20   8]
  [ 16  17   3]
  [ 25  22   5]
  ...
  [106  99  93]
  [111 102  97]
  [114 105 100]]

 [[ 17  19   8]
  [ 17  17   5]
  [ 21  19   4]
  ...
  [104  97  91]
  [109 100  95]
  [115 106 101]]

 ...

 [[169 147 133]
  [172 153 138]
  [174 158 142]
  ...
  [146 138 117]
  [146 138 117]
  [146 138 117]]

 [[173 148 128]
  [170 148 127]
  [167 149 129]
  ...
  [147 139 118]
  [147 139 118]
  [147 139 118]]

 [[174 148 125]
  [171 147 123]
  [168 147 126]
  ...
  [147 139 118]
  [147 139 118]
  [147 139 118]]]","[[[ 58  71  79]
  [ 57  70  78]
  [ 57  70  78]
  ...
  [139 137 140]
  [139 137 140]
  [141 139 142]]

 [[ 57  70  78]
  [ 56  69  77]
  [ 56  69  77]
  ...
  [140 138 141]
  [139 137 140]
  [141 139 142]]

 [[ 58  71  77]
  [ 58  71  77]
  [ 58  71  77]
  ...
  [140 138 141]
  [139 137 140]
  [141 139 142]]

 ...

 [[ 53  64  66]
  [ 53  64  66]
  [ 53  64  66]
  ...
  [ 48  53  47]
  [ 47  52  46]
  [ 52  57  51]]

 [[ 53  65  65]
  [ 53  65  65]
  [ 53  65  65]
  ...
  [ 48  53  46]
  [ 49  54  47]
  [ 57  62  55]]

 [[ 53  65  65]
  [ 53  65  65]
  [ 53  65  65]
  ...
  [ 56  61  54]
  [ 55  60  53]
  [ 57  62  55]]]"
1726691756.917865,0.95487,-1.429531,1.795581,-2.414597,-1.292436,-0.428565,-0.206806,-0.522792,0.342315,-2.596842,0.025838,3.035439,6.3e-05,4.2e-05,0.000149,0.000112,-0.000187,-0.000154,81.25589,0.0,0.0,0.0,0.0,moving to grasp cardboard box,"[[[ 20  20   8]
  [ 19  17   4]
  [ 28  25   6]
  ...
  [113 106 100]
  [115 106 101]
  [115 106 101]]

 [[ 20  20   8]
  [ 16  17   3]
  [ 25  22   5]
  ...
  [106  99  93]
  [111 102  97]
  [114 105 100]]

 [[ 17  19   8]
  [ 17  17   5]
  [ 21  19   4]
  ...
  [104  97  91]
  [109 100  95]
  [115 106 101]]

 ...

 [[169 147 133]
  [172 153 138]
  [174 158 142]
  ...
  [146 138 117]
  [146 138 117]
  [146 138 117]]

 [[173 148 128]
  [170 148 127]
  [167 149 129]
  ...
  [147 139 118]
  [147 139 118]
  [147 139 118]]

 [[174 148 125]
  [171 147 123]
  [168 147 126]
  ...
  [147 139 118]
  [147 139 118]
  [147 139 118]]]","[[[ 58  71  79]
  [ 57  70  78]
  [ 57  70  78]
  ...
  [139 137 140]
  [139 137 140]
  [141 139 142]]

 [[ 57  70  78]
  [ 56  69  77]
  [ 56  69  77]
  ...
  [140 138 141]
  [139 137 140]
  [141 139 142]]

 [[ 58  71  77]
  [ 58  71  77]
  [ 58  71  77]
  ...
  [140 138 141]
  [139 137 140]
  [141 139 142]]

 ...

 [[ 53  64  66]
  [ 53  64  66]
  [ 53  64  66]
  ...
  [ 48  53  47]
  [ 47  52  46]
  [ 52  57  51]]

 [[ 53  65  65]
  [ 53  65  65]
  [ 53  65  65]
  ...
  [ 48  53  46]
  [ 49  54  47]
  [ 57  62  55]]

 [[ 53  65  65]
  [ 53  65  65]
  [ 53  65  65]
  ...
  [ 56  61  54]
  [ 55  60  53]
  [ 57  62  55]]]"
1726691757.013865,0.954918,-1.429435,1.79551,-2.414537,-1.292735,-0.428565,-0.206822,-0.522819,0.342285,-2.597044,0.025647,3.035343,3.5e-05,-1.7e-05,8.9e-05,0.000314,5e-06,-5.9e-05,81.25589,0.0,0.0,0.0,0.0,moving to grasp cardboard box,"[[[ 20  20   8]
  [ 19  17   4]
  [ 28  25   6]
  ...
  [113 106 100]
  [115 106 101]
  [115 106 101]]

 [[ 20  20   8]
  [ 16  17   3]
  [ 25  22   5]
  ...
  [106  99  93]
  [111 102  97]
  [114 105 100]]

 [[ 17  19   8]
  [ 17  17   5]
  [ 21  19   4]
  ...
  [104  97  91]
  [109 100  95]
  [115 106 101]]

 ...

 [[169 147 133]
  [172 153 138]
  [174 158 142]
  ...
  [146 138 117]
  [146 138 117]
  [146 138 117]]

 [[173 148 128]
  [170 148 127]
  [167 149 129]
  ...
  [147 139 118]
  [147 139 118]
  [147 139 118]]

 [[174 148 125]
  [171 147 123]
  [168 147 126]
  ...
  [147 139 118]
  [147 139 118]
  [147 139 118]]]","[[[ 58  71  79]
  [ 57  70  78]
  [ 57  70  78]
  ...
  [139 137 140]
  [139 137 140]
  [141 139 142]]

 [[ 57  70  78]
  [ 56  69  77]
  [ 56  69  77]
  ...
  [140 138 141]
  [139 137 140]
  [141 139 142]]

 [[ 58  71  77]
  [ 58  71  77]
  [ 58  71  77]
  ...
  [140 138 141]
  [139 137 140]
  [141 139 142]]

 ...

 [[ 53  64  66]
  [ 53  64  66]
  [ 53  64  66]
  ...
  [ 48  53  47]
  [ 47  52  46]
  [ 52  57  51]]

 [[ 53  65  65]
  [ 53  65  65]
  [ 53  65  65]
  ...
  [ 48  53  46]
  [ 49  54  47]
  [ 57  62  55]]

 [[ 53  65  65]
  [ 53  65  65]
  [ 53  65  65]
  ...
  [ 56  61  54]
  [ 55  60  53]
  [ 57  62  55]]]"
1726691757.109865,0.954882,-1.429447,1.795497,-2.414573,-1.292687,-0.428445,-0.206837,-0.522813,0.342302,-2.596973,0.025717,3.03523,5e-05,-2.3e-05,7.2e-05,0.000243,-6.6e-05,5.5e-05,81.25589,0.0,0.0,0.0,0.0,moving to grasp cardboard box,"[[[ 20  20   8]
  [ 19  17   4]
  [ 28  25   6]
  ...
  [113 106 100]
  [115 106 101]
  [115 106 101]]

 [[ 20  20   8]
  [ 16  17   3]
  [ 25  22   5]
  ...
  [106  99  93]
  [111 102  97]
  [114 105 100]]

 [[ 17  19   8]
  [ 17  17   5]
  [ 21  19   4]
  ...
  [104  97  91]
  [109 100  95]
  [115 106 101]]

 ...

 [[169 147 133]
  [172 153 138]
  [174 158 142]
  ...
  [146 138 117]
  [146 138 117]
  [146 138 117]]

 [[173 148 128]
  [170 148 127]
  [167 149 129]
  ...
  [147 139 118]
  [147 139 118]
  [147 139 118]]

 [[174 148 125]
  [171 147 123]
  [168 147 126]
  ...
  [147 139 118]
  [147 139 118]
  [147 139 118]]]","[[[ 58  71  79]
  [ 57  70  78]
  [ 57  70  78]
  ...
  [139 137 140]
  [139 137 140]
  [141 139 142]]

 [[ 57  70  78]
  [ 56  69  77]
  [ 56  69  77]
  ...
  [140 138 141]
  [139 137 140]
  [141 139 142]]

 [[ 58  71  77]
  [ 58  71  77]
  [ 58  71  77]
  ...
  [140 138 141]
  [139 137 140]
  [141 139 142]]

 ...

 [[ 53  64  66]
  [ 53  64  66]
  [ 53  64  66]
  ...
  [ 48  53  47]
  [ 47  52  46]
  [ 52  57  51]]

 [[ 53  65  65]
  [ 53  65  65]
  [ 53  65  65]
  ...
  [ 48  53  46]
  [ 49  54  47]
  [ 57  62  55]]

 [[ 53  65  65]
  [ 53  65  65]
  [ 53  65  65]
  ...
  [ 56  61  54]
  [ 55  60  53]
  [ 57  62  55]]]"
1726691757.205865,0.95487,-1.429459,1.795497,-2.414705,-1.292723,-0.428469,-0.206846,-0.52281,0.342324,-2.596862,0.025607,3.035225,5.9e-05,-2.6e-05,5e-05,0.000132,4.5e-05,6e-05,81.25589,0.0,0.0,0.0,0.0,moving to grasp cardboard box,"[[[ 20  20   8]
  [ 19  17   4]
  [ 28  25   6]
  ...
  [113 106 100]
  [115 106 101]
  [115 106 101]]

 [[ 20  20   8]
  [ 16  17   3]
  [ 25  22   5]
  ...
  [106  99  93]
  [111 102  97]
  [114 105 100]]

 [[ 17  19   8]
  [ 17  17   5]
  [ 21  19   4]
  ...
  [104  97  91]
  [109 100  95]
  [115 106 101]]

 ...

 [[169 147 133]
  [172 153 138]
  [174 158 142]
  ...
  [146 138 117]
  [146 138 117]
  [146 138 117]]

 [[173 148 128]
  [170 148 127]
  [167 149 129]
  ...
  [147 139 118]
  [147 139 118]
  [147 139 118]]

 [[174 148 125]
  [171 147 123]
  [168 147 126]
  ...
  [147 139 118]
  [147 139 118]
  [147 139 118]]]","[[[ 58  71  79]
  [ 57  70  78]
  [ 57  70  78]
  ...
  [139 137 140]
  [139 137 140]
  [141 139 142]]

 [[ 57  70  78]
  [ 56  69  77]
  [ 56  69  77]
  ...
  [140 138 141]
  [139 137 140]
  [141 139 142]]

 [[ 58  71  77]
  [ 58  71  77]
  [ 58  71  77]
  ...
  [140 138 141]
  [139 137 140]
  [141 139 142]]

 ...

 [[ 53  64  66]
  [ 53  64  66]
  [ 53  64  66]
  ...
  [ 48  53  47]
  [ 47  52  46]
  [ 52  57  51]]

 [[ 53  65  65]
  [ 53  65  65]
  [ 53  65  65]
  ...
  [ 48  53  46]
  [ 49  54  47]
  [ 57  62  55]]

 [[ 53  65  65]
  [ 53  65  65]
  [ 53  65  65]
  ...
  [ 56  61  54]
  [ 55  60  53]
  [ 57  62  55]]]"
1726691757.301864,0.954894,-1.429447,1.79551,-2.414729,-1.292735,-0.428409,-0.206836,-0.522816,0.342314,-2.596869,0.025628,3.035192,4.9e-05,-2e-05,6e-05,0.000139,2.3e-05,9.2e-05,81.25589,0.0,0.0,0.0,0.0,moving to grasp cardboard box,"[[[ 20  20   8]
  [ 19  17   4]
  [ 28  25   6]
  ...
  [113 106 100]
  [115 106 101]
  [115 106 101]]

 [[ 20  20   8]
  [ 16  17   3]
  [ 25  22   5]
  ...
  [106  99  93]
  [111 102  97]
  [114 105 100]]

 [[ 17  19   8]
  [ 17  17   5]
  [ 21  19   4]
  ...
  [104  97  91]
  [109 100  95]
  [115 106 101]]

 ...

 [[169 147 133]
  [172 153 138]
  [174 158 142]
  ...
  [146 138 117]
  [146 138 117]
  [146 138 117]]

 [[173 148 128]
  [170 148 127]
  [167 149 129]
  ...
  [147 139 118]
  [147 139 118]
  [147 139 118]]

 [[174 148 125]
  [171 147 123]
  [168 147 126]
  ...
  [147 139 118]
  [147 139 118]
  [147 139 118]]]","[[[ 58  71  79]
  [ 57  70  78]
  [ 57  70  78]
  ...
  [139 137 140]
  [139 137 140]
  [141 139 142]]

 [[ 57  70  78]
  [ 56  69  77]
  [ 56  69  77]
  ...
  [140 138 141]
  [139 137 140]
  [141 139 142]]

 [[ 58  71  77]
  [ 58  71  77]
  [ 58  71  77]
  ...
  [140 138 141]
  [139 137 140]
  [141 139 142]]

 ...

 [[ 53  64  66]
  [ 53  64  66]
  [ 53  64  66]
  ...
  [ 48  53  47]
  [ 47  52  46]
  [ 52  57  51]]

 [[ 53  65  65]
  [ 53  65  65]
  [ 53  65  65]
  ...
  [ 48  53  46]
  [ 49  54  47]
  [ 57  62  55]]

 [[ 53  65  65]
  [ 53  65  65]
  [ 53  65  65]
  ...
  [ 56  61  54]
  [ 55  60  53]
  [ 57  62  55]]]"
1726691757.397864,0.954942,-1.429495,1.795485,-2.414741,-1.292735,-0.428421,-0.206806,-0.522819,0.342354,-2.596795,0.02558,3.035252,1.9e-05,-1.7e-05,2e-05,6.5e-05,7.1e-05,3.3e-05,81.25589,0.0,0.0,0.0,0.0,moving to grasp cardboard box,"[[[ 20  20   8]
  [ 19  17   4]
  [ 28  25   6]
  ...
  [113 106 100]
  [115 106 101]
  [115 106 101]]

 [[ 20  20   8]
  [ 16  17   3]
  [ 25  22   5]
  ...
  [106  99  93]
  [111 102  97]
  [114 105 100]]

 [[ 17  19   8]
  [ 17  17   5]
  [ 21  19   4]
  ...
  [104  97  91]
  [109 100  95]
  [115 106 101]]

 ...

 [[169 147 133]
  [172 153 138]
  [174 158 142]
  ...
  [146 138 117]
  [146 138 117]
  [146 138 117]]

 [[173 148 128]
  [170 148 127]
  [167 149 129]
  ...
  [147 139 118]
  [147 139 118]
  [147 139 118]]

 [[174 148 125]
  [171 147 123]
  [168 147 126]
  ...
  [147 139 118]
  [147 139 118]
  [147 139 118]]]","[[[ 58  71  79]
  [ 57  70  78]
  [ 57  70  78]
  ...
  [139 137 140]
  [139 137 140]
  [141 139 142]]

 [[ 57  70  78]
  [ 56  69  77]
  [ 56  69  77]
  ...
  [140 138 141]
  [139 137 140]
  [141 139 142]]

 [[ 58  71  77]
  [ 58  71  77]
  [ 58  71  77]
  ...
  [140 138 141]
  [139 137 140]
  [141 139 142]]

 ...

 [[ 53  64  66]
  [ 53  64  66]
  [ 53  64  66]
  ...
  [ 48  53  47]
  [ 47  52  46]
  [ 52  57  51]]

 [[ 53  65  65]
  [ 53  65  65]
  [ 53  65  65]
  ...
  [ 48  53  46]
  [ 49  54  47]
  [ 57  62  55]]

 [[ 53  65  65]
  [ 53  65  65]
  [ 53  65  65]
  ...
  [ 56  61  54]
  [ 55  60  53]
  [ 57  62  55]]]"
1726691757.493864,0.954894,-1.429471,1.79551,-2.414754,-1.292711,-0.428433,-0.206831,-0.522812,0.342331,-2.596815,0.025611,3.035226,4.4e-05,-2.4e-05,4.3e-05,8.5e-05,4e-05,5.9e-05,81.25589,0.0,0.0,0.0,0.0,moving to grasp cardboard box,"[[[ 20  20   8]
  [ 19  17   4]
  [ 28  25   6]
  ...
  [113 106 100]
  [115 106 101]
  [115 106 101]]

 [[ 20  20   8]
  [ 16  17   3]
  [ 25  22   5]
  ...
  [106  99  93]
  [111 102  97]
  [114 105 100]]

 [[ 17  19   8]
  [ 17  17   5]
  [ 21  19   4]
  ...
  [104  97  91]
  [109 100  95]
  [115 106 101]]

 ...

 [[169 147 133]
  [172 153 138]
  [174 158 142]
  ...
  [146 138 117]
  [146 138 117]
  [146 138 117]]

 [[173 148 128]
  [170 148 127]
  [167 149 129]
  ...
  [147 139 118]
  [147 139 118]
  [147 139 118]]

 [[174 148 125]
  [171 147 123]
  [168 147 126]
  ...
  [147 139 118]
  [147 139 118]
  [147 139 118]]]","[[[ 58  70  68]
  [ 57  69  67]
  [ 57  68  70]
  ...
  [139 139 141]
  [139 139 141]
  [137 137 139]]

 [[ 59  71  69]
  [ 58  70  70]
  [ 58  69  71]
  ...
  [140 140 142]
  [140 140 142]
  [138 138 140]]

 [[ 60  72  72]
  [ 59  71  71]
  [ 59  70  72]
  ...
  [140 140 142]
  [140 140 142]
  [139 139 141]]

 ...

 [[ 53  64  68]
  [ 53  64  68]
  [ 54  65  67]
  ...
  [ 57  59  54]
  [ 54  56  51]
  [ 54  56  51]]

 [[ 53  64  68]
  [ 53  64  68]
  [ 52  66  67]
  ...
  [ 59  60  54]
  [ 57  58  52]
  [ 56  57  51]]

 [[ 52  63  67]
  [ 52  63  67]
  [ 51  65  66]
  ...
  [ 60  61  55]
  [ 59  60  54]
  [ 58  59  53]]]"
1726691757.589864,0.954894,-1.429495,1.795522,-2.414741,-1.292759,-0.428397,-0.206829,-0.522803,0.342336,-2.596837,0.025592,3.035172,4.2e-05,-3.3e-05,3.8e-05,0.000107,5.9e-05,0.000113,81.25589,0.0,0.0,0.0,0.0,moving to grasp cardboard box,"[[[ 23  21   9]
  [ 19  17   5]
  [ 25  21  12]
  ...
  [109 104  98]
  [111 106 100]
  [112 107 101]]

 [[ 18  16   4]
  [ 21  19   7]
  [ 23  19  10]
  ...
  [104  99  93]
  [108 103  97]
  [110 105  99]]

 [[ 15  13   1]
  [ 21  19   7]
  [ 21  17   8]
  ...
  [ 99  94  88]
  [104  99  93]
  [106 101  95]]

 ...

 [[162 149 132]
  [165 154 136]
  [169 158 140]
  ...
  [146 138 119]
  [146 138 119]
  [146 138 119]]

 [[165 150 131]
  [165 150 131]
  [165 150 131]
  ...
  [146 138 119]
  [146 138 119]
  [146 138 119]]

 [[167 150 130]
  [165 148 128]
  [165 150 131]
  ...
  [147 139 120]
  [146 138 119]
  [146 138 119]]]","[[[ 58  70  68]
  [ 57  69  67]
  [ 57  68  70]
  ...
  [139 139 141]
  [139 139 141]
  [137 137 139]]

 [[ 59  71  69]
  [ 58  70  70]
  [ 58  69  71]
  ...
  [140 140 142]
  [140 140 142]
  [138 138 140]]

 [[ 60  72  72]
  [ 59  71  71]
  [ 59  70  72]
  ...
  [140 140 142]
  [140 140 142]
  [139 139 141]]

 ...

 [[ 53  64  68]
  [ 53  64  68]
  [ 54  65  67]
  ...
  [ 57  59  54]
  [ 54  56  51]
  [ 54  56  51]]

 [[ 53  64  68]
  [ 53  64  68]
  [ 52  66  67]
  ...
  [ 59  60  54]
  [ 57  58  52]
  [ 56  57  51]]

 [[ 52  63  67]
  [ 52  63  67]
  [ 51  65  66]
  ...
  [ 60  61  55]
  [ 59  60  54]
  [ 58  59  53]]]"
1726691757.685864,0.954918,-1.429459,1.79551,-2.414754,-1.292723,-0.428397,-0.206821,-0.522819,0.342324,-2.596832,0.025627,3.035213,3.4e-05,-1.7e-05,5e-05,0.000102,2.5e-05,7.2e-05,81.25589,0.0,0.0,0.0,0.0,moving to grasp cardboard box,"[[[ 23  21   9]
  [ 19  17   5]
  [ 25  21  12]
  ...
  [109 104  98]
  [111 106 100]
  [112 107 101]]

 [[ 18  16   4]
  [ 21  19   7]
  [ 23  19  10]
  ...
  [104  99  93]
  [108 103  97]
  [110 105  99]]

 [[ 15  13   1]
  [ 21  19   7]
  [ 21  17   8]
  ...
  [ 99  94  88]
  [104  99  93]
  [106 101  95]]

 ...

 [[162 149 132]
  [165 154 136]
  [169 158 140]
  ...
  [146 138 119]
  [146 138 119]
  [146 138 119]]

 [[165 150 131]
  [165 150 131]
  [165 150 131]
  ...
  [146 138 119]
  [146 138 119]
  [146 138 119]]

 [[167 150 130]
  [165 148 128]
  [165 150 131]
  ...
  [147 139 120]
  [146 138 119]
  [146 138 119]]]","[[[ 58  70  68]
  [ 57  69  67]
  [ 57  68  70]
  ...
  [139 139 141]
  [139 139 141]
  [137 137 139]]

 [[ 59  71  69]
  [ 58  70  70]
  [ 58  69  71]
  ...
  [140 140 142]
  [140 140 142]
  [138 138 140]]

 [[ 60  72  72]
  [ 59  71  71]
  [ 59  70  72]
  ...
  [140 140 142]
  [140 140 142]
  [139 139 141]]

 ...

 [[ 53  64  68]
  [ 53  64  68]
  [ 54  65  67]
  ...
  [ 57  59  54]
  [ 54  56  51]
  [ 54  56  51]]

 [[ 53  64  68]
  [ 53  64  68]
  [ 52  66  67]
  ...
  [ 59  60  54]
  [ 57  58  52]
  [ 56  57  51]]

 [[ 52  63  67]
  [ 52  63  67]
  [ 51  65  66]
  ...
  [ 60  61  55]
  [ 59  60  54]
  [ 58  59  53]]]"
1726691757.781864,0.954942,-1.429495,1.795497,-2.414766,-1.292735,-0.428397,-0.206805,-0.522818,0.342351,-2.596785,0.025587,3.035232,1.8e-05,-1.8e-05,2.3e-05,5.5e-05,6.5e-05,5.2e-05,81.25589,0.0,0.0,0.0,0.0,moving to grasp cardboard box,"[[[ 23  21   9]
  [ 19  17   5]
  [ 25  21  12]
  ...
  [109 104  98]
  [111 106 100]
  [112 107 101]]

 [[ 18  16   4]
  [ 21  19   7]
  [ 23  19  10]
  ...
  [104  99  93]
  [108 103  97]
  [110 105  99]]

 [[ 15  13   1]
  [ 21  19   7]
  [ 21  17   8]
  ...
  [ 99  94  88]
  [104  99  93]
  [106 101  95]]

 ...

 [[162 149 132]
  [165 154 136]
  [169 158 140]
  ...
  [146 138 119]
  [146 138 119]
  [146 138 119]]

 [[165 150 131]
  [165 150 131]
  [165 150 131]
  ...
  [146 138 119]
  [146 138 119]
  [146 138 119]]

 [[167 150 130]
  [165 148 128]
  [165 150 131]
  ...
  [147 139 120]
  [146 138 119]
  [146 138 119]]]","[[[ 59  69  78]
  [ 60  70  79]
  [ 60  70  79]
  ...
  [137 135 138]
  [138 136 139]
  [141 139 142]]

 [[ 60  70  79]
  [ 60  70  79]
  [ 60  70  79]
  ...
  [138 136 139]
  [139 137 140]
  [140 138 141]]

 [[ 60  70  79]
  [ 60  70  79]
  [ 60  70  79]
  ...
  [140 138 141]
  [140 138 141]
  [140 138 141]]

 ...

 [[ 58  63  66]
  [ 54  62  64]
  [ 57  65  67]
  ...
  [ 52  55  46]
  [ 50  53  44]
  [ 52  55  46]]

 [[ 56  64  67]
  [ 54  62  65]
  [ 57  65  68]
  ...
  [ 55  61  51]
  [ 53  59  49]
  [ 53  59  49]]

 [[ 56  64  67]
  [ 55  63  66]
  [ 56  66  68]
  ...
  [ 58  64  54]
  [ 57  63  53]
  [ 55  61  51]]]"
1726691757.877864,0.954942,-1.429483,1.795497,-2.41479,-1.292723,-0.428385,-0.206807,-0.522821,0.342348,-2.596769,0.025598,3.035228,2e-05,-1.5e-05,2.6e-05,3.9e-05,5.3e-05,5.7e-05,81.25589,0.0,0.0,0.0,0.0,moving to grasp cardboard box,"[[[ 27  21   9]
  [ 22  16   4]
  [ 27  18   9]
  ...
  [109 102  96]
  [111 102  97]
  [113 104  99]]

 [[ 23  16   6]
  [ 22  15   5]
  [ 27  18   9]
  ...
  [105  98  92]
  [109 100  95]
  [113 104  99]]

 [[ 19  15   6]
  [ 20  16   7]
  [ 21  14   6]
  ...
  [101  96  92]
  [107  99  96]
  [112 104 101]]

 ...

 [[164 149 130]
  [168 152 136]
  [170 157 141]
  ...
  [146 138 115]
  [145 139 115]
  [145 139 115]]

 [[170 152 132]
  [169 151 131]
  [165 148 130]
  ...
  [145 137 114]
  [143 137 113]
  [143 137 113]]

 [[170 149 128]
  [166 148 126]
  [164 145 128]
  ...
  [146 138 115]
  [145 139 115]
  [145 139 115]]]","[[[ 60  71  73]
  [ 60  71  73]
  [ 60  71  73]
  ...
  [137 137 139]
  [138 138 140]
  [140 140 142]]

 [[ 60  71  73]
  [ 60  71  73]
  [ 60  71  73]
  ...
  [138 138 140]
  [138 138 140]
  [139 139 141]]

 [[ 60  71  73]
  [ 60  71  73]
  [ 60  71  73]
  ...
  [138 138 140]
  [138 138 140]
  [139 139 141]]

 ...

 [[ 54  66  64]
  [ 52  64  62]
  [ 53  65  63]
  ...
  [ 53  60  52]
  [ 47  54  46]
  [ 50  57  49]]

 [[ 52  64  62]
  [ 54  66  64]
  [ 54  66  64]
  ...
  [ 56  64  53]
  [ 49  59  48]
  [ 50  60  49]]

 [[ 51  63  61]
  [ 55  67  65]
  [ 57  69  67]
  ...
  [ 60  68  57]
  [ 54  64  53]
  [ 55  65  54]]]"
1726691757.973864,0.954918,-1.429435,1.79551,-2.414825,-1.292723,-0.428397,-0.206825,-0.522826,0.34232,-2.59679,0.025603,3.035214,3.8e-05,-1e-05,5.4e-05,6e-05,4.8e-05,7.1e-05,81.25589,0.0,0.0,0.0,0.0,moving to grasp cardboard box,"[[[ 18  17  15]
  [ 19  18  14]
  [ 25  20  17]
  ...
  [113 102  98]
  [115 105 104]
  [115 105 104]]

 [[ 17  16  14]
  [ 18  17  13]
  [ 23  20  15]
  ...
  [106  95  91]
  [111 101  99]
  [115 105 104]]

 [[ 17  16  12]
  [ 17  16  12]
  [ 22  19  14]
  ...
  [102  93  88]
  [108  98  96]
  [113 103 101]]

 ...

 [[167 150 130]
  [165 150 129]
  [170 157 138]
  ...
  [146 138 119]
  [144 136 117]
  [144 136 117]]

 [[168 151 125]
  [165 147 123]
  [165 149 126]
  ...
  [146 138 119]
  [145 137 118]
  [146 138 119]]

 [[168 148 121]
  [168 148 121]
  [168 150 126]
  ...
  [145 137 118]
  [143 135 116]
  [145 137 118]]]","[[[ 60  71  73]
  [ 59  70  72]
  [ 59  70  72]
  ...
  [142 136 140]
  [142 136 140]
  [143 137 141]]

 [[ 60  71  73]
  [ 60  71  73]
  [ 60  71  73]
  ...
  [142 136 140]
  [142 136 140]
  [143 137 141]]

 [[ 59  70  72]
  [ 60  71  73]
  [ 60  71  73]
  ...
  [141 136 140]
  [141 136 140]
  [142 137 141]]

 ...

 [[ 54  66  66]
  [ 55  67  67]
  [ 55  67  67]
  ...
  [ 52  57  53]
  [ 47  53  49]
  [ 47  53  49]]

 [[ 54  66  66]
  [ 54  66  66]
  [ 55  67  67]
  ...
  [ 54  59  55]
  [ 52  58  54]
  [ 54  60  56]]

 [[ 53  65  65]
  [ 52  64  64]
  [ 53  65  65]
  ...
  [ 54  59  55]
  [ 53  59  55]
  [ 54  60  56]]]"
1726691758.069864,0.954954,-1.429483,1.795557,-2.41479,-1.292699,-0.428409,-0.206793,-0.522817,0.342319,-2.596811,0.025633,3.03527,6e-06,-1.9e-05,5.5e-05,8.1e-05,1.9e-05,1.4e-05,81.25589,0.0,0.0,0.0,0.0,moving to grasp cardboard box,"[[[ 22  17  11]
  [ 22  18   9]
  [ 28  21  13]
  ...
  [110 102  99]
  [114 103 101]
  [116 105 103]]

 [[ 24  19  13]
  [ 20  16   7]
  [ 26  19   9]
  ...
  [105  97  94]
  [110 100  98]
  [114 103 101]]

 [[ 22  19  10]
  [ 18  15   6]
  [ 21  17   6]
  ...
  [102  94  91]
  [107  97  95]
  [111 101  99]]

 ...

 [[165 149 124]
  [164 150 124]
  [169 154 133]
  ...
  [146 138 117]
  [146 138 119]
  [146 138 119]]

 [[171 150 121]
  [169 149 122]
  [167 149 125]
  ...
  [146 138 115]
  [146 138 117]
  [146 138 117]]

 [[171 148 117]
  [169 148 119]
  [170 148 124]
  ...
  [146 138 115]
  [146 138 117]
  [147 139 118]]]","[[[ 57  68  74]
  [ 59  70  76]
  [ 61  71  80]
  ...
  [140 138 141]
  [141 139 142]
  [143 141 144]]

 [[ 60  71  77]
  [ 60  71  77]
  [ 60  70  79]
  ...
  [140 138 141]
  [141 139 142]
  [142 140 143]]

 [[ 61  72  78]
  [ 60  71  77]
  [ 58  69  75]
  ...
  [139 137 140]
  [140 138 141]
  [140 138 141]]

 ...

 [[ 57  65  67]
  [ 57  65  67]
  [ 57  65  67]
  ...
  [ 55  54  49]
  [ 56  53  48]
  [ 59  56  51]]

 [[ 58  67  66]
  [ 57  66  65]
  [ 57  65  67]
  ...
  [ 57  57  49]
  [ 59  56  49]
  [ 58  55  48]]

 [[ 58  67  66]
  [ 57  66  65]
  [ 57  65  67]
  ...
  [ 60  60  52]
  [ 61  58  51]
  [ 58  55  48]]]"
1726691758.165864,0.954918,-1.429483,1.79551,-2.414813,-1.292735,-0.428349,-0.206819,-0.522815,0.342344,-2.596765,0.025601,3.035168,3.2e-05,-2.1e-05,3e-05,3.5e-05,5e-05,0.000117,81.25589,0.0,0.0,0.0,0.0,moving to grasp cardboard box,"[[[ 19  18  16]
  [ 22  21  17]
  [ 25  22  17]
  ...
  [107 102  98]
  [109 104 100]
  [111 106 102]]

 [[ 16  15  13]
  [ 19  18  14]
  [ 23  20  15]
  ...
  [103  98  92]
  [107 102  98]
  [110 105  99]]

 [[ 19  18  16]
  [ 19  18  14]
  [ 22  19  14]
  ...
  [102  98  89]
  [106 101  95]
  [108 104  95]]

 ...

 [[164 149 126]
  [166 154 132]
  [169 158 136]
  ...
  [145 137 116]
  [145 137 118]
  [146 138 119]]

 [[166 148 124]
  [164 148 123]
  [163 148 125]
  ...
  [145 137 118]
  [145 136 119]
  [146 137 120]]

 [[167 147 122]
  [165 148 122]
  [165 149 126]
  ...
  [144 136 117]
  [144 135 118]
  [145 136 119]]]","[[[ 61  69  71]
  [ 59  67  69]
  [ 59  67  70]
  ...
  [136 136 138]
  [138 138 140]
  [140 140 142]]

 [[ 61  69  71]
  [ 59  67  69]
  [ 59  67  70]
  ...
  [136 136 138]
  [138 138 140]
  [140 140 142]]

 [[ 62  70  73]
  [ 61  69  72]
  [ 60  68  71]
  ...
  [136 136 138]
  [138 138 140]
  [140 140 142]]

 ...

 [[ 56  64  67]
  [ 56  64  67]
  [ 56  64  67]
  ...
  [ 52  54  49]
  [ 52  54  49]
  [ 52  54  49]]

 [[ 56  64  67]
  [ 56  64  67]
  [ 57  65  68]
  ...
  [ 57  58  52]
  [ 56  58  53]
  [ 54  56  51]]

 [[ 56  64  67]
  [ 55  63  66]
  [ 56  64  67]
  ...
  [ 61  62  56]
  [ 59  61  56]
  [ 56  58  53]]]"
1726691758.261864,0.95493,-1.429459,1.79551,-2.41479,-1.292723,-0.428373,-0.206815,-0.522822,0.342328,-2.596801,0.025622,3.035205,2.8e-05,-1.4e-05,4.6e-05,7.1e-05,3e-05,8e-05,81.25589,0.0,0.0,0.0,0.0,moving to grasp cardboard box,"[[[ 23  20   1]
  [ 20  17   0]
  [ 28  21   3]
  ...
  [108 104  93]
  [111 107  96]
  [114 110  99]]

 [[ 23  20   3]
  [ 22  19   2]
  [ 26  20   4]
  ...
  [104 100  89]
  [108 104  93]
  [112 108  97]]

 [[ 19  17   2]
  [ 22  19   4]
  [ 23  20   5]
  ...
  [100  96  85]
  [105 101  90]
  [108 104  93]]

 ...

 [[166 149 129]
  [168 151 131]
  [172 157 138]
  ...
  [147 139 118]
  [150 137 118]
  [149 136 117]]

 [[169 149 125]
  [168 148 124]
  [167 149 127]
  ...
  [147 139 118]
  [149 136 117]
  [148 135 116]]

 [[170 148 124]
  [168 148 123]
  [168 147 126]
  ...
  [145 137 116]
  [149 136 117]
  [148 135 116]]]","[[[ 55  68  77]
  [ 55  68  77]
  [ 56  69  78]
  ...
  [138 136 139]
  [139 137 140]
  [140 138 141]]

 [[ 54  67  76]
  [ 55  68  77]
  [ 55  68  77]
  ...
  [139 137 140]
  [140 138 141]
  [140 138 141]]

 [[ 57  70  79]
  [ 57  70  79]
  [ 57  70  79]
  ...
  [139 137 140]
  [139 137 140]
  [140 138 141]]

 ...

 [[ 58  65  71]
  [ 57  64  70]
  [ 57  64  70]
  ...
  [ 51  53  50]
  [ 51  53  50]
  [ 52  54  51]]

 [[ 56  63  71]
  [ 55  62  70]
  [ 54  61  67]
  ...
  [ 56  56  56]
  [ 55  55  55]
  [ 54  54  54]]

 [[ 60  67  75]
  [ 59  66  74]
  [ 58  65  71]
  ...
  [ 61  61  61]
  [ 59  59  61]
  [ 57  57  59]]]"
1726691758.357864,0.95493,-1.429411,1.795557,-2.414801,-1.292711,-0.428385,-0.206817,-0.522826,0.342281,-2.596869,0.025666,3.035219,3e-05,-1e-05,9.3e-05,0.000139,-1.4e-05,6.6e-05,81.25589,0.0,0.0,0.0,0.0,moving to grasp cardboard box,"[[[ 18  13  10]
  [ 23  18  14]
  [ 26  18  15]
  ...
  [108 103  97]
  [111 106 100]
  [115 110 104]]

 [[ 19  14  11]
  [ 21  16  12]
  [ 25  17  14]
  ...
  [102  97  91]
  [106 101  95]
  [110 105  99]]

 [[ 19  15  12]
  [ 18  15  10]
  [ 21  16  12]
  ...
  [100  95  89]
  [104  99  93]
  [109 104  98]]

 ...

 [[167 149 125]
  [169 153 128]
  [172 157 134]
  ...
  [149 138 120]
  [148 137 119]
  [148 137 119]]

 [[167 148 118]
  [168 148 121]
  [167 150 124]
  ...
  [149 138 120]
  [149 138 120]
  [147 136 118]]

 [[168 147 116]
  [169 150 118]
  [170 150 123]
  ...
  [149 138 120]
  [149 138 120]
  [147 136 118]]]","[[[ 63  71  73]
  [ 62  70  72]
  [ 62  70  72]
  ...
  [137 137 139]
  [139 139 141]
  [141 141 143]]

 [[ 61  69  72]
  [ 60  68  70]
  [ 60  68  71]
  ...
  [138 138 140]
  [139 139 141]
  [141 141 143]]

 [[ 62  69  75]
  [ 60  68  71]
  [ 60  67  73]
  ...
  [139 139 141]
  [140 140 142]
  [140 140 142]]

 ...

 [[ 51  65  66]
  [ 50  64  65]
  [ 51  65  66]
  ...
  [ 54  56  51]
  [ 55  57  54]
  [ 57  59  56]]

 [[ 51  67  67]
  [ 50  66  66]
  [ 50  66  66]
  ...
  [ 55  57  54]
  [ 53  57  56]
  [ 54  58  57]]

 [[ 48  64  64]
  [ 46  62  62]
  [ 47  63  63]
  ...
  [ 57  59  56]
  [ 54  58  57]
  [ 55  59  58]]]"
1726691758.453864,0.954918,-1.429471,1.795522,-2.414813,-1.292711,-0.428361,-0.206818,-0.522817,0.342332,-2.596775,0.025626,3.035189,3.1e-05,-1.9e-05,4.2e-05,4.5e-05,2.6e-05,9.6e-05,81.25589,0.0,0.0,0.0,0.0,moving to grasp cardboard box,"[[[ 14  16  11]
  [ 17  20  13]
  [ 19  18  13]
  ...
  [105 105  97]
  [106 107  99]
  [109 110 102]]

 [[ 14  16  11]
  [ 15  18  11]
  [ 19  20  14]
  ...
  [100 100  92]
  [103 104  96]
  [107 108 100]]

 [[ 14  16  11]
  [ 14  17  10]
  [ 21  22  16]
  ...
  [ 99  99  91]
  [103 103  95]
  [107 107  99]]

 ...

 [[168 150 130]
  [169 150 133]
  [170 153 137]
  ...
  [149 137 115]
  [149 136 117]
  [150 137 118]]

 [[172 150 129]
  [170 148 127]
  [166 145 128]
  ...
  [148 136 114]
  [151 136 117]
  [151 136 117]]

 [[171 146 124]
  [170 148 127]
  [169 146 128]
  ...
  [147 135 113]
  [150 135 116]
  [150 135 116]]]","[[[ 62  72  81]
  [ 60  70  79]
  [ 59  70  76]
  ...
  [138 138 140]
  [139 139 141]
  [137 137 139]]

 [[ 61  71  80]
  [ 60  70  79]
  [ 59  70  76]
  ...
  [137 137 139]
  [138 138 140]
  [136 136 138]]

 [[ 60  70  79]
  [ 60  70  79]
  [ 60  71  77]
  ...
  [138 138 140]
  [139 139 141]
  [137 137 139]]

 ...

 [[ 52  65  73]
  [ 50  63  69]
  [ 53  64  70]
  ...
  [ 52  53  47]
  [ 51  52  46]
  [ 55  56  50]]

 [[ 51  64  72]
  [ 51  64  70]
  [ 54  65  71]
  ...
  [ 57  58  52]
  [ 54  55  49]
  [ 55  56  50]]

 [[ 50  63  71]
  [ 51  64  70]
  [ 53  64  70]
  ...
  [ 63  64  58]
  [ 59  60  54]
  [ 58  59  53]]]"
1726691758.549864,0.954966,-1.429435,1.795462,-2.414825,-1.292723,-0.428349,-0.206805,-0.522842,0.342343,-2.596749,0.025605,3.035222,1.8e-05,6e-06,3.1e-05,1.9e-05,4.6e-05,6.3e-05,81.25589,0.0,0.0,0.0,0.0,moving to grasp cardboard box,"[[[ 19  20   2]
  [ 21  22   4]
  [ 28  25   6]
  ...
  [109 104 100]
  [110 105 101]
  [112 107 103]]

 [[ 20  21   5]
  [ 19  20   2]
  [ 23  20   3]
  ...
  [101  96  92]
  [105 100  96]
  [109 104 100]]

 [[ 19  20   6]
  [ 18  19   5]
  [ 21  17   5]
  ...
  [ 98  93  89]
  [104  99  95]
  [110 105 101]]

 ...

 [[164 148 132]
  [164 151 134]
  [169 156 140]
  ...
  [146 138 117]
  [146 138 117]
  [147 139 118]]

 [[166 149 129]
  [164 147 127]
  [165 148 130]
  ...
  [147 139 118]
  [148 140 119]
  [149 141 120]]

 [[165 147 125]
  [163 145 123]
  [164 147 129]
  ...
  [147 139 118]
  [148 140 119]
  [149 141 120]]]","[[[ 55  72  80]
  [ 54  71  79]
  [ 54  71  79]
  ...
  [140 138 141]
  [141 139 142]
  [139 137 140]]

 [[ 53  70  78]
  [ 52  69  77]
  [ 52  69  77]
  ...
  [140 138 141]
  [141 139 142]
  [139 137 140]]

 [[ 55  70  77]
  [ 54  69  76]
  [ 54  69  76]
  ...
  [140 138 141]
  [140 138 141]
  [140 138 141]]

 ...

 [[ 56  64  67]
  [ 55  63  66]
  [ 55  63  66]
  ...
  [ 52  58  56]
  [ 50  56  54]
  [ 49  55  53]]

 [[ 55  63  66]
  [ 55  63  66]
  [ 56  64  67]
  ...
  [ 54  60  58]
  [ 52  58  56]
  [ 49  55  53]]

 [[ 55  63  66]
  [ 55  63  66]
  [ 56  64  67]
  ...
  [ 54  60  58]
  [ 54  60  58]
  [ 53  59  57]]]"
1726691758.645864,0.954942,-1.429447,1.795485,-2.41479,-1.292723,-0.428349,-0.206813,-0.522831,0.342334,-2.596791,0.025628,3.035197,2.6e-05,-5e-06,4e-05,6.1e-05,2.3e-05,8.8e-05,81.25589,0.0,0.0,0.0,0.0,moving to grasp cardboard box,"[[[ 12  18   8]
  [ 18  21  12]
  [ 22  24  13]
  ...
  [109 105  96]
  [112 108  99]
  [113 109 100]]

 [[ 13  19   9]
  [ 15  18   7]
  [ 20  22  11]
  ...
  [105 101  92]
  [107 103  94]
  [109 105  96]]

 [[ 16  19   8]
  [ 14  17   6]
  [ 18  20   9]
  ...
  [101  96  90]
  [103  98  92]
  [105 100  94]]

 ...

 [[169 155 126]
  [167 153 126]
  [168 156 132]
  ...
  [146 138 117]
  [146 138 117]
  [146 138 117]]

 [[170 152 114]
  [167 151 117]
  [167 152 121]
  ...
  [146 138 117]
  [147 139 118]
  [148 140 119]]

 [[167 148 106]
  [169 151 111]
  [171 152 120]
  ...
  [144 136 115]
  [146 138 117]
  [148 140 119]]]","[[[ 59  70  72]
  [ 59  70  72]
  [ 59  70  72]
  ...
  [137 137 139]
  [138 138 140]
  [139 139 141]]

 [[ 60  71  73]
  [ 60  71  73]
  [ 59  70  72]
  ...
  [138 138 140]
  [138 138 140]
  [139 139 141]]

 [[ 59  70  72]
  [ 59  70  72]
  [ 59  70  72]
  ...
  [138 138 140]
  [138 138 140]
  [138 138 140]]

 ...

 [[ 52  64  64]
  [ 53  65  65]
  [ 54  66  66]
  ...
  [ 50  55  49]
  [ 52  57  51]
  [ 48  55  48]]

 [[ 53  65  65]
  [ 53  65  65]
  [ 53  65  65]
  ...
  [ 51  56  49]
  [ 50  55  48]
  [ 51  56  49]]

 [[ 54  66  66]
  [ 54  66  66]
  [ 53  65  65]
  ...
  [ 56  59  52]
  [ 51  56  49]
  [ 56  61  54]]]"
1726691758.741864,0.95493,-1.429435,1.79551,-2.414801,-1.292735,-0.428397,-0.20682,-0.522827,0.342316,-2.596816,0.025605,3.03522,3.3e-05,-9e-06,5.8e-05,8.6e-05,4.6e-05,6.5e-05,81.25589,0.0,0.0,0.0,0.0,moving to grasp cardboard box,"[[[ 20  19  14]
  [ 16  16   8]
  [ 26  24  12]
  ...
  [111 104  98]
  [115 106  99]
  [118 109 102]]

 [[ 19  18  13]
  [ 16  16   8]
  [ 23  21   9]
  ...
  [105  98  92]
  [111 102  95]
  [115 106  99]]

 [[ 17  16  11]
  [ 17  17   9]
  [ 20  20   8]
  ...
  [103  96  90]
  [108  99  92]
  [113 104  97]]

 ...

 [[164 149 128]
  [163 151 129]
  [168 155 136]
  ...
  [144 138 114]
  [145 139 113]
  [145 139 113]]

 [[168 152 127]
  [167 151 128]
  [166 149 129]
  ...
  [142 138 113]
  [144 140 113]
  [145 141 114]]

 [[168 151 125]
  [168 150 126]
  [167 151 128]
  ...
  [141 137 112]
  [144 140 113]
  [146 142 115]]]","[[[ 57  70  79]
  [ 57  70  79]
  [ 57  70  79]
  ...
  [138 139 141]
  [137 138 140]
  [136 137 139]]

 [[ 56  69  78]
  [ 56  69  77]
  [ 57  70  79]
  ...
  [138 139 141]
  [137 138 140]
  [136 137 139]]

 [[ 56  69  77]
  [ 56  69  75]
  [ 57  70  78]
  ...
  [138 138 140]
  [138 138 140]
  [137 137 139]]

 ...

 [[ 52  64  64]
  [ 54  66  66]
  [ 55  67  67]
  ...
  [ 50  55  49]
  [ 51  56  49]
  [ 51  56  49]]

 [[ 52  64  64]
  [ 53  65  65]
  [ 54  66  66]
  ...
  [ 53  58  52]
  [ 54  59  52]
  [ 55  60  53]]

 [[ 54  66  66]
  [ 53  65  65]
  [ 53  65  65]
  ...
  [ 55  60  54]
  [ 54  59  52]
  [ 55  60  53]]]"
1726691758.837864,0.954942,-1.429411,1.795497,-2.41485,-1.292723,-0.428349,-0.206818,-0.522838,0.342316,-2.59678,0.025622,3.035197,3.1e-05,2e-06,5.8e-05,5e-05,2.9e-05,8.7e-05,81.25589,0.0,0.0,0.0,0.0,moving to grasp cardboard box,"[[[ 16  18   4]
  [ 19  20   6]
  [ 24  22   7]
  ...
  [113 102  98]
  [116 102  99]
  [117 103 100]]

 [[ 16  18   5]
  [ 17  19   5]
  [ 24  22   9]
  ...
  [108  97  93]
  [113  99  96]
  [117 103 100]]

 [[ 15  18   7]
  [ 16  18   7]
  [ 21  21  11]
  ...
  [103  94  89]
  [108  97  93]
  [112 101  97]]

 ...

 [[167 149 125]
  [168 152 129]
  [173 156 136]
  ...
  [146 138 117]
  [147 139 118]
  [148 140 119]]

 [[172 150 126]
  [171 151 126]
  [170 150 126]
  ...
  [146 138 117]
  [147 139 118]
  [148 140 119]]

 [[171 147 121]
  [169 148 121]
  [170 148 125]
  ...
  [146 138 117]
  [147 139 118]
  [148 140 119]]]","[[[ 60  71  73]
  [ 58  69  71]
  [ 58  69  71]
  ...
  [137 136 141]
  [139 138 144]
  [143 142 148]]

 [[ 60  71  73]
  [ 58  69  71]
  [ 57  68  70]
  ...
  [138 137 142]
  [140 139 145]
  [143 142 148]]

 [[ 61  72  74]
  [ 59  70  72]
  [ 58  69  73]
  ...
  [138 137 142]
  [139 138 143]
  [141 140 145]]

 ...

 [[ 55  63  65]
  [ 55  63  65]
  [ 56  64  66]
  ...
  [ 51  51  43]
  [ 54  51  46]
  [ 58  55  50]]

 [[ 55  63  65]
  [ 55  63  65]
  [ 56  64  66]
  ...
  [ 55  55  47]
  [ 57  54  47]
  [ 60  55  49]]

 [[ 55  63  65]
  [ 55  63  65]
  [ 56  64  66]
  ...
  [ 59  59  51]
  [ 63  58  52]
  [ 63  58  52]]]"
1726691776.166624,0.954942,-1.429411,1.795497,-2.41485,-1.292723,-0.428349,-0.206818,-0.522838,0.342316,-2.59678,0.025622,3.035197,0.0,0.0,0.0,0.0,0.0,0.0,81.25589,-1.50016,0.109971,3.924,0.1,grasping cardboard box,"[[[ 81  70  64]
  [ 81  70  64]
  [ 82  71  65]
  ...
  [112 103  94]
  [114 105  96]
  [118 109 100]]

 [[ 82  71  65]
  [ 83  72  66]
  [ 83  72  66]
  ...
  [107  98  89]
  [109 100  91]
  [113 104  95]]

 [[ 80  71  64]
  [ 82  73  66]
  [ 82  73  68]
  ...
  [104  95  86]
  [106  97  88]
  [110 101  92]]

 ...

 [[167 146 129]
  [167 148 133]
  [173 156 140]
  ...
  [146 138 117]
  [145 139 117]
  [145 139 117]]

 [[171 144 123]
  [168 143 121]
  [167 146 127]
  ...
  [146 138 117]
  [146 140 118]
  [144 138 116]]

 [[173 145 121]
  [170 144 121]
  [170 148 125]
  ...
  [147 139 118]
  [146 140 118]
  [144 138 116]]]","[[[ 58  69  75]
  [ 59  70  76]
  [ 59  69  78]
  ...
  [143 143 143]
  [139 139 139]
  [141 141 141]]

 [[ 60  71  77]
  [ 59  70  76]
  [ 59  69  78]
  ...
  [141 141 141]
  [141 141 141]
  [142 142 142]]

 [[ 60  70  79]
  [ 60  70  79]
  [ 59  69  78]
  ...
  [140 140 140]
  [142 142 142]
  [142 142 142]]

 ...

 [[ 51  62  64]
  [ 54  65  67]
  [ 54  65  67]
  ...
  [ 52  57  51]
  [ 51  56  50]
  [ 54  59  53]]

 [[ 51  65  66]
  [ 52  66  67]
  [ 52  66  67]
  ...
  [ 54  59  55]
  [ 54  59  55]
  [ 52  57  53]]

 [[ 48  62  63]
  [ 49  63  64]
  [ 50  64  65]
  ...
  [ 58  63  59]
  [ 59  64  60]
  [ 55  60  56]]]"
1726691776.359324,0.954942,-1.429411,1.795497,-2.41485,-1.292723,-0.428349,-0.206818,-0.522838,0.342316,-2.59678,0.025622,3.035197,0.0,0.0,0.0,0.0,0.0,0.0,79.75573,-2.450904,0.22185,4.024,0.1,grasping cardboard box,"[[[ 84  74  64]
  [ 84  74  64]
  [ 82  73  66]
  ...
  [106 100 100]
  [109 103 103]
  [111 105 105]]

 [[ 82  72  62]
  [ 82  74  63]
  [ 82  73  66]
  ...
  [102  96  96]
  [107 101 101]
  [111 105 105]]

 [[ 80  72  61]
  [ 81  73  62]
  [ 82  73  66]
  ...
  [100  95  92]
  [104 100  97]
  [108 104 101]]

 ...

 [[166 149 131]
  [165 150 131]
  [169 153 137]
  ...
  [148 140 119]
  [147 139 118]
  [145 137 116]]

 [[171 149 125]
  [169 147 124]
  [166 148 126]
  ...
  [146 138 117]
  [145 137 116]
  [145 137 116]]

 [[172 146 119]
  [173 149 123]
  [171 149 125]
  ...
  [144 136 115]
  [144 136 115]
  [146 138 117]]]","[[[ 62  72  81]
  [ 60  70  79]
  [ 60  70  79]
  ...
  [144 142 145]
  [145 143 146]
  [144 142 145]]

 [[ 60  70  79]
  [ 60  70  79]
  [ 61  71  80]
  ...
  [143 141 144]
  [143 141 144]
  [143 141 144]]

 [[ 60  70  79]
  [ 62  72  81]
  [ 63  74  80]
  ...
  [142 140 143]
  [142 140 143]
  [143 141 144]]

 ...

 [[ 55  68  76]
  [ 55  68  76]
  [ 54  67  75]
  ...
  [ 53  55  50]
  [ 53  55  50]
  [ 56  58  53]]

 [[ 54  67  76]
  [ 54  67  75]
  [ 54  67  75]
  ...
  [ 58  61  54]
  [ 57  60  53]
  [ 56  59  52]]

 [[ 53  66  75]
  [ 54  67  76]
  [ 54  67  75]
  ...
  [ 62  65  58]
  [ 60  63  56]
  [ 56  59  52]]]"
1726691776.568465,0.954942,-1.429411,1.795497,-2.41485,-1.292723,-0.428349,-0.206818,-0.522838,0.342316,-2.59678,0.025622,3.035197,0.0,0.0,0.0,0.0,0.0,0.0,77.304826,-2.12931,0.09694,4.124,0.0,grasping cardboard box,"[[[ 82  75  67]
  [ 80  73  65]
  [ 81  71  69]
  ...
  [111 103 100]
  [113 103 101]
  [113 103 101]]

 [[ 81  74  66]
  [ 80  73  67]
  [ 81  71  69]
  ...
  [106  98  95]
  [110 100  98]
  [113 103 101]]

 [[ 80  71  66]
  [ 79  70  65]
  [ 79  69  67]
  ...
  [103  95  92]
  [108  98  96]
  [113 103 101]]

 ...

 [[170 145 123]
  [170 148 127]
  [173 152 133]
  ...
  [148 140 119]
  [148 140 119]
  [146 138 117]]

 [[176 145 124]
  [175 147 125]
  [174 147 128]
  ...
  [147 139 118]
  [147 139 118]
  [145 137 116]]

 [[176 141 119]
  [176 144 123]
  [175 147 126]
  ...
  [146 138 117]
  [146 138 117]
  [144 136 115]]]","[[[ 64  71  77]
  [ 62  69  75]
  [ 61  69  72]
  ...
  [142 142 144]
  [140 140 142]
  [142 142 144]]

 [[ 63  70  76]
  [ 61  68  74]
  [ 60  68  71]
  ...
  [142 142 144]
  [141 141 143]
  [143 143 145]]

 [[ 63  68  72]
  [ 62  67  71]
  [ 60  68  71]
  ...
  [142 142 144]
  [141 141 143]
  [142 142 144]]

 ...

 [[ 56  67  73]
  [ 56  67  73]
  [ 56  67  73]
  ...
  [ 49  54  50]
  [ 50  55  51]
  [ 51  56  52]]

 [[ 56  67  71]
  [ 55  66  70]
  [ 55  66  72]
  ...
  [ 55  60  56]
  [ 56  61  57]
  [ 55  60  56]]

 [[ 55  66  70]
  [ 54  65  69]
  [ 54  65  71]
  ...
  [ 58  63  59]
  [ 59  64  60]
  [ 56  61  57]]]"
1726691776.747908,0.954942,-1.429411,1.795497,-2.41485,-1.292723,-0.428349,-0.206818,-0.522838,0.342316,-2.59678,0.025622,3.035197,0.0,0.0,0.0,0.0,0.0,0.0,75.175516,-1.960383,0.142797,4.124,0.1,grasping cardboard box,"[[[ 76  69  61]
  [ 80  73  65]
  [ 84  75  68]
  ...
  [108 105  98]
  [110 107 102]
  [112 109 104]]

 [[ 77  70  62]
  [ 79  72  64]
  [ 82  73  66]
  ...
  [103 100  93]
  [106 103  98]
  [109 106 101]]

 [[ 78  69  62]
  [ 78  69  62]
  [ 79  70  63]
  ...
  [ 99  94  88]
  [101  98  91]
  [105 102  95]]

 ...

 [[168 146 132]
  [169 150 135]
  [172 154 140]
  ...
  [146 138 119]
  [146 137 120]
  [146 137 120]]

 [[171 148 130]
  [168 145 127]
  [166 145 128]
  ...
  [145 136 119]
  [145 136 121]
  [148 139 124]]

 [[173 148 128]
  [169 147 126]
  [169 146 128]
  ...
  [144 135 118]
  [146 137 122]
  [149 140 125]]]","[[[ 64  74  84]
  [ 61  71  81]
  [ 60  70  79]
  ...
  [147 147 149]
  [148 148 150]
  [147 147 149]]

 [[ 63  73  83]
  [ 62  72  82]
  [ 62  72  81]
  ...
  [147 147 149]
  [147 147 149]
  [146 146 148]]

 [[ 59  69  79]
  [ 60  70  80]
  [ 61  71  80]
  ...
  [146 146 148]
  [145 145 147]
  [144 144 146]]

 ...

 [[ 53  71  73]
  [ 52  70  72]
  [ 53  69  69]
  ...
  [ 55  60  56]
  [ 51  57  53]
  [ 52  58  54]]

 [[ 52  72  73]
  [ 52  70  72]
  [ 53  69  69]
  ...
  [ 57  63  59]
  [ 58  64  60]
  [ 58  64  60]]

 [[ 50  70  71]
  [ 51  71  72]
  [ 55  71  71]
  ...
  [ 58  64  60]
  [ 59  65  61]
  [ 56  62  58]]]"
1726691776.962092,0.954942,-1.429411,1.795497,-2.41485,-1.292723,-0.428349,-0.206818,-0.522838,0.342316,-2.59678,0.025622,3.035197,0.0,0.0,0.0,0.0,0.0,0.0,73.215133,-1.996082,0.131795,4.224,0.1,grasping cardboard box,"[[[ 85  72  56]
  [ 82  70  54]
  [ 82  70  56]
  ...
  [108 104  93]
  [114 107 101]
  [116 109 103]]

 [[ 85  72  56]
  [ 82  70  54]
  [ 79  70  55]
  ...
  [100  96  87]
  [107 100  92]
  [110 103  97]]

 [[ 84  72  58]
  [ 80  71  56]
  [ 79  69  57]
  ...
  [ 98  94  85]
  [105  98  90]
  [107 100  92]]

 ...

 [[168 145 127]
  [171 150 131]
  [172 153 136]
  ...
  [149 138 118]
  [147 136 116]
  [146 135 115]]

 [[172 143 125]
  [173 146 127]
  [170 147 129]
  ...
  [149 138 118]
  [148 137 117]
  [147 136 116]]

 [[176 145 125]
  [173 145 124]
  [172 145 126]
  ...
  [148 137 117]
  [148 137 117]
  [149 138 118]]]","[[[ 55  72  79]
  [ 57  74  81]
  [ 59  74  81]
  ...
  [145 145 147]
  [142 142 144]
  [145 145 147]]

 [[ 54  71  78]
  [ 56  73  80]
  [ 57  72  79]
  ...
  [145 145 147]
  [143 143 145]
  [146 146 148]]

 [[ 56  71  76]
  [ 57  72  77]
  [ 56  71  76]
  ...
  [144 144 146]
  [143 143 145]
  [146 146 148]]

 ...

 [[ 55  74  70]
  [ 52  71  67]
  [ 57  71  71]
  ...
  [ 53  58  52]
  [ 52  57  53]
  [ 53  58  54]]

 [[ 54  73  67]
  [ 51  70  64]
  [ 56  71  68]
  ...
  [ 57  62  56]
  [ 55  60  56]
  [ 55  60  56]]

 [[ 52  71  65]
  [ 49  68  62]
  [ 54  69  66]
  ...
  [ 60  65  59]
  [ 59  64  60]
  [ 57  62  58]]]"
1726691777.127869,0.954942,-1.429411,1.795497,-2.41485,-1.292723,-0.428349,-0.206818,-0.522838,0.342316,-2.59678,0.025622,3.035197,0.0,0.0,0.0,0.0,0.0,0.0,71.219051,-1.211521,0.032043,4.324,0.0,grasping cardboard box,"[[[ 81  71  69]
  [ 80  70  68]
  [ 80  70  68]
  ...
  [107 103  91]
  [106 104  89]
  [108 106  91]]

 [[ 81  71  69]
  [ 80  70  68]
  [ 80  70  68]
  ...
  [104 100  88]
  [106 104  91]
  [111 109  94]]

 [[ 80  70  68]
  [ 79  69  67]
  [ 78  68  66]
  ...
  [100  96  84]
  [103  99  87]
  [110 106  94]]

 ...

 [[169 146 128]
  [170 149 132]
  [170 151 136]
  ...
  [145 137 116]
  [147 139 118]
  [148 140 119]]

 [[177 150 131]
  [173 148 128]
  [168 145 127]
  ...
  [145 137 116]
  [147 139 118]
  [148 140 119]]

 [[171 143 122]
  [172 145 124]
  [173 147 130]
  ...
  [144 136 115]
  [146 138 117]
  [148 140 119]]]","[[[ 60  73  81]
  [ 57  70  78]
  [ 60  73  79]
  ...
  [144 144 144]
  [145 145 145]
  [145 145 145]]

 [[ 60  73  81]
  [ 60  73  81]
  [ 60  73  79]
  ...
  [144 144 144]
  [145 145 145]
  [146 146 146]]

 [[ 61  74  82]
  [ 63  76  84]
  [ 60  73  79]
  ...
  [143 143 143]
  [144 144 144]
  [146 146 146]]

 ...

 [[ 55  66  70]
  [ 57  68  72]
  [ 59  70  74]
  ...
  [ 56  61  54]
  [ 52  58  48]
  [ 56  62  52]]

 [[ 54  68  71]
  [ 55  69  72]
  [ 55  68  74]
  ...
  [ 59  64  57]
  [ 56  62  52]
  [ 58  64  54]]

 [[ 53  68  71]
  [ 52  67  70]
  [ 52  65  71]
  ...
  [ 62  67  60]
  [ 60  66  56]
  [ 62  68  58]]]"
1726691777.276644,0.954942,-1.429411,1.795497,-2.41485,-1.292723,-0.428349,-0.206818,-0.522838,0.342316,-2.59678,0.025622,3.035197,0.0,0.0,0.0,0.0,0.0,0.0,70.00753,-1.843702,0.084433,4.324,0.0,grasping cardboard box,"[[[ 81  69  69]
  [ 83  71  71]
  [ 83  73  72]
  ...
  [114 104 102]
  [115 105 104]
  [116 106 105]]

 [[ 81  69  69]
  [ 82  70  70]
  [ 81  71  70]
  ...
  [109  99  97]
  [112 102 101]
  [116 106 105]]

 [[ 82  70  70]
  [ 80  68  68]
  [ 79  69  68]
  ...
  [104  94  92]
  [107  97  96]
  [112 102 101]]

 ...

 [[166 150 127]
  [165 150 127]
  [166 153 134]
  ...
  [145 137 116]
  [145 137 116]
  [145 137 116]]

 [[167 150 122]
  [164 147 121]
  [162 146 123]
  ...
  [145 137 116]
  [144 136 115]
  [145 137 116]]

 [[170 151 121]
  [167 150 122]
  [166 149 123]
  ...
  [145 137 116]
  [145 137 116]
  [146 138 117]]]","[[[ 59  72  81]
  [ 59  72  81]
  [ 60  73  81]
  ...
  [144 142 145]
  [145 143 146]
  [145 143 146]]

 [[ 59  72  81]
  [ 59  72  81]
  [ 59  72  80]
  ...
  [144 142 145]
  [145 143 146]
  [145 143 146]]

 [[ 59  72  81]
  [ 59  72  81]
  [ 59  72  81]
  ...
  [144 142 145]
  [145 143 146]
  [145 143 146]]

 ...

 [[ 55  66  68]
  [ 55  66  68]
  [ 57  68  70]
  ...
  [ 56  59  50]
  [ 56  59  50]
  [ 55  58  49]]

 [[ 53  67  68]
  [ 52  66  67]
  [ 54  68  69]
  ...
  [ 58  60  49]
  [ 58  60  49]
  [ 58  60  49]]

 [[ 53  67  68]
  [ 52  66  67]
  [ 53  67  68]
  ...
  [ 58  60  49]
  [ 59  61  50]
  [ 61  63  52]]]"
1726691777.469158,0.954942,-1.429411,1.795497,-2.41485,-1.292723,-0.428349,-0.206818,-0.522838,0.342316,-2.59678,0.025622,3.035197,0.0,0.0,0.0,0.0,0.0,0.0,68.163828,-3.104507,0.095013,4.324,0.0,grasping cardboard box,"[[[ 83  70  64]
  [ 83  70  64]
  [ 82  72  63]
  ...
  [106 101  95]
  [109 104 101]
  [112 107 104]]

 [[ 84  71  65]
  [ 81  70  64]
  [ 82  72  63]
  ...
  [103  98  92]
  [108 103 100]
  [112 107 104]]

 [[ 81  70  64]
  [ 80  69  63]
  [ 81  70  64]
  ...
  [100  95  89]
  [104  99  96]
  [109 104 101]]

 ...

 [[164 144 119]
  [165 147 123]
  [170 154 131]
  ...
  [145 137 116]
  [146 138 117]
  [146 138 117]]

 [[171 147 119]
  [168 147 120]
  [167 147 123]
  ...
  [145 137 116]
  [147 139 118]
  [146 138 117]]

 [[171 146 116]
  [169 145 117]
  [168 146 122]
  ...
  [144 136 115]
  [146 138 117]
  [145 137 116]]]","[[[ 63  70  80]
  [ 63  70  80]
  [ 62  71  80]
  ...
  [146 140 142]
  [147 141 143]
  [148 142 144]]

 [[ 63  70  80]
  [ 62  69  79]
  [ 62  71  80]
  ...
  [147 141 143]
  [149 143 145]
  [150 144 146]]

 [[ 62  71  80]
  [ 62  71  80]
  [ 63  72  79]
  ...
  [146 142 143]
  [147 143 144]
  [148 144 145]]

 ...

 [[ 54  67  75]
  [ 54  67  75]
  [ 55  68  74]
  ...
  [ 51  56  50]
  [ 51  56  52]
  [ 55  60  56]]

 [[ 52  67  74]
  [ 52  67  74]
  [ 54  67  73]
  ...
  [ 55  60  54]
  [ 56  61  57]
  [ 57  62  58]]

 [[ 52  67  74]
  [ 52  67  74]
  [ 53  66  72]
  ...
  [ 60  65  59]
  [ 59  64  60]
  [ 58  63  59]]]"
1726691777.675726,0.954942,-1.429411,1.795497,-2.41485,-1.292723,-0.428349,-0.206818,-0.522838,0.342316,-2.59678,0.025622,3.035197,0.0,0.0,0.0,0.0,0.0,0.0,65.059322,-1.46711,0.355824,4.324,0.1,grasping cardboard box,"[[[ 82  72  70]
  [ 82  72  70]
  [ 83  72  70]
  ...
  [107 103  92]
  [108 104  92]
  [111 107  95]]

 [[ 81  71  69]
  [ 82  72  70]
  [ 83  72  70]
  ...
  [105 101  90]
  [107 103  91]
  [111 107  95]]

 [[ 80  70  68]
  [ 81  71  69]
  [ 83  72  70]
  ...
  [101  97  86]
  [104 100  89]
  [108 104  93]]

 ...

 [[170 147 131]
  [171 149 135]
  [172 153 138]
  ...
  [146 138 117]
  [147 139 118]
  [146 138 117]]

 [[176 147 131]
  [175 146 130]
  [172 146 131]
  ...
  [146 138 117]
  [147 139 118]
  [146 138 117]]

 [[176 143 126]
  [175 144 126]
  [172 143 129]
  ...
  [146 138 117]
  [147 139 118]
  [146 138 117]]]","[[[ 60  70  69]
  [ 61  71  70]
  [ 60  70  72]
  ...
  [145 141 142]
  [150 144 146]
  [151 145 147]]

 [[ 59  69  68]
  [ 60  70  71]
  [ 59  69  71]
  ...
  [144 140 141]
  [148 142 144]
  [150 144 146]]

 [[ 59  71  71]
  [ 60  72  72]
  [ 59  70  72]
  ...
  [142 138 139]
  [145 141 142]
  [148 144 145]]

 ...

 [[ 58  66  68]
  [ 58  66  68]
  [ 58  66  68]
  ...
  [ 56  62  62]
  [ 50  55  58]
  [ 52  57  60]]

 [[ 58  67  66]
  [ 57  66  65]
  [ 57  65  67]
  ...
  [ 57  63  63]
  [ 52  57  60]
  [ 53  58  61]]

 [[ 58  67  66]
  [ 57  66  65]
  [ 56  64  66]
  ...
  [ 57  63  63]
  [ 54  59  62]
  [ 57  62  65]]]"
1726691777.854332,0.954942,-1.429411,1.795497,-2.41485,-1.292723,-0.428349,-0.206818,-0.522838,0.342316,-2.59678,0.025622,3.035197,0.0,0.0,0.0,0.0,0.0,0.0,63.592212,-1.479149,0.171242,4.424,0.1,grasping cardboard box,"[[[ 79  74  71]
  [ 78  73  70]
  [ 78  73  70]
  ...
  [107 103  94]
  [109 105  94]
  [114 110  99]]

 [[ 77  72  69]
  [ 77  72  69]
  [ 78  73  70]
  ...
  [102  98  89]
  [107 103  92]
  [112 108  97]]

 [[ 76  71  68]
  [ 77  72  69]
  [ 78  73  70]
  ...
  [100  96  87]
  [105 101  90]
  [110 106  95]]

 ...

 [[165 149 126]
  [165 149 126]
  [168 153 132]
  ...
  [147 136 114]
  [147 136 114]
  [148 137 115]]

 [[170 150 123]
  [168 148 121]
  [165 147 123]
  ...
  [149 137 113]
  [149 137 113]
  [148 136 112]]

 [[169 148 117]
  [168 149 119]
  [168 148 121]
  ...
  [150 138 114]
  [149 137 113]
  [147 135 111]]]","[[[ 57  70  76]
  [ 57  70  76]
  [ 57  70  76]
  ...
  [150 141 144]
  [150 141 144]
  [151 142 145]]

 [[ 57  70  76]
  [ 57  70  76]
  [ 58  71  77]
  ...
  [150 141 144]
  [151 142 145]
  [151 142 145]]

 [[ 58  71  77]
  [ 57  70  76]
  [ 58  71  77]
  ...
  [150 141 144]
  [150 141 144]
  [151 142 145]]

 ...

 [[ 55  66  68]
  [ 57  68  70]
  [ 60  71  73]
  ...
  [ 51  58  51]
  [ 52  57  51]
  [ 57  62  56]]

 [[ 55  66  70]
  [ 56  67  71]
  [ 58  69  71]
  ...
  [ 59  64  58]
  [ 59  64  58]
  [ 61  66  60]]

 [[ 57  68  72]
  [ 53  64  68]
  [ 54  65  67]
  ...
  [ 60  65  59]
  [ 59  64  58]
  [ 56  61  55]]]"
1726691778.033862,0.954942,-1.429411,1.795497,-2.41485,-1.292723,-0.428349,-0.206818,-0.522838,0.342316,-2.59678,0.025622,3.035197,0.0,0.0,0.0,0.0,0.0,0.0,62.113063,-2.561871,0.15494,4.524,0.1,grasping cardboard box,"[[[ 79  76  71]
  [ 77  74  69]
  [ 75  71  68]
  ...
  [111 103 100]
  [115 105 103]
  [118 108 106]]

 [[ 75  72  67]
  [ 77  74  69]
  [ 77  73  70]
  ...
  [106  98  95]
  [110 100  98]
  [113 103 101]]

 [[ 73  70  65]
  [ 77  74  69]
  [ 80  75  72]
  ...
  [102  94  91]
  [105  95  93]
  [109  99  97]]

 ...

 [[169 149 125]
  [168 150 126]
  [171 156 133]
  ...
  [146 138 117]
  [145 137 116]
  [145 137 116]]

 [[174 147 120]
  [171 145 118]
  [168 146 122]
  ...
  [145 137 116]
  [145 137 116]
  [145 137 116]]

 [[177 146 117]
  [176 146 118]
  [172 148 120]
  ...
  [143 135 114]
  [143 135 114]
  [144 136 115]]]","[[[ 61  72  74]
  [ 60  71  73]
  [ 60  71  73]
  ...
  [144 144 146]
  [146 146 148]
  [148 148 150]]

 [[ 60  71  73]
  [ 59  70  72]
  [ 59  70  72]
  ...
  [145 145 147]
  [145 145 147]
  [146 146 148]]

 [[ 60  71  73]
  [ 60  71  73]
  [ 59  70  72]
  ...
  [145 145 147]
  [144 144 146]
  [144 144 146]]

 ...

 [[ 52  66  67]
  [ 53  67  68]
  [ 53  67  68]
  ...
  [ 51  57  53]
  [ 50  56  54]
  [ 50  56  54]]

 [[ 51  66  69]
  [ 52  67  70]
  [ 53  69  69]
  ...
  [ 54  60  56]
  [ 55  61  59]
  [ 52  58  58]]

 [[ 50  65  68]
  [ 51  66  69]
  [ 53  69  69]
  ...
  [ 62  68  64]
  [ 63  69  69]
  [ 57  63  63]]]"
1726691778.225506,0.954942,-1.429411,1.795497,-2.41485,-1.292723,-0.428349,-0.206818,-0.522838,0.342316,-2.59678,0.025622,3.035197,0.0,0.0,0.0,0.0,0.0,0.0,59.551192,-1.948352,0.145553,4.624,0.1,grasping cardboard box,"[[[ 86  71  64]
  [ 85  70  63]
  [ 84  71  63]
  ...
  [111 102  93]
  [112 103  94]
  [115 106  97]]

 [[ 84  69  62]
  [ 84  71  63]
  [ 84  71  63]
  ...
  [108  99  90]
  [110 101  92]
  [112 103  94]]

 [[ 83  70  62]
  [ 84  71  63]
  [ 84  71  63]
  ...
  [105  96  87]
  [108  99  90]
  [109 100  91]]

 ...

 [[165 148 130]
  [166 151 132]
  [167 151 135]
  ...
  [147 140 114]
  [149 139 112]
  [149 139 112]]

 [[171 150 131]
  [167 149 129]
  [164 145 128]
  ...
  [146 139 113]
  [149 139 112]
  [149 139 112]]

 [[168 146 125]
  [168 147 126]
  [169 148 129]
  ...
  [145 138 112]
  [148 138 111]
  [149 139 112]]]","[[[ 57  70  76]
  [ 58  71  77]
  [ 58  71  77]
  ...
  [142 142 142]
  [142 142 142]
  [143 143 143]]

 [[ 58  71  77]
  [ 59  72  78]
  [ 59  72  78]
  ...
  [143 143 143]
  [143 143 143]
  [144 144 144]]

 [[ 60  73  79]
  [ 60  73  79]
  [ 60  73  79]
  ...
  [144 144 144]
  [144 144 144]
  [145 145 145]]

 ...

 [[ 54  62  64]
  [ 56  64  66]
  [ 59  67  69]
  ...
  [ 53  55  50]
  [ 54  56  51]
  [ 58  60  55]]

 [[ 54  62  64]
  [ 56  64  66]
  [ 58  66  68]
  ...
  [ 58  59  54]
  [ 58  59  54]
  [ 60  61  56]]

 [[ 55  63  65]
  [ 56  64  66]
  [ 56  64  66]
  ...
  [ 60  61  56]
  [ 59  60  55]
  [ 59  60  55]]]"
1726691778.37342,0.954942,-1.429411,1.795497,-2.41485,-1.292723,-0.428349,-0.206818,-0.522838,0.342316,-2.59678,0.025622,3.035197,0.0,0.0,0.0,0.0,0.0,0.0,57.60284,-1.741124,0.156659,4.724,0.1,grasping cardboard box,"[[[ 80  68  68]
  [ 81  70  68]
  [ 82  71  69]
  ...
  [107 102  96]
  [110 105 101]
  [112 107 103]]

 [[ 79  67  67]
  [ 80  69  67]
  [ 81  70  66]
  ...
  [105 100  94]
  [109 104 100]
  [112 107 103]]

 [[ 80  69  67]
  [ 80  69  67]
  [ 80  69  65]
  ...
  [100  95  89]
  [103  98  94]
  [106 101  97]]

 ...

 [[162 145 127]
  [163 147 131]
  [166 153 136]
  ...
  [146 139 111]
  [146 139 111]
  [146 139 111]]

 [[168 145 127]
  [168 147 128]
  [165 148 130]
  ...
  [145 138 110]
  [145 138 110]
  [146 139 110]]

 [[173 148 128]
  [170 148 127]
  [166 147 130]
  ...
  [143 136 108]
  [144 137 108]
  [146 139 110]]]","[[[ 53  68  71]
  [ 54  69  72]
  [ 56  71  74]
  ...
  [147 145 148]
  [147 145 148]
  [147 145 148]]

 [[ 55  70  73]
  [ 56  71  74]
  [ 58  73  76]
  ...
  [147 145 148]
  [147 145 148]
  [147 145 148]]

 [[ 57  72  77]
  [ 57  72  77]
  [ 60  74  77]
  ...
  [146 144 147]
  [146 144 147]
  [146 144 147]]

 ...

 [[ 53  69  68]
  [ 54  70  69]
  [ 54  70  70]
  ...
  [ 54  56  51]
  [ 54  56  51]
  [ 56  58  53]]

 [[ 49  68  66]
  [ 51  70  68]
  [ 53  69  69]
  ...
  [ 58  61  54]
  [ 58  61  54]
  [ 58  61  54]]

 [[ 45  65  63]
  [ 47  67  65]
  [ 51  67  67]
  ...
  [ 62  65  58]
  [ 62  65  58]
  [ 62  65  58]]]"
1726691778.564634,0.954942,-1.429411,1.795497,-2.41485,-1.292723,-0.428349,-0.206818,-0.522838,0.342316,-2.59678,0.025622,3.035197,0.0,0.0,0.0,0.0,0.0,0.0,55.861716,-2.193118,0.102588,4.824,0.1,grasping cardboard box,"[[[ 82  74  63]
  [ 81  73  62]
  [ 81  72  63]
  ...
  [111 102  97]
  [112 103  98]
  [116 107 102]]

 [[ 81  73  62]
  [ 81  73  62]
  [ 81  72  63]
  ...
  [107  98  93]
  [108  99  94]
  [113 104  99]]

 [[ 81  72  63]
  [ 81  72  63]
  [ 81  72  63]
  ...
  [104  97  91]
  [106  99  93]
  [111 104  98]]

 ...

 [[170 148 125]
  [169 148 127]
  [169 151 129]
  ...
  [147 139 118]
  [148 140 119]
  [147 139 118]]

 [[174 150 122]
  [169 148 119]
  [166 146 119]
  ...
  [147 139 118]
  [149 141 120]
  [147 139 118]]

 [[172 147 116]
  [170 147 115]
  [169 148 119]
  ...
  [146 138 117]
  [148 140 119]
  [146 138 117]]]","[[[ 58  70  70]
  [ 60  72  72]
  [ 61  73  73]
  ...
  [143 141 144]
  [144 144 146]
  [144 144 146]]

 [[ 59  71  71]
  [ 60  72  72]
  [ 61  73  73]
  ...
  [144 142 145]
  [145 145 147]
  [145 145 147]]

 [[ 60  72  72]
  [ 60  72  72]
  [ 60  72  72]
  ...
  [146 144 147]
  [146 146 148]
  [146 146 148]]

 ...

 [[ 55  67  65]
  [ 55  67  65]
  [ 56  68  68]
  ...
  [ 51  58  51]
  [ 50  57  49]
  [ 55  62  54]]

 [[ 55  67  65]
  [ 54  66  64]
  [ 55  67  67]
  ...
  [ 53  63  55]
  [ 52  59  51]
  [ 56  64  53]]

 [[ 54  66  64]
  [ 53  65  63]
  [ 54  66  66]
  ...
  [ 61  71  62]
  [ 58  65  57]
  [ 58  66  55]]]"
1726691778.727146,0.954942,-1.429411,1.795497,-2.41485,-1.292723,-0.428349,-0.206818,-0.522838,0.342316,-2.59678,0.025622,3.035197,0.0,0.0,0.0,0.0,0.0,0.0,53.668599,-1.766969,0.078724,4.924,0.0,grasping cardboard box,"[[[ 75  75  75]
  [ 77  77  77]
  [ 79  75  74]
  ...
  [110 103  97]
  [113 102  98]
  [115 104 100]]

 [[ 72  72  72]
  [ 74  74  72]
  [ 77  73  72]
  ...
  [105  98  92]
  [110  99  95]
  [114 103  99]]

 [[ 71  71  69]
  [ 73  73  71]
  [ 77  73  72]
  ...
  [102  95  89]
  [107  96  92]
  [112 101  97]]

 ...

 [[173 147 130]
  [170 149 132]
  [170 153 137]
  ...
  [147 139 118]
  [147 139 118]
  [147 139 118]]

 [[174 147 128]
  [171 146 126]
  [169 148 131]
  ...
  [147 139 118]
  [147 139 118]
  [146 138 117]]

 [[175 147 126]
  [173 146 127]
  [169 148 129]
  ...
  [145 137 116]
  [145 137 116]
  [144 136 115]]]","[[[ 59  69  71]
  [ 61  71  73]
  [ 62  72  74]
  ...
  [145 145 147]
  [145 145 147]
  [145 145 147]]

 [[ 59  69  71]
  [ 61  71  73]
  [ 62  72  74]
  ...
  [145 145 147]
  [145 145 147]
  [145 145 147]]

 [[ 59  69  71]
  [ 61  71  73]
  [ 62  72  74]
  ...
  [146 146 148]
  [145 145 147]
  [145 145 147]]

 ...

 [[ 56  68  64]
  [ 54  66  62]
  [ 54  66  64]
  ...
  [ 55  60  54]
  [ 55  60  54]
  [ 58  63  57]]

 [[ 53  65  61]
  [ 54  66  62]
  [ 54  66  64]
  ...
  [ 58  63  56]
  [ 56  61  54]
  [ 58  63  56]]

 [[ 54  66  62]
  [ 57  69  65]
  [ 57  69  67]
  ...
  [ 60  65  58]
  [ 57  62  55]
  [ 58  63  56]]]"
1726691778.88976,0.954942,-1.429411,1.795497,-2.41485,-1.292723,-0.428349,-0.206818,-0.522838,0.342316,-2.59678,0.025622,3.035197,0.0,0.0,0.0,0.0,0.0,0.0,51.90163,-2.223088,0.149648,4.924,0.1,grasping cardboard box,"[[[ 86  69  77]
  [ 86  69  75]
  [ 85  70  75]
  ...
  [111 102  95]
  [114 105  96]
  [116 107  98]]

 [[ 85  68  76]
  [ 84  69  74]
  [ 84  69  72]
  ...
  [108  99  92]
  [113 104  95]
  [116 107  98]]

 [[ 83  68  73]
  [ 84  69  72]
  [ 84  69  72]
  ...
  [103  96  88]
  [109 100  91]
  [111 102  93]]

 ...

 [[170 150 126]
  [167 149 127]
  [170 153 133]
  ...
  [147 139 116]
  [146 138 115]
  [146 138 115]]

 [[173 149 123]
  [168 146 122]
  [167 147 123]
  ...
  [147 140 114]
  [147 140 114]
  [146 139 113]]

 [[172 146 119]
  [168 144 118]
  [166 144 120]
  ...
  [148 141 113]
  [146 139 111]
  [145 138 110]]]","[[[ 62  67  71]
  [ 61  66  70]
  [ 62  67  71]
  ...
  [144 144 144]
  [145 145 145]
  [145 145 145]]

 [[ 61  66  70]
  [ 60  65  69]
  [ 61  66  70]
  ...
  [145 145 145]
  [145 145 145]
  [146 146 146]]

 [[ 62  67  71]
  [ 61  66  70]
  [ 60  65  69]
  ...
  [145 145 145]
  [145 145 145]
  [145 145 145]]

 ...

 [[ 55  64  61]
  [ 55  64  61]
  [ 56  65  64]
  ...
  [ 53  58  54]
  [ 52  57  53]
  [ 52  57  53]]

 [[ 53  62  59]
  [ 54  63  60]
  [ 55  64  63]
  ...
  [ 57  61  60]
  [ 58  63  59]
  [ 58  63  59]]

 [[ 55  64  61]
  [ 56  65  62]
  [ 57  66  65]
  ...
  [ 60  64  63]
  [ 60  65  61]
  [ 59  64  60]]]"
1726691779.080357,0.954942,-1.429411,1.795497,-2.41485,-1.292723,-0.428349,-0.206818,-0.522838,0.342316,-2.59678,0.025622,3.035197,0.0,0.0,0.0,0.0,0.0,0.0,49.678542,-1.789064,0.123597,5.024,0.1,grasping cardboard box,"[[[ 76  71  65]
  [ 77  72  66]
  [ 79  75  66]
  ...
  [108 101  95]
  [112 103  98]
  [115 106 101]]

 [[ 77  72  66]
  [ 78  73  67]
  [ 79  75  66]
  ...
  [106  99  93]
  [112 103  98]
  [117 108 103]]

 [[ 77  72  66]
  [ 77  72  66]
  [ 78  74  65]
  ...
  [102  95  89]
  [107 100  94]
  [112 105  99]]

 ...

 [[169 151 129]
  [169 151 131]
  [171 154 138]
  ...
  [145 139 117]
  [144 138 116]
  [145 139 117]]

 [[171 147 121]
  [169 147 123]
  [168 147 126]
  ...
  [144 138 116]
  [145 139 117]
  [146 140 118]]

 [[172 147 117]
  [171 147 119]
  [170 148 124]
  ...
  [144 138 116]
  [145 139 117]
  [147 141 119]]]","[[[ 55  69  69]
  [ 52  66  66]
  [ 53  67  67]
  ...
  [148 143 147]
  [149 144 148]
  [148 143 147]]

 [[ 55  69  69]
  [ 53  67  67]
  [ 54  68  68]
  ...
  [148 143 147]
  [148 143 147]
  [148 143 147]]

 [[ 56  70  71]
  [ 54  68  69]
  [ 55  69  70]
  ...
  [148 143 147]
  [148 143 147]
  [147 142 146]]

 ...

 [[ 53  65  63]
  [ 53  65  63]
  [ 54  66  64]
  ...
  [ 56  58  53]
  [ 56  58  57]
  [ 58  60  59]]

 [[ 53  65  63]
  [ 54  66  64]
  [ 54  66  64]
  ...
  [ 59  61  56]
  [ 59  61  60]
  [ 60  62  61]]

 [[ 55  67  65]
  [ 55  67  65]
  [ 54  66  64]
  ...
  [ 60  62  57]
  [ 60  62  61]
  [ 61  63  62]]]"
1726691779.245233,0.954942,-1.429411,1.795497,-2.41485,-1.292723,-0.428349,-0.206818,-0.522838,0.342316,-2.59678,0.025622,3.035197,0.0,0.0,0.0,0.0,0.0,0.0,47.889477,-2.248342,0.339222,5.124,0.1,grasping cardboard box,"[[[ 81  70  68]
  [ 85  74  72]
  [ 85  75  73]
  ...
  [107 102  96]
  [108 103  97]
  [110 105  99]]

 [[ 81  70  68]
  [ 83  72  70]
  [ 83  73  71]
  ...
  [104  99  93]
  [108 103  97]
  [112 107 101]]

 [[ 81  71  69]
  [ 81  71  69]
  [ 82  72  70]
  ...
  [ 98  93  87]
  [102  97  91]
  [106 101  95]]

 ...

 [[171 148 132]
  [171 150 133]
  [171 152 138]
  ...
  [149 138 116]
  [151 140 118]
  [150 139 117]]

 [[174 147 128]
  [172 147 127]
  [169 148 131]
  ...
  [149 139 114]
  [151 139 115]
  [150 138 114]]

 [[173 145 124]
  [172 145 124]
  [170 147 129]
  ...
  [148 138 111]
  [150 138 112]
  [149 137 111]]]","[[[ 60  67  77]
  [ 60  67  77]
  [ 60  67  75]
  ...
  [145 145 147]
  [145 145 147]
  [146 146 148]]

 [[ 60  67  77]
  [ 60  67  75]
  [ 60  67  75]
  ...
  [145 145 147]
  [145 145 147]
  [147 147 149]]

 [[ 58  67  74]
  [ 58  67  74]
  [ 58  67  74]
  ...
  [144 144 146]
  [144 144 146]
  [147 147 149]]

 ...

 [[ 53  65  65]
  [ 52  64  64]
  [ 52  64  64]
  ...
  [ 55  60  54]
  [ 55  60  54]
  [ 58  63  57]]

 [[ 53  64  66]
  [ 52  63  65]
  [ 52  63  65]
  ...
  [ 57  62  56]
  [ 56  61  57]
  [ 58  63  59]]

 [[ 52  63  65]
  [ 52  63  65]
  [ 52  63  65]
  ...
  [ 58  63  57]
  [ 58  63  59]
  [ 59  64  60]]]"
1726691779.437464,0.954942,-1.429411,1.795497,-2.41485,-1.292723,-0.428349,-0.206818,-0.522838,0.342316,-2.59678,0.025622,3.035197,0.0,0.0,0.0,0.0,0.0,0.0,45.641135,-1.580116,0.078433,5.224,0.0,grasping cardboard box,"[[[ 72  72  64]
  [ 75  75  67]
  [ 78  75  68]
  ...
  [114 104  94]
  [118 106  94]
  [120 108  96]]

 [[ 74  74  66]
  [ 75  75  67]
  [ 77  74  67]
  ...
  [106  96  86]
  [113 100  91]
  [117 105  93]]

 [[ 76  73  66]
  [ 77  74  67]
  [ 76  73  66]
  ...
  [102  94  83]
  [108  98  88]
  [113 103  93]]

 ...

 [[167 150 130]
  [168 151 133]
  [173 158 139]
  ...
  [146 138 117]
  [146 138 117]
  [146 138 117]]

 [[171 149 128]
  [167 146 125]
  [166 148 128]
  ...
  [146 138 117]
  [146 138 117]
  [145 137 116]]

 [[172 147 125]
  [167 145 122]
  [169 146 128]
  ...
  [146 138 117]
  [145 137 116]
  [143 135 114]]]","[[[ 57  71  74]
  [ 54  68  71]
  [ 56  67  73]
  ...
  [146 146 146]
  [147 147 147]
  [148 148 148]]

 [[ 57  70  76]
  [ 54  67  73]
  [ 55  66  72]
  ...
  [145 145 145]
  [146 146 146]
  [148 148 148]]

 [[ 56  71  78]
  [ 54  69  76]
  [ 54  67  75]
  ...
  [144 144 144]
  [146 146 146]
  [148 148 148]]

 ...

 [[ 54  65  67]
  [ 55  66  68]
  [ 53  65  65]
  ...
  [ 55  60  54]
  [ 56  58  53]
  [ 57  59  54]]

 [[ 55  66  68]
  [ 53  64  66]
  [ 52  64  64]
  ...
  [ 58  63  57]
  [ 59  61  56]
  [ 60  61  56]]

 [[ 55  66  68]
  [ 51  63  63]
  [ 51  63  63]
  ...
  [ 62  67  61]
  [ 64  65  60]
  [ 62  63  58]]]"
1726691779.61597,0.954942,-1.429411,1.795497,-2.41485,-1.292723,-0.428349,-0.206818,-0.522838,0.342316,-2.59678,0.025622,3.035197,0.0,0.0,0.0,0.0,0.0,0.0,44.061019,-1.812174,0.081619,5.224,0.0,grasping cardboard box,"[[[ 75  74  69]
  [ 76  75  70]
  [ 77  76  71]
  ...
  [106 103  96]
  [108 105  98]
  [111 108 101]]

 [[ 77  74  69]
  [ 78  75  70]
  [ 78  75  70]
  ...
  [102  99  92]
  [105 102  95]
  [109 106  99]]

 [[ 77  72  68]
  [ 77  72  68]
  [ 77  72  68]
  ...
  [100  95  89]
  [103  98  94]
  [106 101  97]]

 ...

 [[164 150 123]
  [165 154 126]
  [168 156 130]
  ...
  [145 137 114]
  [145 137 114]
  [148 140 117]]

 [[169 154 121]
  [166 151 120]
  [164 149 120]
  ...
  [145 138 112]
  [145 138 112]
  [147 140 114]]

 [[167 151 117]
  [165 149 116]
  [165 150 119]
  ...
  [146 139 113]
  [144 137 111]
  [146 139 113]]]","[[[ 57  69  65]
  [ 57  69  65]
  [ 57  69  67]
  ...
  [153 147 151]
  [152 146 150]
  [151 145 149]]

 [[ 57  69  65]
  [ 57  69  67]
  [ 57  69  67]
  ...
  [151 145 149]
  [151 145 149]
  [152 146 150]]

 [[ 58  70  68]
  [ 57  69  67]
  [ 57  69  69]
  ...
  [149 144 148]
  [151 146 150]
  [152 147 151]]

 ...

 [[ 49  65  64]
  [ 49  65  64]
  [ 50  64  64]
  ...
  [ 55  60  56]
  [ 58  63  59]
  [ 59  64  60]]

 [[ 46  64  64]
  [ 49  65  65]
  [ 51  65  66]
  ...
  [ 57  62  58]
  [ 59  63  62]
  [ 59  63  62]]

 [[ 45  63  63]
  [ 47  65  65]
  [ 50  64  65]
  ...
  [ 60  65  61]
  [ 61  65  64]
  [ 59  63  62]]]"
1726691779.777604,0.954942,-1.429411,1.795497,-2.41485,-1.292723,-0.428349,-0.206818,-0.522838,0.342316,-2.59678,0.025622,3.035197,0.0,0.0,0.0,0.0,0.0,0.0,42.248845,-2.047386,0.057901,5.224,0.0,grasping cardboard box,"[[[ 81  70  68]
  [ 81  70  68]
  [ 83  72  70]
  ...
  [109 102  92]
  [115 106  99]
  [113 104  99]]

 [[ 81  70  68]
  [ 83  72  70]
  [ 84  73  71]
  ...
  [105  98  88]
  [112 103  96]
  [114 105 100]]

 [[ 80  70  68]
  [ 82  72  70]
  [ 84  73  71]
  ...
  [102  95  85]
  [108  99  92]
  [112 103  96]]

 ...

 [[163 148 129]
  [163 150 133]
  [166 155 137]
  ...
  [148 140 119]
  [146 138 117]
  [146 138 117]]

 [[165 148 128]
  [165 148 128]
  [164 149 130]
  ...
  [149 141 120]
  [147 139 120]
  [148 140 121]]

 [[166 148 126]
  [161 143 121]
  [159 142 124]
  ...
  [148 140 119]
  [147 139 120]
  [147 139 120]]]","[[[ 48  69  72]
  [ 49  70  73]
  [ 49  69  70]
  ...
  [148 146 149]
  [147 145 148]
  [148 146 149]]

 [[ 50  69  73]
  [ 50  69  73]
  [ 49  69  70]
  ...
  [147 145 148]
  [147 145 148]
  [148 146 149]]

 [[ 52  70  74]
  [ 50  68  72]
  [ 51  69  71]
  ...
  [146 144 147]
  [147 145 148]
  [149 147 150]]

 ...

 [[ 52  61  58]
  [ 53  62  59]
  [ 54  63  60]
  ...
  [ 56  58  57]
  [ 55  55  53]
  [ 58  58  56]]

 [[ 53  62  59]
  [ 54  63  60]
  [ 54  63  60]
  ...
  [ 61  63  60]
  [ 61  61  59]
  [ 62  62  60]]

 [[ 55  64  61]
  [ 56  65  62]
  [ 55  64  61]
  ...
  [ 64  66  63]
  [ 64  64  62]
  [ 63  63  61]]]"
1726691779.954096,0.954942,-1.429411,1.795497,-2.41485,-1.292723,-0.428349,-0.206818,-0.522838,0.342316,-2.59678,0.025622,3.035197,0.0,0.0,0.0,0.0,0.0,0.0,40.201459,-0.456058,0.116292,5.224,0.1,grasping cardboard box,"[[[ 78  74  65]
  [ 78  74  65]
  [ 78  73  67]
  ...
  [109 104  98]
  [113 108 102]
  [115 110 104]]

 [[ 78  74  65]
  [ 78  74  65]
  [ 78  73  67]
  ...
  [103  98  92]
  [107 102  96]
  [110 105  99]]

 [[ 77  73  64]
  [ 77  73  64]
  [ 77  72  66]
  ...
  [101  96  90]
  [105 100  94]
  [107 102  96]]

 ...

 [[166 149 131]
  [167 151 135]
  [170 154 139]
  ...
  [145 137 118]
  [146 138 119]
  [146 138 119]]

 [[166 148 128]
  [165 148 128]
  [165 148 130]
  ...
  [147 139 120]
  [146 138 119]
  [144 136 117]]

 [[166 148 126]
  [167 149 127]
  [166 149 131]
  ...
  [147 139 120]
  [146 138 119]
  [145 137 118]]]","[[[ 59  71  69]
  [ 59  71  69]
  [ 58  69  71]
  ...
  [148 146 149]
  [149 147 150]
  [149 147 150]]

 [[ 55  67  65]
  [ 56  68  66]
  [ 57  68  70]
  ...
  [148 146 149]
  [149 147 150]
  [149 147 150]]

 [[ 56  68  66]
  [ 57  69  67]
  [ 59  70  72]
  ...
  [148 146 149]
  [149 147 150]
  [148 146 149]]

 ...

 [[ 54  62  64]
  [ 54  62  64]
  [ 56  61  64]
  ...
  [ 54  59  52]
  [ 54  60  50]
  [ 57  63  53]]

 [[ 55  64  63]
  [ 54  63  62]
  [ 56  61  64]
  ...
  [ 56  61  54]
  [ 56  62  52]
  [ 58  64  54]]

 [[ 55  64  63]
  [ 53  62  61]
  [ 54  59  62]
  ...
  [ 59  64  57]
  [ 58  64  54]
  [ 60  66  56]]]"
1726691780.11555,0.954942,-1.429411,1.795497,-2.41485,-1.292723,-0.428349,-0.206818,-0.522838,0.342316,-2.59678,0.025622,3.035197,0.0,0.0,0.0,0.0,0.0,0.0,39.7454,-0.684343,0.179217,5.324,0.1,grasping cardboard box,"[[[ 87  74  66]
  [ 85  72  64]
  [ 81  71  62]
  ...
  [110 106  94]
  [110 107  92]
  [110 107  92]]

 [[ 85  72  64]
  [ 82  72  63]
  [ 81  71  62]
  ...
  [103  99  87]
  [103 100  85]
  [106 103  88]]

 [[ 81  71  62]
  [ 81  71  62]
  [ 81  71  62]
  ...
  [100  96  84]
  [101  97  85]
  [106 102  90]]

 ...

 [[166 148 126]
  [166 148 126]
  [168 151 131]
  ...
  [145 137 118]
  [145 137 118]
  [145 137 118]]

 [[171 150 123]
  [167 145 121]
  [164 144 120]
  ...
  [147 139 120]
  [146 138 119]
  [146 138 119]]

 [[170 146 118]
  [167 146 117]
  [168 146 122]
  ...
  [146 138 119]
  [147 139 120]
  [146 138 119]]]","[[[ 60  68  70]
  [ 60  68  70]
  [ 57  67  69]
  ...
  [144 144 144]
  [149 149 149]
  [151 151 151]]

 [[ 61  69  71]
  [ 61  69  71]
  [ 59  69  71]
  ...
  [146 146 146]
  [149 149 149]
  [148 148 148]]

 [[ 61  69  71]
  [ 61  69  71]
  [ 59  69  71]
  ...
  [146 146 146]
  [147 147 147]
  [146 146 146]]

 ...

 [[ 56  63  71]
  [ 57  64  70]
  [ 57  64  70]
  ...
  [ 54  59  53]
  [ 53  58  52]
  [ 56  61  55]]

 [[ 57  61  70]
  [ 57  62  68]
  [ 56  63  69]
  ...
  [ 57  62  56]
  [ 57  62  55]
  [ 56  61  54]]

 [[ 56  60  69]
  [ 55  60  66]
  [ 55  62  68]
  ...
  [ 60  65  59]
  [ 60  65  58]
  [ 56  61  54]]]"
1726691780.305642,0.954942,-1.429411,1.795497,-2.41485,-1.292723,-0.428349,-0.206818,-0.522838,0.342316,-2.59678,0.025622,3.035197,0.0,0.0,0.0,0.0,0.0,0.0,39.061057,0.0,1.352785,5.424,0.0,grasping cardboard box,"[[[ 71  74  67]
  [ 74  75  69]
  [ 76  76  68]
  ...
  [109 101  90]
  [114 106  93]
  [118 110  97]]

 [[ 72  75  68]
  [ 74  75  69]
  [ 75  75  67]
  ...
  [104  96  85]
  [110 102  89]
  [115 107  94]]

 [[ 74  75  69]
  [ 73  74  68]
  [ 73  73  65]
  ...
  [104  98  86]
  [110 102  91]
  [114 106  95]]

 ...

 [[162 147 128]
  [166 151 132]
  [168 155 138]
  ...
  [146 138 115]
  [147 139 116]
  [149 141 118]]

 [[168 150 126]
  [167 149 127]
  [165 148 128]
  ...
  [146 139 113]
  [146 139 113]
  [147 140 114]]

 [[167 147 122]
  [165 145 121]
  [164 146 124]
  ...
  [146 139 113]
  [145 138 112]
  [145 138 112]]]","[[[ 56  70  71]
  [ 55  69  70]
  [ 54  68  69]
  ...
  [147 147 149]
  [148 148 150]
  [148 148 150]]

 [[ 54  68  69]
  [ 53  67  68]
  [ 52  66  67]
  ...
  [146 146 148]
  [147 147 149]
  [147 147 149]]

 [[ 53  67  68]
  [ 53  67  68]
  [ 53  67  68]
  ...
  [146 146 148]
  [146 146 148]
  [146 146 148]]

 ...

 [[ 51  64  55]
  [ 51  64  55]
  [ 53  66  59]
  ...
  [ 60  61  56]
  [ 58  60  57]
  [ 61  63  58]]

 [[ 51  64  54]
  [ 51  64  54]
  [ 52  65  56]
  ...
  [ 61  62  56]
  [ 60  62  57]
  [ 61  64  57]]

 [[ 49  62  52]
  [ 51  64  54]
  [ 50  63  54]
  ...
  [ 64  65  59]
  [ 60  63  56]
  [ 60  63  56]]]"
1726691785.402166,0.955001,-1.429507,1.79551,-2.414862,-1.292699,-0.428397,-0.20677,-0.52283,0.342364,-2.596686,0.025569,3.035312,-1.7e-05,-6e-06,1e-05,-4.4e-05,8.2e-05,-2.7e-05,39.061057,0.0,1.352785,5.424,0.0,moving back to original position with cardboard box,"[[[ 86  68  68]
  [ 86  71  68]
  [ 79  64  57]
  ...
  [111 104  94]
  [113 104  95]
  [113 104  95]]

 [[ 84  68  68]
  [ 80  66  63]
  [ 80  67  59]
  ...
  [106  99  89]
  [110 101  92]
  [113 104  95]]

 [[ 84  73  71]
  [ 69  60  55]
  [ 77  68  61]
  ...
  [101  94  84]
  [106  97  88]
  [109 100  91]]

 ...

 [[169 148 127]
  [166 148 128]
  [168 151 133]
  ...
  [148 137 117]
  [148 137 117]
  [148 137 117]]

 [[174 150 122]
  [168 147 120]
  [164 147 121]
  ...
  [148 137 117]
  [149 136 117]
  [149 136 117]]

 [[172 147 116]
  [171 148 117]
  [170 151 121]
  ...
  [148 137 117]
  [149 136 117]
  [149 136 117]]]","[[[ 58  69  73]
  [ 56  67  71]
  [ 55  66  70]
  ...
  [145 143 146]
  [144 144 146]
  [146 146 148]]

 [[ 58  69  73]
  [ 57  68  72]
  [ 56  67  71]
  ...
  [145 143 146]
  [144 144 146]
  [146 146 148]]

 [[ 57  68  74]
  [ 57  68  74]
  [ 58  69  75]
  ...
  [145 143 146]
  [144 144 146]
  [145 145 147]]

 ...

 [[ 53  62  61]
  [ 53  62  61]
  [ 54  63  62]
  ...
  [ 53  58  52]
  [ 61  64  57]
  [ 62  65  58]]

 [[ 54  63  62]
  [ 54  63  62]
  [ 54  63  62]
  ...
  [ 58  60  55]
  [ 63  64  58]
  [ 63  64  58]]

 [[ 54  63  62]
  [ 54  63  62]
  [ 54  63  62]
  ...
  [ 62  64  59]
  [ 62  63  57]
  [ 62  63  57]]]"
1726691785.498166,0.954954,-1.430227,1.795689,-2.41413,-1.292628,-0.428445,-0.206657,-0.522633,0.342583,-2.596823,0.025691,3.03533,3e-06,5.9e-05,6.3e-05,9.3e-05,-3.9e-05,-4.5e-05,39.061057,0.0,1.352785,5.424,0.0,moving back to original position with cardboard box,"[[[ 72  73  67]
  [ 73  74  66]
  [ 68  68  58]
  ...
  [107 104  89]
  [109 106  91]
  [112 109  92]]

 [[ 70  71  65]
  [ 70  71  63]
  [ 67  67  57]
  ...
  [104 100  88]
  [107 104  89]
  [111 108  91]]

 [[ 69  68  63]
  [ 68  68  60]
  [ 62  59  50]
  ...
  [ 98  94  82]
  [102  99  84]
  [106 103  88]]

 ...

 [[165 149 126]
  [167 151 128]
  [171 156 135]
  ...
  [145 137 116]
  [145 137 116]
  [147 139 118]]

 [[168 147 116]
  [166 147 117]
  [165 148 120]
  ...
  [145 137 116]
  [146 138 117]
  [146 138 117]]

 [[172 149 115]
  [169 149 116]
  [167 148 116]
  ...
  [146 138 117]
  [147 139 118]
  [146 138 117]]]","[[[ 59  68  77]
  [ 59  68  75]
  [ 58  67  74]
  ...
  [149 143 145]
  [150 146 147]
  [154 150 151]]

 [[ 60  69  78]
  [ 60  69  78]
  [ 59  68  75]
  ...
  [151 145 147]
  [149 145 146]
  [149 145 146]]

 [[ 57  67  76]
  [ 56  66  75]
  [ 57  68  74]
  ...
  [148 144 145]
  [148 144 145]
  [150 146 147]]

 ...

 [[ 53  62  57]
  [ 54  63  58]
  [ 55  64  59]
  ...
  [ 54  59  52]
  [ 58  61  54]
  [ 61  64  57]]

 [[ 53  62  57]
  [ 54  63  58]
  [ 55  64  61]
  ...
  [ 58  61  54]
  [ 57  60  51]
  [ 59  62  53]]

 [[ 52  61  56]
  [ 53  62  57]
  [ 53  62  59]
  ...
  [ 61  64  57]
  [ 57  60  51]
  [ 58  61  52]]]"
1726691785.594166,0.954223,-1.439878,1.798803,-2.407867,-1.29228,-0.429141,-0.205205,-0.519924,0.345573,-2.596432,0.025442,3.035322,-5.1e-05,0.000115,-5.6e-05,-0.000299,0.000209,-3.8e-05,39.061057,0.0,1.352785,5.424,0.0,moving back to original position with cardboard box,"[[[ 76  66  56]
  [ 81  73  62]
  [ 75  67  54]
  ...
  [109 105  94]
  [110 106  94]
  [112 108  96]]

 [[ 80  70  60]
  [ 77  69  58]
  [ 73  67  53]
  ...
  [104 100  89]
  [109 105  94]
  [114 110  98]]

 [[ 82  72  62]
  [ 69  61  50]
  [ 66  60  46]
  ...
  [ 99  95  84]
  [103  99  88]
  [109 105  94]]

 ...

 [[169 146 130]
  [170 149 132]
  [167 150 134]
  ...
  [149 138 118]
  [147 139 118]
  [148 140 119]]

 [[174 146 124]
  [173 146 125]
  [167 145 124]
  ...
  [148 137 117]
  [146 138 117]
  [146 138 117]]

 [[174 144 118]
  [174 146 122]
  [169 145 121]
  ...
  [149 138 118]
  [147 139 118]
  [146 138 117]]]","[[[ 55  67  67]
  [ 56  68  68]
  [ 56  68  68]
  ...
  [154 145 150]
  [154 145 150]
  [154 145 150]]

 [[ 54  66  66]
  [ 54  66  66]
  [ 54  66  66]
  ...
  [153 144 149]
  [152 143 148]
  [152 143 148]]

 [[ 56  68  68]
  [ 56  68  68]
  [ 55  67  67]
  ...
  [148 142 146]
  [150 141 146]
  [150 141 146]]

 ...

 [[ 58  63  66]
  [ 57  62  65]
  [ 56  64  66]
  ...
  [ 53  58  52]
  [ 57  62  56]
  [ 59  64  58]]

 [[ 56  61  64]
  [ 56  61  64]
  [ 56  64  66]
  ...
  [ 55  60  54]
  [ 54  59  52]
  [ 55  60  53]]

 [[ 55  60  63]
  [ 55  60  63]
  [ 54  62  64]
  ...
  [ 62  67  61]
  [ 58  63  56]
  [ 59  64  57]]]"
1726691785.690166,0.952247,-1.460091,1.805388,-2.393435,-1.29155,-0.430676,-0.202315,-0.514077,0.351537,-2.596819,0.025551,3.034889,-1.8e-05,4.9e-05,-1.7e-05,8.6e-05,0.000101,0.000395,39.061057,0.0,1.352785,5.424,0.0,moving back to original position with cardboard box,"[[[ 79  69  68]
  [ 78  68  67]
  [ 76  66  64]
  ...
  [111 102  97]
  [115 104 100]
  [118 107 103]]

 [[ 78  68  67]
  [ 81  71  70]
  [ 74  64  62]
  ...
  [105  96  91]
  [109  98  94]
  [115 104 100]]

 [[ 79  71  69]
  [ 72  64  62]
  [ 67  59  56]
  ...
  [102  93  88]
  [107  96  92]
  [113 102  98]]

 ...

 [[168 148 123]
  [168 150 126]
  [169 153 130]
  ...
  [149 138 116]
  [149 139 114]
  [147 137 112]]

 [[173 152 123]
  [171 150 123]
  [168 148 123]
  ...
  [150 138 114]
  [150 138 114]
  [149 137 113]]

 [[171 148 117]
  [169 148 119]
  [171 150 123]
  ...
  [150 138 114]
  [150 138 114]
  [149 137 113]]]","[[[ 56  66  75]
  [ 54  65  71]
  [ 59  70  76]
  ...
  [150 145 149]
  [151 146 150]
  [150 145 149]]

 [[ 57  67  76]
  [ 54  65  71]
  [ 59  70  76]
  ...
  [151 146 150]
  [152 147 151]
  [150 145 149]]

 [[ 57  67  76]
  [ 55  66  72]
  [ 58  69  75]
  ...
  [151 146 150]
  [152 147 151]
  [150 145 149]]

 ...

 [[ 54  65  69]
  [ 54  65  69]
  [ 53  64  68]
  ...
  [ 56  57  52]
  [ 62  63  58]
  [ 62  63  58]]

 [[ 53  64  70]
  [ 53  64  70]
  [ 53  64  70]
  ...
  [ 59  60  54]
  [ 65  66  60]
  [ 63  64  58]]

 [[ 53  64  70]
  [ 53  64  70]
  [ 53  64  70]
  ...
  [ 63  64  58]
  [ 66  67  61]
  [ 61  62  56]]]"
1726691785.786166,0.949157,-1.490521,1.814585,-2.371539,-1.290006,-0.433831,-0.197914,-0.505246,0.360578,-2.596707,0.025361,3.035062,2.9e-05,1.6e-05,7.7e-05,-2.9e-05,0.000293,0.000219,39.061057,0.0,1.352785,5.424,0.0,moving back to original position with cardboard box,"[[[ 79  71  68]
  [ 82  75  69]
  [ 75  68  60]
  ...
  [109 104  98]
  [110 105  99]
  [112 107 101]]

 [[ 81  73  70]
  [ 76  69  63]
  [ 71  64  56]
  ...
  [102  97  91]
  [105 100  94]
  [109 104  98]]

 [[ 79  71  69]
  [ 73  65  62]
  [ 68  61  55]
  ...
  [100  95  89]
  [104  99  93]
  [108 103  97]]

 ...

 [[173 152 131]
  [168 150 128]
  [171 154 134]
  ...
  [146 138 117]
  [144 138 116]
  [145 139 117]]

 [[174 150 124]
  [169 147 123]
  [168 150 126]
  ...
  [147 139 118]
  [144 138 116]
  [144 138 116]]

 [[173 147 120]
  [170 146 118]
  [171 151 126]
  ...
  [146 138 117]
  [143 137 115]
  [144 138 116]]]","[[[ 62  70  72]
  [ 60  68  70]
  [ 56  66  67]
  ...
  [152 146 150]
  [153 147 151]
  [153 147 151]]

 [[ 61  69  71]
  [ 60  68  70]
  [ 56  66  67]
  ...
  [154 148 152]
  [154 148 152]
  [155 149 153]]

 [[ 61  69  72]
  [ 59  67  70]
  [ 56  66  67]
  ...
  [151 146 150]
  [152 147 151]
  [153 148 152]]

 ...

 [[ 51  65  66]
  [ 50  64  65]
  [ 50  64  65]
  ...
  [ 55  64  59]
  [ 57  68  62]
  [ 59  70  64]]

 [[ 48  62  63]
  [ 50  64  65]
  [ 49  63  64]
  ...
  [ 56  66  58]
  [ 55  66  58]
  [ 57  68  60]]

 [[ 48  62  63]
  [ 50  64  65]
  [ 49  63  64]
  ...
  [ 57  67  59]
  [ 55  66  58]
  [ 56  67  59]]]"
1726691785.882166,0.945013,-1.531132,1.824811,-2.340176,-1.287731,-0.437945,-0.191911,-0.493452,0.372881,-2.596541,0.025367,3.035273,0.0,3.6e-05,4e-05,-0.000199,0.000289,5e-06,39.061057,0.0,1.352785,5.424,0.0,moving back to original position with cardboard box,"[[[ 86  76  67]
  [ 78  69  60]
  [ 80  71  64]
  ...
  [111 102  97]
  [115 106 101]
  [116 107 102]]

 [[ 77  68  59]
  [ 87  78  69]
  [ 74  67  59]
  ...
  [106  97  92]
  [112 103  98]
  [116 107 102]]

 [[ 78  71  63]
  [ 77  70  62]
  [ 67  63  54]
  ...
  [101  92  87]
  [108  99  94]
  [112 103  98]]

 ...

 [[174 149 129]
  [170 148 127]
  [170 149 128]
  ...
  [148 140 119]
  [146 138 117]
  [146 138 117]]

 [[177 147 123]
  [174 146 122]
  [171 147 123]
  ...
  [147 139 118]
  [146 138 117]
  [147 139 118]]

 [[179 148 120]
  [176 146 118]
  [173 145 121]
  ...
  [146 138 117]
  [146 138 117]
  [147 139 118]]]","[[[ 53  67  70]
  [ 54  68  71]
  [ 54  68  69]
  ...
  [153 147 151]
  [154 148 152]
  [155 149 153]]

 [[ 54  68  71]
  [ 53  67  70]
  [ 53  67  68]
  ...
  [154 148 152]
  [154 148 152]
  [154 148 152]]

 [[ 56  70  71]
  [ 55  69  70]
  [ 54  68  69]
  ...
  [152 147 151]
  [152 147 151]
  [152 147 151]]

 ...

 [[ 52  63  67]
  [ 52  63  67]
  [ 53  64  66]
  ...
  [ 59  66  59]
  [ 59  69  61]
  [ 59  69  61]]

 [[ 52  63  67]
  [ 52  63  67]
  [ 53  64  66]
  ...
  [ 55  65  57]
  [ 56  66  58]
  [ 57  67  59]]

 [[ 52  63  67]
  [ 52  63  67]
  [ 54  65  67]
  ...
  [ 56  66  58]
  [ 52  62  54]
  [ 51  61  53]]]"
1726691785.978166,0.939337,-1.580989,1.834582,-2.298204,-1.284785,-0.443343,-0.184538,-0.478746,0.388148,-2.596845,0.025656,3.035269,9.2e-05,9.6e-05,0.000105,9.9e-05,3e-06,7e-06,39.061057,0.0,1.352785,5.424,0.0,moving back to original position with cardboard box,"[[[ 84  80  69]
  [ 79  75  64]
  [ 81  72  63]
  ...
  [107 102  96]
  [112 107 101]
  [112 107 101]]

 [[ 75  71  60]
  [ 78  74  63]
  [ 73  66  56]
  ...
  [102  97  91]
  [109 104  98]
  [111 106 100]]

 [[ 75  72  63]
  [ 72  68  59]
  [ 75  68  60]
  ...
  [100  95  89]
  [107 102  96]
  [110 105  99]]

 ...

 [[169 148 131]
  [166 147 130]
  [169 152 136]
  ...
  [145 139 113]
  [145 139 113]
  [145 139 113]]

 [[171 149 126]
  [168 148 124]
  [164 146 124]
  ...
  [145 139 113]
  [145 140 111]
  [145 140 111]]

 [[169 145 121]
  [169 147 123]
  [169 149 125]
  ...
  [145 139 113]
  [145 140 111]
  [145 140 111]]]","[[[ 60  64  73]
  [ 58  65  73]
  [ 58  65  73]
  ...
  [153 148 155]
  [154 148 158]
  [155 149 159]]

 [[ 61  65  74]
  [ 60  67  75]
  [ 60  67  75]
  ...
  [155 150 157]
  [155 149 159]
  [155 149 159]]

 [[ 62  66  75]
  [ 62  69  77]
  [ 63  70  78]
  ...
  [157 152 158]
  [156 151 158]
  [155 150 157]]

 ...

 [[ 58  67  64]
  [ 60  69  66]
  [ 60  69  66]
  ...
  [ 59  65  55]
  [ 60  65  58]
  [ 61  66  59]]

 [[ 56  65  62]
  [ 58  67  64]
  [ 58  67  64]
  ...
  [ 57  63  53]
  [ 58  63  56]
  [ 59  64  57]]

 [[ 54  63  60]
  [ 55  64  61]
  [ 56  65  62]
  ...
  [ 58  64  54]
  [ 58  63  56]
  [ 59  64  57]]]"
1726691786.074166,0.932858,-1.633486,1.841779,-2.25126,-1.281552,-0.44958,-0.176598,-0.462979,0.404483,-2.596772,0.025611,3.035278,9.6e-05,4e-05,8.2e-05,2e-05,5.1e-05,-7e-06,39.061057,0.0,1.352785,5.424,0.0,moving back to original position with cardboard box,"[[[ 79  76  69]
  [ 83  80  71]
  [ 77  70  62]
  ...
  [108 105  98]
  [110 107 100]
  [112 109 102]]

 [[ 76  73  68]
  [ 76  73  66]
  [ 79  72  64]
  ...
  [102  99  92]
  [105 102  95]
  [107 104  97]]

 [[ 79  75  72]
  [ 69  65  62]
  [ 73  65  62]
  ...
  [101  96  90]
  [104  99  93]
  [107 102  96]]

 ...

 [[168 147 130]
  [165 146 129]
  [167 150 134]
  ...
  [147 139 118]
  [146 138 117]
  [145 137 116]]

 [[171 144 123]
  [168 143 123]
  [166 143 125]
  ...
  [146 138 117]
  [146 138 117]
  [145 137 116]]

 [[172 144 122]
  [170 144 121]
  [170 145 125]
  ...
  [146 138 117]
  [147 139 118]
  [146 138 117]]]","[[[ 61  68  76]
  [ 61  68  76]
  [ 61  68  76]
  ...
  [152 152 154]
  [152 152 154]
  [152 152 154]]

 [[ 61  68  76]
  [ 61  68  76]
  [ 61  68  76]
  ...
  [152 152 154]
  [152 152 154]
  [152 152 154]]

 [[ 60  69  76]
  [ 60  69  76]
  [ 60  69  76]
  ...
  [153 153 155]
  [153 153 155]
  [153 153 155]]

 ...

 [[ 56  70  71]
  [ 53  67  68]
  [ 55  69  70]
  ...
  [ 61  68  61]
  [ 61  68  61]
  [ 61  68  61]]

 [[ 56  70  71]
  [ 53  67  68]
  [ 56  70  71]
  ...
  [ 59  66  59]
  [ 57  63  59]
  [ 56  62  58]]

 [[ 53  67  68]
  [ 51  65  66]
  [ 55  69  70]
  ...
  [ 57  64  57]
  [ 56  62  58]
  [ 55  61  57]]]"
1726691786.170166,0.925996,-1.684655,1.845311,-2.201371,-1.278104,-0.456129,-0.168607,-0.447263,0.420719,-2.597089,0.025891,3.035232,4.8e-05,3.4e-05,0.000157,0.000332,-0.000227,3.6e-05,39.061057,0.0,1.352785,5.424,0.0,moving back to original position with cardboard box,"[[[ 74  76  65]
  [ 80  80  70]
  [ 75  73  61]
  ...
  [107 102  96]
  [109 105  96]
  [115 111 102]]

 [[ 76  78  67]
  [ 72  72  62]
  [ 73  71  59]
  ...
  [101  97  88]
  [105 101  92]
  [109 105  96]]

 [[ 71  73  62]
  [ 74  74  64]
  [ 64  62  50]
  ...
  [101  94  86]
  [106  99  91]
  [109 102  92]]

 ...

 [[169 148 131]
  [171 149 135]
  [171 152 138]
  ...
  [145 137 116]
  [145 137 116]
  [146 138 117]]

 [[175 148 131]
  [171 145 128]
  [167 144 128]
  ...
  [145 137 116]
  [145 137 116]
  [146 138 117]]

 [[172 143 125]
  [169 142 123]
  [170 143 126]
  ...
  [145 137 116]
  [145 137 116]
  [146 138 117]]]","[[[ 58  71  77]
  [ 57  70  76]
  [ 56  69  75]
  ...
  [157 153 154]
  [157 153 154]
  [156 152 153]]

 [[ 58  71  77]
  [ 58  71  77]
  [ 57  70  76]
  ...
  [157 153 154]
