correlllab/MAGPIE/datasets/csv/red handle_trajectory.csv
timestamp,q0,q1,q2,q3,q4,q5,x,y,z,rx,ry,rz,dx,dy,dz,drx,dry,drz,aperture,d_aperture,contact_force,applied_force,d_applied_force,task,img,wrist_img
1726695292.948981,0.896822,-1.849584,1.82863,-2.011833,-1.263878,-0.484857,-0.14097,-0.39277,0.477339,-2.596795,0.025682,3.035709,-8e-06,1.8e-05,3.8e-05,2.1e-05,-4e-06,-0.000134,31.721966,0.0,0.0,0.0,0.0,moving to grasp red handle,"[[[ 86  70  70]
  [ 91  77  76]
  [ 89  75  75]
  ...
  [121  95  60]
  [122  96  61]
  [121  95  60]]

 [[ 87  71  71]
  [ 89  75  74]
  [ 85  73  73]
  ...
  [119  93  58]
  [119  93  58]
  [118  92  57]]

 [[ 90  76  75]
  [ 90  76  75]
  [ 85  73  73]
  ...
  [119  93  60]
  [119  93  60]
  [118  92  59]]

 ...

 [[193 152 106]
  [195 154 108]
  [195 154 108]
  ...
  [149 138 120]
  [150 139 121]
  [152 141 123]]

 [[193 152 108]
  [194 153 109]
  [194 153 109]
  ...
  [149 138 120]
  [150 139 121]
  [151 140 122]]

 [[196 155 111]
  [196 155 111]
  [195 154 110]
  ...
  [148 137 119]
  [149 138 120]
  [150 139 121]]]","[[[ 54  63  60]
  [ 55  64  61]
  [ 54  63  60]
  ...
  [137 133 130]
  [137 133 130]
  [139 135 132]]

 [[ 55  64  63]
  [ 56  65  62]
  [ 55  64  63]
  ...
  [138 134 131]
  [139 135 132]
  [139 135 132]]

 [[ 54  64  65]
  [ 54  64  63]
  [ 53  63  64]
  ...
  [138 134 133]
  [140 136 135]
  [139 135 134]]

 ...

 [[ 56  62  58]
  [ 56  62  58]
  [ 54  61  54]
  ...
  [ 72  73  65]
  [ 74  75  67]
  [ 72  73  65]]

 [[ 56  62  58]
  [ 56  62  58]
  [ 54  61  54]
  ...
  [ 65  66  58]
  [ 70  70  62]
  [ 71  71  63]]

 [[ 54  60  56]
  [ 55  61  57]
  [ 54  61  54]
  ...
  [ 60  61  53]
  [ 67  67  59]
  [ 69  69  61]]]"
1726695293.044981,0.896929,-1.849176,1.828786,-2.012721,-1.263998,-0.484678,-0.141048,-0.392921,0.477202,-2.596581,0.025511,3.035621,-4.2e-05,-8.1e-05,-0.000117,-0.000193,0.000168,-4.5e-05,31.721966,0.0,0.0,0.0,0.0,moving to grasp red handle,"[[[ 86  70  70]
  [ 91  77  76]
  [ 89  75  75]
  ...
  [121  95  60]
  [122  96  61]
  [121  95  60]]

 [[ 87  71  71]
  [ 89  75  74]
  [ 85  73  73]
  ...
  [119  93  58]
  [119  93  58]
  [118  92  57]]

 [[ 90  76  75]
  [ 90  76  75]
  [ 85  73  73]
  ...
  [119  93  60]
  [119  93  60]
  [118  92  59]]

 ...

 [[193 152 106]
  [195 154 108]
  [195 154 108]
  ...
  [149 138 120]
  [150 139 121]
  [152 141 123]]

 [[193 152 108]
  [194 153 109]
  [194 153 109]
  ...
  [149 138 120]
  [150 139 121]
  [151 140 122]]

 [[196 155 111]
  [196 155 111]
  [195 154 110]
  ...
  [148 137 119]
  [149 138 120]
  [150 139 121]]]","[[[ 54  63  60]
  [ 55  64  61]
  [ 54  63  60]
  ...
  [137 133 130]
  [137 133 130]
  [139 135 132]]

 [[ 55  64  63]
  [ 56  65  62]
  [ 55  64  63]
  ...
  [138 134 131]
  [139 135 132]
  [139 135 132]]

 [[ 54  64  65]
  [ 54  64  63]
  [ 53  63  64]
  ...
  [138 134 133]
  [140 136 135]
  [139 135 134]]

 ...

 [[ 56  62  58]
  [ 56  62  58]
  [ 54  61  54]
  ...
  [ 72  73  65]
  [ 74  75  67]
  [ 72  73  65]]

 [[ 56  62  58]
  [ 56  62  58]
  [ 54  61  54]
  ...
  [ 65  66  58]
  [ 70  70  62]
  [ 71  71  63]]

 [[ 54  60  56]
  [ 55  61  57]
  [ 54  61  54]
  ...
  [ 60  61  53]
  [ 67  67  59]
  [ 69  69  61]]]"
1726695293.140981,0.898714,-1.84198,1.831397,-2.02337,-1.264753,-0.483118,-0.142269,-0.39551,0.474271,-2.596256,0.02531,3.035817,-1.1e-05,-0.000128,-0.000264,-0.000518,0.000369,-0.000239,31.721966,0.0,0.0,0.0,0.0,moving to grasp red handle,"[[[ 87  75  75]
  [ 86  74  74]
  [ 85  74  72]
  ...
  [119  90  60]
  [122  91  62]
  [127  96  67]]

 [[ 85  73  73]
  [ 86  74  74]
  [ 86  75  73]
  ...
  [121  92  62]
  [123  92  63]
  [125  94  65]]

 [[ 83  73  72]
  [ 85  75  74]
  [ 85  75  73]
  ...
  [120  93  63]
  [123  94  64]
  [122  93  63]]

 ...

 [[193 151 101]
  [193 151 101]
  [192 152 103]
  ...
  [149 138 118]
  [150 139 121]
  [152 141 123]]

 [[194 153 101]
  [194 152 102]
  [194 152 104]
  ...
  [150 139 119]
  [151 138 121]
  [150 137 120]]

 [[195 154 102]
  [195 154 102]
  [196 154 106]
  ...
  [151 140 120]
  [151 138 121]
  [148 135 118]]]","[[[ 54  60  56]
  [ 55  61  57]
  [ 56  62  60]
  ...
  [139 134 138]
  [138 133 139]
  [140 135 141]]

 [[ 56  62  58]
  [ 56  62  58]
  [ 57  63  61]
  ...
  [138 133 137]
  [138 133 139]
  [142 137 143]]

 [[ 56  65  62]
  [ 55  64  61]
  [ 55  64  61]
  ...
  [138 133 137]
  [139 134 138]
  [144 139 143]]

 ...

 [[ 52  64  52]
  [ 50  62  50]
  [ 48  60  50]
  ...
  [ 73  76  67]
  [ 71  74  67]
  [ 67  70  61]]

 [[ 52  66  51]
  [ 49  63  50]
  [ 48  60  50]
  ...
  [ 66  69  58]
  [ 66  69  60]
  [ 66  69  58]]

 [[ 52  66  51]
  [ 49  63  48]
  [ 49  61  51]
  ...
  [ 58  61  50]
  [ 61  64  53]
  [ 64  67  56]]]"
1726695293.236981,0.902738,-1.82628,1.837109,-2.045375,-1.266597,-0.479076,-0.144775,-0.401075,0.467644,-2.5967,0.025719,3.0357,9e-06,-7.6e-05,-7.4e-05,-7.6e-05,-4e-05,-0.000119,31.721966,0.0,0.0,0.0,0.0,moving to grasp red handle,"[[[ 80  76  75]
  [ 84  80  79]
  [ 86  82  79]
  ...
  [118  92  55]
  [119  93  56]
  [121  95  58]]

 [[ 79  75  74]
  [ 80  76  75]
  [ 81  77  74]
  ...
  [119  93  56]
  [119  93  56]
  [120  94  57]]

 [[ 80  74  74]
  [ 80  74  74]
  [ 79  73  73]
  ...
  [119  93  56]
  [119  93  58]
  [119  93  58]]

 ...

 [[193 153 104]
  [194 154 105]
  [194 153 107]
  ...
  [147 139 120]
  [148 140 121]
  [148 140 121]]

 [[194 154 105]
  [194 154 105]
  [193 153 104]
  ...
  [146 138 119]
  [147 139 120]
  [149 141 122]]

 [[196 156 107]
  [195 155 106]
  [194 154 105]
  ...
  [145 137 118]
  [147 139 120]
  [149 141 122]]]","[[[ 53  69  58]
  [ 53  69  58]
  [ 53  66  56]
  ...
  [137 132 136]
  [139 134 138]
  [139 134 138]]

 [[ 52  68  58]
  [ 52  68  58]
  [ 53  66  57]
  ...
  [136 131 135]
  [138 133 137]
  [140 135 139]]

 [[ 53  66  59]
  [ 53  66  59]
  [ 53  66  59]
  ...
  [136 131 135]
  [138 133 137]
  [140 135 139]]

 ...

 [[ 55  63  50]
  [ 56  64  51]
  [ 56  64  53]
  ...
  [ 69  72  63]
  [ 72  75  66]
  [ 73  76  67]]

 [[ 55  63  52]
  [ 56  64  53]
  [ 56  64  53]
  ...
  [ 62  68  58]
  [ 64  70  60]
  [ 66  72  62]]

 [[ 54  62  51]
  [ 56  64  53]
  [ 56  64  53]
  ...
  [ 59  65  55]
  [ 60  66  56]
  [ 61  67  57]]]"
1726695293.332981,0.908678,-1.802185,1.844581,-2.07876,-1.269471,-0.473246,-0.148484,-0.409432,0.457896,-2.596606,0.025641,3.0356,-6.6e-05,-0.000107,-0.000122,-0.00017,3.7e-05,-1.2e-05,31.721966,0.0,0.0,0.0,0.0,moving to grasp red handle,"[[[ 84  73  69]
  [ 86  75  71]
  [ 88  79  74]
  ...
  [115  92  61]
  [116  91  61]
  [119  94  64]]

 [[ 86  75  71]
  [ 87  76  72]
  [ 88  79  74]
  ...
  [116  93  62]
  [117  92  62]
  [119  94  64]]

 [[ 87  76  74]
  [ 87  76  74]
  [ 87  78  73]
  ...
  [116  93  62]
  [118  93  63]
  [121  96  66]]

 ...

 [[189 151 106]
  [190 152 107]
  [192 150 108]
  ...
  [146 138 119]
  [146 138 119]
  [148 140 121]]

 [[191 153 108]
  [191 153 108]
  [192 150 108]
  ...
  [145 139 117]
  [145 139 117]
  [146 140 118]]

 [[193 155 110]
  [191 153 108]
  [192 150 108]
  ...
  [145 139 117]
  [145 139 117]
  [146 140 118]]]","[[[ 55  63  65]
  [ 56  64  66]
  [ 56  64  66]
  ...
  [135 131 130]
  [136 132 131]
  [138 134 133]]

 [[ 55  63  65]
  [ 57  65  67]
  [ 56  64  66]
  ...
  [136 132 131]
  [137 133 132]
  [139 135 134]]

 [[ 55  64  63]
  [ 56  65  64]
  [ 56  65  64]
  ...
  [135 131 130]
  [136 132 131]
  [138 134 133]]

 ...

 [[ 52  61  56]
  [ 53  62  57]
  [ 53  63  55]
  ...
  [ 63  65  51]
  [ 67  69  55]
  [ 66  68  54]]

 [[ 51  60  55]
  [ 52  61  56]
  [ 52  61  56]
  ...
  [ 66  68  55]
  [ 70  72  59]
  [ 69  71  58]]

 [[ 52  61  56]
  [ 53  62  57]
  [ 52  61  56]
  ...
  [ 61  63  50]
  [ 62  64  51]
  [ 60  62  49]]]"
1726695293.42898,0.91596,-1.768604,1.852783,-2.122754,-1.273063,-0.466013,-0.153588,-0.420648,0.444777,-2.596505,0.025568,3.035385,-4.4e-05,-0.000156,-0.000156,-0.000272,0.000111,0.000211,31.721966,0.0,0.0,0.0,0.0,moving to grasp red handle,"[[[ 82  72  71]
  [ 87  77  76]
  [ 87  77  75]
  ...
  [119  93  60]
  [117  88  56]
  [121  92  60]]

 [[ 85  75  74]
  [ 88  78  77]
  [ 87  77  75]
  ...
  [118  92  59]
  [119  90  58]
  [122  93  61]]

 [[ 82  72  71]
  [ 82  72  71]
  [ 83  73  72]
  ...
  [118  91  61]
  [122  93  63]
  [122  93  63]]

 ...

 [[197 152 111]
  [197 152 111]
  [195 152 110]
  ...
  [147 139 120]
  [145 138 119]
  [148 141 122]]

 [[200 152 112]
  [197 152 111]
  [195 152 110]
  ...
  [147 139 120]
  [146 139 120]
  [147 140 121]]

 [[199 151 111]
  [197 152 111]
  [196 151 110]
  ...
  [147 139 120]
  [147 140 121]
  [147 140 121]]]","[[[ 58  63  67]
  [ 57  62  66]
  [ 58  63  67]
  ...
  [137 128 133]
  [137 128 133]
  [138 129 134]]

 [[ 58  63  67]
  [ 57  62  66]
  [ 58  63  67]
  ...
  [138 129 134]
  [137 128 133]
  [138 129 134]]

 [[ 58  63  67]
  [ 57  62  66]
  [ 57  62  66]
  ...
  [139 130 135]
  [138 129 134]
  [139 130 135]]

 ...

 [[ 53  57  56]
  [ 52  56  55]
  [ 53  58  54]
  ...
  [ 53  55  42]
  [ 58  60  47]
  [ 64  66  53]]

 [[ 56  58  57]
  [ 57  59  58]
  [ 55  60  56]
  ...
  [ 53  55  42]
  [ 59  61  48]
  [ 64  66  53]]

 [[ 57  59  58]
  [ 60  62  61]
  [ 58  63  59]
  ...
  [ 57  59  46]
  [ 60  62  49]
  [ 62  64  51]]]"
1726695293.52498,0.924522,-1.724662,1.860052,-2.176107,-1.277181,-0.457928,-0.159978,-0.434758,0.428263,-2.596669,0.025603,3.035534,-4e-06,-0.000125,-8.2e-05,-0.00011,7.6e-05,7.4e-05,31.721966,0.0,0.0,0.0,0.0,moving to grasp red handle,"[[[ 83  74  67]
  [ 84  75  68]
  [ 85  76  71]
  ...
  [120  94  59]
  [120  92  55]
  [120  92  55]]

 [[ 85  76  69]
  [ 86  77  70]
  [ 87  78  73]
  ...
  [116  90  55]
  [119  90  56]
  [121  93  56]]

 [[ 84  75  70]
  [ 85  76  71]
  [ 85  75  73]
  ...
  [116  90  55]
  [121  92  58]
  [123  94  60]]

 ...

 [[192 151 107]
  [194 153 109]
  [192 154 109]
  ...
  [149 138 116]
  [151 139 117]
  [157 142 121]]

 [[191 153 108]
  [192 154 109]
  [192 154 109]
  ...
  [151 141 116]
  [154 142 118]
  [156 144 120]]

 [[192 154 109]
  [192 154 109]
  [191 153 108]
  ...
  [148 138 113]
  [151 139 115]
  [152 140 116]]]","[[[ 54  66  62]
  [ 54  66  62]
  [ 54  66  62]
  ...
  [140 136 135]
  [139 135 134]
  [138 134 133]]

 [[ 54  66  62]
  [ 54  66  62]
  [ 54  66  62]
  ...
  [139 135 134]
  [138 134 133]
  [137 133 132]]

 [[ 54  66  62]
  [ 54  66  62]
  [ 54  66  62]
  ...
  [141 137 136]
  [139 135 134]
  [138 134 133]]

 ...

 [[ 53  63  64]
  [ 53  63  62]
  [ 54  63  62]
  ...
  [ 60  62  49]
  [ 61  63  50]
  [ 59  61  48]]

 [[ 53  63  62]
  [ 53  63  62]
  [ 53  63  62]
  ...
  [ 57  59  46]
  [ 58  60  47]
  [ 57  59  46]]

 [[ 53  63  62]
  [ 53  63  62]
  [ 53  64  60]
  ...
  [ 56  58  45]
  [ 56  58  45]
  [ 55  57  44]]]"
1726695293.62098,0.933097,-1.676165,1.864075,-2.231074,-1.281384,-0.449784,-0.166696,-0.449765,0.410819,-2.596559,0.025473,3.035611,-4.3e-05,-9.7e-05,-0.00013,-0.000222,0.000207,7e-06,31.721966,0.0,0.0,0.0,0.0,moving to grasp red handle,"[[[ 79  74  70]
  [ 80  75  71]
  [ 83  78  75]
  ...
  [120  95  64]
  [120  93  63]
  [118  91  61]]

 [[ 80  75  71]
  [ 81  76  72]
  [ 83  78  75]
  ...
  [118  93  62]
  [119  92  62]
  [119  92  62]]

 [[ 81  76  72]
  [ 82  77  73]
  [ 83  78  75]
  ...
  [117  92  61]
  [120  93  63]
  [121  94  64]]

 ...

 [[196 155 111]
  [195 154 110]
  [195 154 110]
  ...
  [151 140 120]
  [148 140 119]
  [152 144 123]]

 [[196 155 111]
  [196 155 111]
  [196 155 111]
  ...
  [150 139 119]
  [147 139 118]
  [150 142 121]]

 [[194 153 109]
  [194 153 109]
  [192 151 107]
  ...
  [150 139 119]
  [147 139 118]
  [148 140 119]]]","[[[ 52  68  68]
  [ 49  65  65]
  [ 51  67  67]
  ...
  [143 139 140]
  [143 139 140]
  [143 139 140]]

 [[ 51  67  67]
  [ 49  65  65]
  [ 50  66  66]
  ...
  [143 139 140]
  [143 139 140]
  [143 139 140]]

 [[ 50  66  65]
  [ 52  68  67]
  [ 52  66  66]
  ...
  [142 138 139]
  [141 137 138]
  [141 137 138]]

 ...

 [[ 56  62  60]
  [ 57  63  61]
  [ 57  63  59]
  ...
  [ 59  65  55]
  [ 62  65  56]
  [ 64  67  58]]

 [[ 54  60  58]
  [ 55  61  59]
  [ 56  62  60]
  ...
  [ 55  58  49]
  [ 58  59  51]
  [ 60  61  53]]

 [[ 52  58  56]
  [ 54  60  58]
  [ 55  61  59]
  ...
  [ 53  56  47]
  [ 54  55  47]
  [ 53  54  46]]]"
1726695293.71698,0.940953,-1.625884,1.864374,-2.283864,-1.285252,-0.442191,-0.173464,-0.464787,0.393347,-2.596447,0.025454,3.035568,-3.2e-05,-5.4e-05,-0.000149,-0.000336,0.000226,6.2e-05,31.721966,0.0,0.0,0.0,0.0,moving to grasp red handle,"[[[ 86  79  71]
  [ 84  77  69]
  [ 84  79  73]
  ...
  [121  91  63]
  [124  93  65]
  [125  94  66]]

 [[ 84  77  69]
  [ 83  76  68]
  [ 82  77  71]
  ...
  [121  91  63]
  [122  91  63]
  [123  92  64]]

 [[ 81  74  66]
  [ 83  76  68]
  [ 81  76  70]
  ...
  [119  92  62]
  [121  92  62]
  [121  92  62]]

 ...

 [[195 152 109]
  [195 152 109]
  [194 151 108]
  ...
  [146 138 117]
  [147 139 116]
  [149 141 118]]

 [[197 153 108]
  [197 153 108]
  [196 152 107]
  ...
  [147 139 118]
  [148 140 117]
  [148 140 117]]

 [[197 153 106]
  [198 154 107]
  [197 153 106]
  ...
  [147 139 118]
  [149 141 120]
  [149 141 118]]]","[[[ 56  62  60]
  [ 56  62  60]
  [ 56  62  60]
  ...
  [139 135 136]
  [138 134 135]
  [137 133 134]]

 [[ 54  60  58]
  [ 55  61  59]
  [ 57  63  61]
  ...
  [140 136 137]
  [139 135 136]
  [136 132 133]]

 [[ 54  60  58]
  [ 55  61  59]
  [ 57  63  61]
  ...
  [140 136 137]
  [140 136 137]
  [136 132 133]]

 ...

 [[ 54  60  58]
  [ 55  61  57]
  [ 56  62  60]
  ...
  [ 59  63  48]
  [ 61  65  50]
  [ 60  64  49]]

 [[ 53  59  59]
  [ 55  61  59]
  [ 56  62  62]
  ...
  [ 54  58  43]
  [ 58  62  47]
  [ 56  60  45]]

 [[ 52  58  58]
  [ 55  61  61]
  [ 56  62  62]
  ...
  [ 49  53  38]
  [ 51  55  40]
  [ 51  55  40]]]"
1726695293.81298,0.948139,-1.574045,1.861201,-2.334045,-1.288808,-0.435282,-0.180273,-0.479786,0.375687,-2.596749,0.02568,3.035543,1.9e-05,-3.5e-05,2e-05,-3.5e-05,1e-06,9.7e-05,31.721966,0.0,0.0,0.0,0.0,moving to grasp red handle,"[[[ 88  72  72]
  [ 87  73  72]
  [ 87  73  72]
  ...
  [123  92  64]
  [125  91  64]
  [126  92  65]]

 [[ 87  71  71]
  [ 86  72  71]
  [ 85  74  72]
  ...
  [121  90  62]
  [123  89  62]
  [124  90  63]]

 [[ 85  71  71]
  [ 84  72  72]
  [ 85  74  72]
  ...
  [122  92  64]
  [124  93  65]
  [125  94  66]]

 ...

 [[193 154 111]
  [193 154 111]
  [193 154 111]
  ...
  [146 138 117]
  [147 139 118]
  [150 142 121]]

 [[194 155 112]
  [193 154 111]
  [192 153 110]
  ...
  [147 139 118]
  [148 140 119]
  [151 143 122]]

 [[194 155 112]
  [193 154 111]
  [191 152 109]
  ...
  [145 137 116]
  [147 139 118]
  [149 141 120]]]","[[[ 55  60  53]
  [ 55  60  53]
  [ 54  61  54]
  ...
  [137 133 134]
  [138 134 135]
  [139 135 136]]

 [[ 57  62  55]
  [ 56  61  54]
  [ 55  62  55]
  ...
  [137 133 134]
  [138 134 135]
  [139 135 136]]

 [[ 57  64  57]
  [ 57  64  57]
  [ 57  63  59]
  ...
  [140 136 137]
  [141 137 138]
  [141 137 138]]

 ...

 [[ 53  59  55]
  [ 56  62  58]
  [ 55  61  57]
  ...
  [ 60  64  50]
  [ 56  62  50]
  [ 55  61  49]]

 [[ 54  59  52]
  [ 56  61  54]
  [ 54  59  52]
  ...
  [ 56  59  48]
  [ 54  60  50]
  [ 55  61  51]]

 [[ 53  59  49]
  [ 54  60  50]
  [ 51  57  47]
  ...
  [ 49  52  41]
  [ 52  55  46]
  [ 54  60  50]]]"
1726695293.90898,0.954894,-1.521119,1.854208,-2.381581,-1.292173,-0.428901,-0.187035,-0.494776,0.358154,-2.596854,0.025744,3.035604,2.4e-05,-2.4e-05,6.1e-05,6.8e-05,-6.3e-05,4.8e-05,31.721966,0.0,0.0,0.0,0.0,moving to grasp red handle,"[[[ 90  73  81]
  [ 91  74  82]
  [ 90  75  80]
  ...
  [120  95  65]
  [120  95  64]
  [119  94  63]]

 [[ 88  71  79]
  [ 88  73  78]
  [ 89  74  79]
  ...
  [121  96  66]
  [121  96  65]
  [121  96  65]]

 [[ 85  70  75]
  [ 87  72  77]
  [ 89  74  79]
  ...
  [117  92  62]
  [118  93  63]
  [118  93  63]]

 ...

 [[191 150 106]
  [194 153 109]
  [194 153 109]
  ...
  [151 140 122]
  [152 140 124]
  [152 140 124]]

 [[192 151 107]
  [196 155 111]
  [195 154 110]
  ...
  [150 139 121]
  [151 139 123]
  [152 140 124]]

 [[194 153 109]
  [197 156 112]
  [196 155 111]
  ...
  [146 135 117]
  [148 136 120]
  [149 137 121]]]","[[[ 52  63  65]
  [ 52  64  64]
  [ 55  65  66]
  ...
  [137 133 132]
  [138 134 133]
  [140 136 135]]

 [[ 52  63  65]
  [ 51  63  63]
  [ 54  64  63]
  ...
  [136 132 131]
  [139 135 134]
  [141 137 136]]

 [[ 53  65  65]
  [ 52  64  64]
  [ 54  64  63]
  ...
  [135 131 130]
  [137 133 132]
  [138 134 133]]

 ...

 [[ 54  58  57]
  [ 55  59  58]
  [ 53  57  56]
  ...
  [ 60  62  51]
  [ 60  62  51]
  [ 61  63  52]]

 [[ 56  60  59]
  [ 55  59  58]
  [ 53  57  58]
  ...
  [ 55  57  44]
  [ 58  60  47]
  [ 59  61  48]]

 [[ 53  57  56]
  [ 52  56  55]
  [ 54  58  59]
  ...
  [ 52  54  41]
  [ 53  55  42]
  [ 54  56  43]]]"
1726695294.00498,0.961157,-1.467261,1.843539,-2.426414,-1.295346,-0.42294,-0.193813,-0.509751,0.340672,-2.596806,0.025727,3.035598,4.5e-05,-2.8e-05,5.1e-05,1.8e-05,-4.6e-05,6.5e-05,31.721966,0.0,0.0,0.0,0.0,moving to grasp red handle,"[[[ 85  76  69]
  [ 84  75  68]
  [ 85  76  69]
  ...
  [120  95  64]
  [121  94  67]
  [121  94  67]]

 [[ 86  77  70]
  [ 85  76  69]
  [ 85  76  69]
  ...
  [117  92  61]
  [118  91  62]
  [119  92  65]]

 [[ 86  79  71]
  [ 85  78  70]
  [ 85  78  72]
  ...
  [116  91  60]
  [118  91  62]
  [119  92  63]]

 ...

 [[196 153 110]
  [194 151 108]
  [192 149 106]
  ...
  [150 139 119]
  [150 139 119]
  [149 138 118]]

 [[197 154 111]
  [195 152 109]
  [193 150 107]
  ...
  [149 138 118]
  [149 138 118]
  [149 138 118]]

 [[197 154 111]
  [196 153 110]
  [194 151 108]
  ...
  [146 135 115]
  [148 137 117]
  [149 138 118]]]","[[[ 54  65  61]
  [ 55  66  62]
  [ 56  67  61]
  ...
  [138 134 131]
  [140 136 135]
  [133 129 128]]

 [[ 53  64  60]
  [ 52  63  59]
  [ 53  64  60]
  ...
  [138 134 131]
  [141 137 136]
  [136 132 131]]

 [[ 53  63  62]
  [ 52  63  59]
  [ 51  63  59]
  ...
  [138 134 131]
  [141 137 136]
  [139 135 134]]

 ...

 [[ 53  64  56]
  [ 51  63  53]
  [ 50  61  53]
  ...
  [ 44  49  42]
  [ 46  51  44]
  [ 52  57  50]]

 [[ 52  65  58]
  [ 52  65  56]
  [ 51  64  57]
  ...
  [ 45  50  44]
  [ 46  53  46]
  [ 53  60  53]]

 [[ 52  65  58]
  [ 53  66  59]
  [ 52  65  58]
  ...
  [ 49  54  48]
  [ 48  54  50]
  [ 55  61  57]]]"
1726695294.10098,0.967097,-1.412627,1.829313,-2.468255,-1.298411,-0.417422,-0.20055,-0.524734,0.323156,-2.596866,0.025672,3.035669,2.5e-05,-2.5e-05,7.6e-05,7.7e-05,1e-05,5e-06,31.721966,0.0,0.0,0.0,0.0,moving to grasp red handle,"[[[ 81  73  62]
  [ 81  73  62]
  [ 83  75  64]
  ...
  [118  90  68]
  [121  91  67]
  [124  94  70]]

 [[ 82  73  64]
  [ 81  72  63]
  [ 81  72  63]
  ...
  [118  90  66]
  [121  91  67]
  [124  94  70]]

 [[ 85  74  68]
  [ 83  72  66]
  [ 81  72  65]
  ...
  [117  90  63]
  [120  90  64]
  [123  93  67]]

 ...

 [[192 150 110]
  [194 152 112]
  [194 152 110]
  ...
  [146 138 117]
  [145 137 118]
  [148 140 121]]

 [[194 152 114]
  [194 152 112]
  [194 152 110]
  ...
  [146 138 119]
  [147 139 120]
  [147 139 120]]

 [[195 153 115]
  [194 152 112]
  [192 150 110]
  ...
  [146 138 119]
  [148 140 121]
  [146 138 119]]]","[[[ 60  68  71]
  [ 60  68  71]
  [ 61  69  71]
  ...
  [132 132 132]
  [132 134 133]
  [131 133 132]]

 [[ 58  66  69]
  [ 57  65  68]
  [ 59  67  69]
  ...
  [132 132 132]
  [132 134 133]
  [130 132 131]]

 [[ 57  65  68]
  [ 56  64  67]
  [ 57  65  67]
  ...
  [132 132 132]
  [133 133 133]
  [131 131 131]]

 ...

 [[ 51  60  55]
  [ 53  62  57]
  [ 52  61  56]
  ...
  [ 55  61  49]
  [ 49  55  45]
  [ 44  50  40]]

 [[ 52  62  54]
  [ 53  63  55]
  [ 52  62  54]
  ...
  [ 54  57  46]
  [ 50  53  44]
  [ 47  50  41]]

 [[ 52  62  54]
  [ 53  63  55]
  [ 52  62  54]
  ...
  [ 49  52  41]
  [ 49  52  43]
  [ 50  53  44]]]"
1726695294.19698,0.972582,-1.358703,1.81189,-2.505967,-1.301177,-0.412312,-0.207111,-0.539392,0.306066,-2.596974,0.025742,3.035737,8e-06,4.9e-05,0.000136,0.000183,-6e-05,-5.2e-05,31.721966,0.0,0.0,0.0,0.0,moving to grasp red handle,"[[[ 77  74  67]
  [ 76  73  66]
  [ 79  74  71]
  ...
  [118  91  62]
  [120  90  62]
  [120  90  62]]

 [[ 77  74  67]
  [ 76  73  66]
  [ 79  74  70]
  ...
  [118  91  62]
  [121  91  63]
  [120  90  62]]

 [[ 77  74  65]
  [ 76  73  66]
  [ 79  74  70]
  ...
  [119  92  63]
  [121  94  65]
  [120  93  64]]

 ...

 [[192 151 105]
  [193 152 106]
  [193 152 106]
  ...
  [150 139 119]
  [150 139 119]
  [151 140 120]]

 [[194 153 107]
  [194 153 107]
  [194 154 105]
  ...
  [150 139 119]
  [152 139 120]
  [152 139 120]]

 [[194 153 107]
  [194 153 107]
  [193 153 104]
  ...
  [148 137 117]
  [150 137 118]
  [150 137 118]]]","[[[ 55  62  68]
  [ 55  62  68]
  [ 54  62  65]
  ...
  [137 133 132]
  [136 132 131]
  [134 130 129]]

 [[ 54  61  67]
  [ 55  62  68]
  [ 55  63  66]
  ...
  [135 131 130]
  [135 131 130]
  [134 130 129]]

 [[ 54  62  65]
  [ 55  63  66]
  [ 55  63  66]
  ...
  [135 131 130]
  [135 131 130]
  [135 131 130]]

 ...

 [[ 49  60  54]
  [ 47  58  52]
  [ 49  58  53]
  ...
  [ 66  73  57]
  [ 65  71  57]
  [ 62  69  53]]

 [[ 47  59  55]
  [ 45  57  53]
  [ 47  58  52]
  ...
  [ 61  68  50]
  [ 60  67  51]
  [ 59  66  48]]

 [[ 47  59  55]
  [ 45  57  53]
  [ 48  59  53]
  ...
  [ 60  67  49]
  [ 62  69  51]
  [ 62  69  51]]]"
1726695294.29298,0.976702,-1.314144,1.795198,-2.534884,-1.303368,-0.408282,-0.212566,-0.551379,0.292009,-2.596966,0.025748,3.035573,3.5e-05,3e-06,0.000142,0.000173,-6.7e-05,0.000121,31.721966,0.0,0.0,0.0,0.0,moving to grasp red handle,"[[[ 79  75  64]
  [ 80  76  65]
  [ 81  77  68]
  ...
  [117  95  58]
  [117  93  57]
  [118  94  58]]

 [[ 80  76  67]
  [ 80  76  67]
  [ 81  77  68]
  ...
  [117  95  58]
  [118  94  58]
  [119  95  59]]

 [[ 79  74  68]
  [ 79  74  68]
  [ 79  74  68]
  ...
  [116  93  59]
  [117  93  59]
  [119  95  61]]

 ...

 [[193 152 108]
  [192 151 107]
  [194 153 109]
  ...
  [152 140 116]
  [150 138 114]
  [150 138 114]]

 [[194 153 109]
  [193 152 108]
  [194 153 109]
  ...
  [152 137 114]
  [150 135 112]
  [151 137 111]]

 [[195 154 110]
  [193 152 108]
  [194 153 109]
  ...
  [151 136 113]
  [151 137 111]
  [153 139 113]]]","[[[ 54  64  63]
  [ 51  61  60]
  [ 50  62  60]
  ...
  [135 135 135]
  [131 132 134]
  [132 133 135]]

 [[ 53  63  62]
  [ 51  61  60]
  [ 51  63  61]
  ...
  [135 135 135]
  [132 133 135]
  [132 133 135]]

 [[ 53  63  62]
  [ 52  62  61]
  [ 51  63  61]
  ...
  [134 134 136]
  [131 132 136]
  [131 132 136]]

 ...

 [[ 55  56  58]
  [ 53  57  58]
  [ 53  57  58]
  ...
  [ 63  71  58]
  [ 61  72  58]
  [ 62  73  57]]

 [[ 54  55  57]
  [ 52  56  57]
  [ 52  56  55]
  ...
  [ 61  69  54]
  [ 62  73  57]
  [ 61  72  55]]

 [[ 53  54  56]
  [ 51  55  56]
  [ 51  55  54]
  ...
  [ 60  68  53]
  [ 59  70  53]
  [ 59  70  53]]]"
1726695294.38898,0.97984,-1.280089,1.780865,-2.555501,-1.304697,-0.405439,-0.216639,-0.560566,0.281369,-2.596728,0.02586,3.035796,-2.3e-05,3.4e-05,9e-05,-6.6e-05,-0.000178,-9.4e-05,31.721966,0.0,0.0,0.0,0.0,moving to grasp red handle,"[[[ 84  75  70]
  [ 84  75  70]
  [ 83  74  69]
  ...
  [121  94  65]
  [122  95  66]
  [120  93  64]]

 [[ 85  76  71]
  [ 84  75  70]
  [ 82  73  68]
  ...
  [120  93  64]
  [121  94  65]
  [121  94  65]]

 [[ 83  74  69]
  [ 83  74  69]
  [ 83  72  68]
  ...
  [118  93  63]
  [119  94  64]
  [120  95  65]]

 ...

 [[193 152 108]
  [194 153 109]
  [194 153 109]
  ...
  [144 136 117]
  [144 136 117]
  [149 141 122]]

 [[193 152 108]
  [194 153 109]
  [194 153 109]
  ...
  [144 136 117]
  [146 138 119]
  [148 140 121]]

 [[193 152 108]
  [193 152 108]
  [194 153 109]
  ...
  [143 135 116]
  [146 138 119]
  [146 138 119]]]","[[[ 52  62  61]
  [ 54  64  63]
  [ 56  66  65]
  ...
  [137 133 132]
  [136 132 131]
  [136 132 131]]

 [[ 51  61  60]
  [ 54  64  63]
  [ 57  67  66]
  ...
  [137 133 132]
  [137 133 132]
  [138 134 133]]

 [[ 51  63  61]
  [ 54  66  64]
  [ 56  68  66]
  ...
  [136 132 133]
  [136 132 133]
  [138 134 135]]

 ...

 [[ 48  58  50]
  [ 49  59  51]
  [ 50  60  52]
  ...
  [ 61  67  57]
  [ 60  68  57]
  [ 55  63  52]]

 [[ 47  57  49]
  [ 48  58  50]
  [ 49  59  51]
  ...
  [ 61  67  57]
  [ 63  71  60]
  [ 54  64  53]]

 [[ 47  57  49]
  [ 47  57  49]
  [ 48  58  50]
  ...
  [ 56  64  53]
  [ 63  71  60]
  [ 58  68  57]]]"
1726695294.48498,0.981851,-1.256703,1.770244,-2.568789,-1.305775,-0.40358,-0.219492,-0.566847,0.274082,-2.596708,0.025799,3.035799,-3e-06,3.4e-05,4.3e-05,-8.6e-05,-0.000117,-9.2e-05,31.721966,0.0,0.0,0.0,0.0,moving to grasp red handle,"[[[ 82  72  71]
  [ 80  70  69]
  [ 81  71  72]
  ...
  [122  96  63]
  [123  94  62]
  [126  97  65]]

 [[ 82  72  71]
  [ 81  71  70]
  [ 81  71  70]
  ...
  [120  94  61]
  [122  93  61]
  [123  94  62]]

 [[ 82  72  70]
  [ 81  71  69]
  [ 81  71  69]
  ...
  [122  96  63]
  [124  95  63]
  [122  93  61]]

 ...

 [[192 151 107]
  [193 152 108]
  [193 152 108]
  ...
  [145 137 116]
  [147 139 118]
  [152 144 123]]

 [[195 154 110]
  [195 154 110]
  [194 153 109]
  ...
  [146 138 117]
  [148 140 119]
  [150 142 121]]

 [[196 155 111]
  [196 155 111]
  [195 154 110]
  ...
  [148 140 119]
  [149 141 120]
  [149 141 120]]]","[[[ 55  64  61]
  [ 57  66  63]
  [ 55  64  63]
  ...
  [137 133 132]
  [135 131 130]
  [136 132 131]]

 [[ 54  63  60]
  [ 56  65  62]
  [ 55  64  63]
  ...
  [139 135 134]
  [136 132 131]
  [136 132 131]]

 [[ 55  64  63]
  [ 57  66  65]
  [ 56  65  64]
  ...
  [138 134 133]
  [135 131 130]
  [136 132 131]]

 ...

 [[ 48  57  54]
  [ 47  56  53]
  [ 49  58  53]
  ...
  [ 59  64  57]
  [ 58  63  56]
  [ 59  65  55]]

 [[ 49  58  55]
  [ 47  56  53]
  [ 48  57  52]
  ...
  [ 61  67  55]
  [ 61  67  55]
  [ 61  67  55]]

 [[ 49  58  55]
  [ 48  57  54]
  [ 48  57  52]
  ...
  [ 61  67  55]
  [ 62  68  54]
  [ 61  67  53]]]"
1726695294.58098,0.982929,-1.244057,1.764221,-2.575768,-1.306338,-0.402716,-0.22103,-0.570251,0.270168,-2.596621,0.025675,3.03592,-1e-06,3.3e-05,-1.9e-05,-0.000174,8e-06,-0.000212,31.721966,0.0,0.0,0.0,0.0,moving to grasp red handle,"[[[ 79  76  69]
  [ 79  76  69]
  [ 77  76  72]
  ...
  [122  96  59]
  [121  95  60]
  [122  96  61]]

 [[ 80  77  70]
  [ 78  75  68]
  [ 76  75  70]
  ...
  [121  95  58]
  [119  93  58]
  [120  94  59]]

 [[ 80  77  68]
  [ 77  74  65]
  [ 78  75  68]
  ...
  [122  96  61]
  [120  94  61]
  [121  95  62]]

 ...

 [[193 151 109]
  [195 153 111]
  [196 154 112]
  ...
  [148 140 117]
  [145 138 112]
  [148 141 115]]

 [[194 152 110]
  [195 153 111]
  [194 152 110]
  ...
  [145 138 112]
  [144 138 112]
  [147 141 115]]

 [[194 152 110]
  [194 152 110]
  [193 151 109]
  ...
  [144 137 111]
  [144 138 112]
  [146 140 114]]]","[[[ 54  63  60]
  [ 55  64  61]
  [ 58  67  62]
  ...
  [134 134 134]
  [134 134 134]
  [134 134 134]]

 [[ 54  63  60]
  [ 54  63  60]
  [ 57  66  61]
  ...
  [134 134 134]
  [134 134 134]
  [134 134 134]]

 [[ 53  62  57]
  [ 54  63  58]
  [ 55  64  59]
  ...
  [132 132 132]
  [133 133 133]
  [133 133 133]]

 ...

 [[ 52  62  63]
  [ 50  60  61]
  [ 49  59  60]
  ...
  [ 55  61  51]
  [ 50  55  48]
  [ 50  55  48]]

 [[ 48  59  61]
  [ 47  59  59]
  [ 46  58  58]
  ...
  [ 61  67  55]
  [ 59  65  53]
  [ 60  66  56]]

 [[ 41  52  54]
  [ 41  52  54]
  [ 42  54  54]
  ...
  [ 61  67  53]
  [ 57  63  51]
  [ 61  67  55]]]"
1726695302.23339,0.982929,-1.244057,1.764221,-2.575768,-1.306338,-0.402716,-0.22103,-0.570251,0.270168,-2.596621,0.025675,3.03592,0.0,0.0,0.0,0.0,0.0,0.0,31.721966,-3.452358,0.103915,8.175,0.15,grasping red handle,"[[[ 87  77  68]
  [ 89  79  70]
  [ 90  81  74]
  ...
  [122  96  69]
  [122  95  68]
  [124  97  70]]

 [[ 88  78  69]
  [ 89  79  70]
  [ 90  81  74]
  ...
  [121  95  68]
  [121  94  67]
  [123  96  69]]

 [[ 89  79  70]
  [ 88  78  69]
  [ 90  81  74]
  ...
  [122  96  69]
  [123  96  67]
  [124  97  68]]

 ...

 [[193 151 109]
  [193 151 109]
  [192 150 108]
  ...
  [148 137 119]
  [147 139 120]
  [148 140 121]]

 [[194 152 112]
  [196 154 114]
  [194 152 110]
  ...
  [148 137 119]
  [147 139 120]
  [149 141 122]]

 [[193 151 111]
  [197 155 115]
  [195 153 111]
  ...
  [147 136 118]
  [145 137 118]
  [146 138 119]]]","[[[ 55  62  55]
  [ 52  59  52]
  [ 48  58  50]
  ...
  [152 147 144]
  [151 146 143]
  [150 145 142]]

 [[ 54  61  54]
  [ 52  59  52]
  [ 49  59  51]
  ...
  [149 144 141]
  [149 144 141]
  [149 144 141]]

 [[ 54  60  56]
  [ 53  59  55]
  [ 50  59  54]
  ...
  [150 145 142]
  [149 144 141]
  [148 143 140]]

 ...

 [[ 51  56  52]
  [ 51  56  52]
  [ 51  56  50]
  ...
  [ 50  61  47]
  [ 50  60  49]
  [ 46  57  43]]

 [[ 50  55  49]
  [ 49  54  48]
  [ 50  55  49]
  ...
  [ 62  73  57]
  [ 67  78  64]
  [ 65  76  60]]

 [[ 50  55  49]
  [ 48  53  47]
  [ 47  52  46]
  ...
  [ 62  73  57]
  [ 69  80  64]
  [ 66  77  61]]]"
1726695302.424029,0.982929,-1.244057,1.764221,-2.575768,-1.306338,-0.402716,-0.22103,-0.570251,0.270168,-2.596621,0.025675,3.03592,0.0,0.0,0.0,0.0,0.0,0.0,28.269609,-2.302885,0.179463,8.325,0.15,grasping red handle,"[[[ 87  82  79]
  [ 87  82  79]
  [ 83  78  75]
  ...
  [123  98  67]
  [122  95  65]
  [124  97  67]]

 [[ 86  81  78]
  [ 87  82  79]
  [ 84  79  76]
  ...
  [120  95  64]
  [121  94  64]
  [123  96  66]]

 [[ 85  80  76]
  [ 87  82  78]
  [ 85  80  76]
  ...
  [119  94  63]
  [121  94  64]
  [124  97  67]]

 ...

 [[192 151 107]
  [194 153 109]
  [193 152 108]
  ...
  [148 140 121]
  [149 141 122]
  [150 142 123]]

 [[192 151 105]
  [195 154 108]
  [194 153 109]
  ...
  [146 138 119]
  [147 139 120]
  [148 140 121]]

 [[192 151 105]
  [195 154 108]
  [194 153 109]
  ...
  [145 137 118]
  [145 137 118]
  [146 138 119]]]","[[[ 55  59  58]
  [ 53  57  56]
  [ 49  53  52]
  ...
  [147 144 139]
  [147 144 139]
  [148 145 140]]

 [[ 54  58  57]
  [ 53  57  56]
  [ 51  55  54]
  ...
  [150 147 142]
  [150 147 142]
  [151 148 143]]

 [[ 55  59  58]
  [ 55  59  58]
  [ 53  57  56]
  ...
  [150 147 142]
  [150 147 142]
  [150 147 142]]

 ...

 [[ 51  56  50]
  [ 49  54  48]
  [ 49  54  48]
  ...
  [ 55  62  54]
  [ 42  52  43]
  [ 43  53  44]]

 [[ 50  55  51]
  [ 49  54  50]
  [ 49  54  48]
  ...
  [ 66  76  65]
  [ 60  70  59]
  [ 63  73  62]]

 [[ 49  54  50]
  [ 47  52  48]
  [ 47  52  46]
  ...
  [ 66  76  65]
  [ 64  74  63]
  [ 67  77  66]]]"
1726695302.60083,0.982929,-1.244057,1.764221,-2.575768,-1.306338,-0.402716,-0.22103,-0.570251,0.270168,-2.596621,0.025675,3.03592,0.0,0.0,0.0,0.0,0.0,0.0,25.966724,-2.072027,0.117721,8.475,0.15,grasping red handle,"[[[ 88  84  75]
  [ 89  85  76]
  [ 88  84  75]
  ...
  [122  99  65]
  [123  99  65]
  [121  97  63]]

 [[ 85  80  74]
  [ 86  82  73]
  [ 86  81  75]
  ...
  [118  95  61]
  [119  95  61]
  [121  97  63]]

 [[ 86  81  77]
  [ 87  82  76]
  [ 87  82  78]
  ...
  [119  95  59]
  [120  94  61]
  [123  97  64]]

 ...

 [[194 153 109]
  [193 152 108]
  [192 151 107]
  ...
  [148 135 116]
  [148 135 116]
  [149 136 117]]

 [[196 153 110]
  [195 152 109]
  [192 151 107]
  ...
  [148 135 116]
  [150 135 116]
  [152 137 118]]

 [[197 154 111]
  [196 153 110]
  [193 152 108]
  ...
  [149 136 117]
  [152 137 118]
  [151 136 117]]]","[[[ 52  58  54]
  [ 53  59  55]
  [ 52  58  54]
  ...
  [151 148 143]
  [151 148 143]
  [151 148 143]]

 [[ 50  56  52]
  [ 51  57  53]
  [ 51  57  53]
  ...
  [152 149 144]
  [152 149 144]
  [152 149 144]]

 [[ 50  56  52]
  [ 51  57  53]
  [ 53  59  55]
  ...
  [153 150 145]
  [153 150 145]
  [153 150 145]]

 ...

 [[ 48  54  52]
  [ 49  55  53]
  [ 50  56  54]
  ...
  [ 58  66  55]
  [ 53  61  50]
  [ 51  59  48]]

 [[ 47  53  51]
  [ 48  54  52]
  [ 49  55  51]
  ...
  [ 69  77  64]
  [ 67  73  61]
  [ 66  72  60]]

 [[ 48  54  52]
  [ 49  55  53]
  [ 50  56  52]
  ...
  [ 70  78  65]
  [ 71  77  65]
  [ 73  79  67]]]"
1726695302.791504,0.982929,-1.244057,1.764221,-2.575768,-1.306338,-0.402716,-0.22103,-0.570251,0.270168,-2.596621,0.025675,3.03592,0.0,0.0,0.0,0.0,0.0,0.0,23.894696,-4.136154,0.195411,8.625,0.15,grasping red handle,"[[[ 91  81  79]
  [ 92  82  80]
  [ 92  82  81]
  ...
  [120  93  63]
  [122  95  65]
  [126  99  69]]

 [[ 92  82  80]
  [ 93  83  81]
  [ 93  83  82]
  ...
  [122  95  65]
  [121  94  64]
  [123  96  66]]

 [[ 92  82  80]
  [ 93  83  81]
  [ 93  83  82]
  ...
  [122  95  65]
  [120  95  64]
  [121  96  65]]

 ...

 [[194 152 110]
  [194 152 110]
  [193 151 109]
  ...
  [147 139 118]
  [145 139 117]
  [145 139 117]]

 [[195 153 113]
  [194 152 112]
  [193 151 111]
  ...
  [146 138 117]
  [146 140 118]
  [147 141 119]]

 [[195 153 113]
  [194 152 112]
  [193 151 111]
  ...
  [145 137 116]
  [146 140 118]
  [146 140 118]]]","[[[ 51  57  55]
  [ 48  54  52]
  [ 51  57  55]
  ...
  [157 152 148]
  [152 147 141]
  [151 146 140]]

 [[ 50  56  54]
  [ 48  54  52]
  [ 50  56  54]
  ...
  [153 148 144]
  [150 145 139]
  [150 145 139]]

 [[ 52  58  56]
  [ 50  56  54]
  [ 54  60  58]
  ...
  [152 147 143]
  [150 145 141]
  [151 146 142]]

 ...

 [[ 50  55  51]
  [ 51  56  52]
  [ 54  59  53]
  ...
  [ 50  55  49]
  [ 42  47  41]
  [ 41  46  40]]

 [[ 49  54  50]
  [ 51  56  52]
  [ 54  59  53]
  ...
  [ 71  76  70]
  [ 71  73  70]
  [ 69  71  68]]

 [[ 48  53  49]
  [ 48  53  49]
  [ 50  55  49]
  ...
  [ 71  76  70]
  [ 72  74  71]
  [ 69  71  68]]]"
1726695302.996852,0.982929,-1.244057,1.764221,-2.575768,-1.306338,-0.402716,-0.22103,-0.570251,0.270168,-2.596621,0.025675,3.03592,0.0,0.0,0.0,0.0,0.0,0.0,19.758542,-2.521106,0.424239,8.775,0.15,grasping red handle,"[[[ 98  83  86]
  [ 92  80  82]
  [ 93  81  81]
  ...
  [122  97  67]
  [126  99  70]
  [126  99  70]]

 [[ 95  80  83]
  [ 92  80  82]
  [ 92  82  81]
  ...
  [120  95  65]
  [122  95  66]
  [121  94  65]]

 [[ 92  80  80]
  [ 93  83  82]
  [ 94  84  83]
  ...
  [119  94  63]
  [120  93  63]
  [120  93  63]]

 ...

 [[193 150 108]
  [194 151 109]
  [193 151 109]
  ...
  [147 139 120]
  [147 139 120]
  [149 141 122]]

 [[195 151 112]
  [196 152 113]
  [194 152 112]
  ...
  [146 138 119]
  [146 138 119]
  [148 140 121]]

 [[195 151 112]
  [195 151 112]
  [194 152 112]
  ...
  [145 137 118]
  [146 138 119]
  [147 139 120]]]","[[[ 54  58  59]
  [ 52  56  57]
  [ 51  55  54]
  ...
  [154 149 146]
  [153 149 146]
  [151 147 144]]

 [[ 56  60  61]
  [ 54  58  59]
  [ 53  57  56]
  ...
  [154 149 146]
  [152 148 145]
  [152 148 145]]

 [[ 57  61  62]
  [ 55  59  60]
  [ 54  58  57]
  ...
  [154 149 146]
  [153 148 145]
  [153 148 145]]

 ...

 [[ 51  55  54]
  [ 52  56  55]
  [ 51  55  54]
  ...
  [ 53  59  49]
  [ 47  53  43]
  [ 41  47  37]]

 [[ 48  52  53]
  [ 49  53  54]
  [ 48  52  51]
  ...
  [ 71  77  67]
  [ 68  74  64]
  [ 63  69  59]]

 [[ 50  54  55]
  [ 51  55  56]
  [ 50  54  53]
  ...
  [ 71  77  67]
  [ 71  77  67]
  [ 70  76  66]]]"
1726695303.187559,0.982929,-1.244057,1.764221,-2.575768,-1.306338,-0.402716,-0.22103,-0.570251,0.270168,-2.596621,0.025675,3.03592,0.0,0.0,0.0,0.0,0.0,0.0,17.237437,-2.74169,0.835776,8.925,0.15,grasping red handle,"[[[ 93  82  80]
  [ 92  81  79]
  [ 92  81  79]
  ...
  [120  97  56]
  [120  96  58]
  [122  98  60]]

 [[ 96  85  83]
  [ 93  82  80]
  [ 89  78  76]
  ...
  [118  95  54]
  [118  94  56]
  [122  98  60]]

 [[ 96  86  84]
  [ 93  83  81]
  [ 89  80  75]
  ...
  [120  94  57]
  [120  96  58]
  [122  98  60]]

 ...

 [[193 150 105]
  [194 151 106]
  [193 152 106]
  ...
  [149 138 116]
  [147 136 114]
  [147 136 114]]

 [[196 153 108]
  [196 153 108]
  [194 153 107]
  ...
  [148 138 113]
  [148 138 113]
  [148 138 113]]

 [[196 153 108]
  [196 153 108]
  [193 152 106]
  ...
  [147 137 112]
  [148 138 113]
  [150 140 115]]]","[[[ 53  55  52]
  [ 54  56  53]
  [ 52  56  55]
  ...
  [153 148 145]
  [153 148 144]
  [153 148 144]]

 [[ 56  58  55]
  [ 56  58  55]
  [ 52  56  55]
  ...
  [153 148 145]
  [153 148 144]
  [153 148 144]]

 [[ 56  58  57]
  [ 55  57  56]
  [ 53  57  56]
  ...
  [154 149 146]
  [154 149 146]
  [154 149 146]]

 ...

 [[ 45  56  52]
  [ 43  54  50]
  [ 45  54  49]
  ...
  [ 56  66  57]
  [ 53  63  54]
  [ 49  61  51]]

 [[ 47  57  56]
  [ 50  61  57]
  [ 54  63  58]
  ...
  [ 67  77  68]
  [ 66  76  67]
  [ 66  78  68]]

 [[ 47  57  56]
  [ 51  62  58]
  [ 52  61  58]
  ...
  [ 70  80  71]
  [ 66  76  67]
  [ 67  79  69]]]"
1726695303.40744,0.982929,-1.244057,1.764221,-2.575768,-1.306338,-0.402716,-0.22103,-0.570251,0.270168,-2.596621,0.025675,3.03592,0.0,0.0,0.0,0.0,0.0,0.0,14.495747,-1.593845,0.165253,9.075,0.15,grasping red handle,"[[[ 90  85  79]
  [ 91  87  78]
  [ 91  87  76]
  ...
  [124  93  62]
  [126  91  61]
  [128  93  63]]

 [[ 90  85  81]
  [ 90  85  79]
  [ 91  87  78]
  ...
  [123  92  61]
  [124  91  60]
  [126  91  61]]

 [[ 88  83  80]
  [ 89  84  80]
  [ 90  85  79]
  ...
  [123  92  63]
  [126  93  62]
  [126  93  62]]

 ...

 [[192 155 111]
  [191 154 110]
  [192 155 111]
  ...
  [148 140 119]
  [147 139 118]
  [149 141 120]]

 [[190 153 109]
  [189 152 108]
  [191 154 110]
  ...
  [147 139 118]
  [146 138 117]
  [147 139 118]]

 [[191 154 110]
  [191 154 110]
  [192 155 111]
  ...
  [145 137 116]
  [145 137 116]
  [146 138 117]]]","[[[ 49  61  61]
  [ 48  60  60]
  [ 48  58  57]
  ...
  [154 151 146]
  [154 151 144]
  [154 151 144]]

 [[ 50  62  62]
  [ 49  61  61]
  [ 49  59  58]
  ...
  [156 153 148]
  [155 152 145]
  [155 152 145]]

 [[ 49  61  61]
  [ 49  61  61]
  [ 50  60  59]
  ...
  [156 151 147]
  [156 151 145]
  [156 151 145]]

 ...

 [[ 51  56  52]
  [ 50  55  51]
  [ 52  57  53]
  ...
  [ 48  54  44]
  [ 46  52  42]
  [ 49  55  45]]

 [[ 51  56  52]
  [ 50  55  51]
  [ 51  56  52]
  ...
  [ 65  71  61]
  [ 68  74  64]
  [ 72  78  68]]

 [[ 52  57  53]
  [ 51  56  52]
  [ 52  57  53]
  ...
  [ 72  78  68]
  [ 73  79  69]
  [ 70  76  66]]]"
1726695303.612581,0.982929,-1.244057,1.764221,-2.575768,-1.306338,-0.402716,-0.22103,-0.570251,0.270168,-2.596621,0.025675,3.03592,0.0,0.0,0.0,0.0,0.0,0.0,12.901902,-0.226833,0.494516,9.225,0.15,grasping red handle,"[[[ 95  81  80]
  [ 93  79  78]
  [ 91  80  78]
  ...
  [127  93  48]
  [129  92  47]
  [131  94  49]]

 [[ 93  79  78]
  [ 93  79  78]
  [ 91  80  78]
  ...
  [128  95  50]
  [127  93  48]
  [128  94  49]]

 [[ 91  80  78]
  [ 92  81  79]
  [ 92  81  79]
  ...
  [125  93  52]
  [129  96  55]
  [134 101  58]]

 ...

 [[195 155 106]
  [195 155 106]
  [192 151 105]
  ...
  [149 138 118]
  [148 137 117]
  [148 137 117]]

 [[195 154 108]
  [195 154 108]
  [192 151 107]
  ...
  [148 137 117]
  [149 138 120]
  [150 139 121]]

 [[193 152 106]
  [194 153 107]
  [192 151 107]
  ...
  [146 135 115]
  [148 137 119]
  [150 139 121]]]","[[[ 52  61  56]
  [ 51  60  55]
  [ 51  60  55]
  ...
  [159 154 150]
  [156 151 147]
  [155 150 146]]

 [[ 53  62  57]
  [ 52  61  56]
  [ 52  61  56]
  ...
  [158 153 149]
  [156 151 147]
  [155 150 146]]

 [[ 53  62  59]
  [ 53  62  59]
  [ 53  62  59]
  ...
  [159 154 150]
  [156 151 147]
  [155 150 146]]

 ...

 [[ 51  60  55]
  [ 51  60  55]
  [ 50  59  54]
  ...
  [ 50  56  46]
  [ 44  49  42]
  [ 42  47  40]]

 [[ 51  62  56]
  [ 50  61  55]
  [ 49  60  54]
  ...
  [ 73  78  71]
  [ 72  77  70]
  [ 72  77  70]]

 [[ 47  60  53]
  [ 46  59  52]
  [ 46  59  52]
  ...
  [ 73  78  71]
  [ 73  78  71]
  [ 75  80  73]]]"
1726695303.860829,0.982929,-1.244057,1.764221,-2.575768,-1.306338,-0.402716,-0.22103,-0.570251,0.270168,-2.596621,0.025675,3.03592,0.0,0.0,0.0,0.0,0.0,0.0,12.675069,0.0,1.012382,9.375,0.0,grasping red handle,"[[[ 90  79  83]
  [ 92  81  85]
  [ 92  82  83]
  ...
  [129  96  61]
  [127  93  58]
  [128  94  57]]

 [[ 91  80  84]
  [ 92  82  83]
  [ 91  81  82]
  ...
  [127  94  61]
  [124  91  56]
  [126  94  56]]

 [[ 91  81  82]
  [ 91  81  80]
  [ 91  81  80]
  ...
  [123  93  59]
  [125  95  59]
  [127  97  61]]

 ...

 [[190 153 101]
  [190 153 101]
  [192 151 105]
  ...
  [148 137 117]
  [147 139 118]
  [148 140 119]]

 [[191 154 102]
  [192 155 103]
  [194 153 107]
  ...
  [148 137 117]
  [146 138 117]
  [147 139 118]]

 [[191 154 102]
  [191 154 102]
  [194 153 107]
  ...
  [147 136 116]
  [145 137 116]
  [146 138 117]]]","[[[ 52  58  56]
  [ 55  61  59]
  [ 56  62  60]
  ...
  [156 151 145]
  [155 150 144]
  [159 154 148]]

 [[ 52  58  56]
  [ 54  60  58]
  [ 55  61  59]
  ...
  [157 152 146]
  [156 151 145]
  [159 154 148]]

 [[ 53  59  55]
  [ 53  59  55]
  [ 55  61  57]
  ...
  [157 152 148]
  [155 150 146]
  [158 153 149]]

 ...

 [[ 51  56  49]
  [ 51  56  49]
  [ 51  56  49]
  ...
  [ 58  63  56]
  [ 58  61  54]
  [ 56  59  52]]

 [[ 50  56  46]
  [ 50  56  46]
  [ 51  57  47]
  ...
  [ 71  77  67]
  [ 71  74  67]
  [ 67  70  63]]

 [[ 52  58  48]
  [ 52  58  48]
  [ 53  59  49]
  ...
  [ 73  79  69]
  [ 76  79  72]
  [ 74  77  70]]]"
1726695312.338528,0.983157,-1.241636,1.763167,-2.577075,-1.306613,-0.402416,-0.221309,-0.57088,0.269359,-2.596788,0.025648,3.035767,-2.5e-05,-1e-05,5e-06,-7e-06,3.5e-05,-5.8e-05,12.675069,0.0,1.012382,9.375,0.0,moving back to original position with red handle,"[[[ 88  72  72]
  [ 87  71  71]
  [ 87  73  72]
  ...
  [125  99  66]
  [127  98  68]
  [127  98  68]]

 [[ 89  73  73]
  [ 88  74  73]
  [ 89  75  74]
  ...
  [123  97  64]
  [125  96  66]
  [125  96  66]]

 [[ 91  77  76]
  [ 90  76  75]
  [ 90  76  75]
  ...
  [123  96  66]
  [124  94  66]
  [125  95  67]]

 ...

 [[192 149 115]
  [193 150 115]
  [193 150 115]
  ...
  [148 140 119]
  [146 138 117]
  [146 138 117]]

 [[195 151 116]
  [194 150 115]
  [193 150 115]
  ...
  [147 139 118]
  [146 138 117]
  [146 138 117]]

 [[196 152 117]
  [194 150 115]
  [192 150 112]
  ...
  [146 138 117]
  [145 137 116]
  [146 138 117]]]","[[[ 52  61  58]
  [ 50  59  56]
  [ 51  60  57]
  ...
  [160 155 152]
  [156 152 149]
  [155 151 148]]

 [[ 52  61  58]
  [ 50  59  56]
  [ 50  59  56]
  ...
  [160 155 152]
  [157 153 150]
  [157 153 150]]

 [[ 50  59  56]
  [ 50  59  56]
  [ 48  57  54]
  ...
  [158 153 150]
  [157 152 149]
  [158 153 150]]

 ...

 [[ 49  60  54]
  [ 47  58  52]
  [ 48  59  53]
  ...
  [ 58  61  54]
  [ 49  52  45]
  [ 44  47  40]]

 [[ 48  61  54]
  [ 45  58  51]
  [ 47  58  52]
  ...
  [ 75  78  71]
  [ 69  71  66]
  [ 66  68  63]]

 [[ 47  60  53]
  [ 45  58  51]
  [ 47  58  52]
  ...
  [ 72  75  68]
  [ 72  74  69]
  [ 75  77  72]]]"
1726695312.434528,0.983037,-1.242619,1.763706,-2.576416,-1.306601,-0.40244,-0.221203,-0.570592,0.269619,-2.596975,0.025741,3.035665,3.1e-05,6.1e-05,0.000165,0.00018,-5.9e-05,4.4e-05,12.675069,0.0,1.012382,9.375,0.0,moving back to original position with red handle,"[[[ 88  72  72]
  [ 87  71  71]
  [ 87  73  72]
  ...
  [125  99  66]
  [127  98  68]
  [127  98  68]]

 [[ 89  73  73]
  [ 88  74  73]
  [ 89  75  74]
  ...
  [123  97  64]
  [125  96  66]
  [125  96  66]]

 [[ 91  77  76]
  [ 90  76  75]
  [ 90  76  75]
  ...
  [123  96  66]
  [124  94  66]
  [125  95  67]]

 ...

 [[192 149 115]
  [193 150 115]
  [193 150 115]
  ...
  [148 140 119]
  [146 138 117]
  [146 138 117]]

 [[195 151 116]
  [194 150 115]
  [193 150 115]
  ...
  [147 139 118]
  [146 138 117]
  [146 138 117]]

 [[196 152 117]
  [194 150 115]
  [192 150 112]
  ...
  [146 138 117]
  [145 137 116]
  [146 138 117]]]","[[[ 52  61  58]
  [ 50  59  56]
  [ 51  60  57]
  ...
  [160 155 152]
  [156 152 149]
  [155 151 148]]

 [[ 52  61  58]
  [ 50  59  56]
  [ 50  59  56]
  ...
  [160 155 152]
  [157 153 150]
  [157 153 150]]

 [[ 50  59  56]
  [ 50  59  56]
  [ 48  57  54]
  ...
  [158 153 150]
  [157 152 149]
  [158 153 150]]

 ...

 [[ 49  60  54]
  [ 47  58  52]
  [ 48  59  53]
  ...
  [ 58  61  54]
  [ 49  52  45]
  [ 44  47  40]]

 [[ 48  61  54]
  [ 45  58  51]
  [ 47  58  52]
  ...
  [ 75  78  71]
  [ 69  71  66]
  [ 66  68  63]]

 [[ 47  60  53]
  [ 45  58  51]
  [ 47  58  52]
  ...
  [ 72  75  68]
  [ 72  74  69]
  [ 75  77  72]]]"
1726695312.530528,0.982235,-1.253299,1.768532,-2.570707,-1.306135,-0.403088,-0.219882,-0.567797,0.273077,-2.596658,0.025676,3.035606,7e-06,0.000142,6.5e-05,-0.000136,7e-06,0.0001,12.675069,0.0,1.012382,9.375,0.0,moving back to original position with red handle,"[[[ 89  77  77]
  [ 86  74  74]
  [ 85  73  73]
  ...
  [124  94  56]
  [125  97  58]
  [129 101  62]]

 [[ 87  75  75]
  [ 85  73  73]
  [ 85  73  73]
  ...
  [122  92  54]
  [122  94  55]
  [125  97  58]]

 [[ 87  77  76]
  [ 87  77  76]
  [ 87  77  76]
  ...
  [121  93  56]
  [122  94  55]
  [124  96  57]]

 ...

 [[193 150 115]
  [193 150 115]
  [193 151 113]
  ...
  [149 141 118]
  [149 141 118]
  [151 143 120]]

 [[195 152 118]
  [194 151 116]
  [193 151 113]
  ...
  [148 141 115]
  [148 141 115]
  [150 143 117]]

 [[195 152 118]
  [194 151 116]
  [193 151 113]
  ...
  [145 138 112]
  [144 137 111]
  [146 139 113]]]","[[[ 50  61  53]
  [ 50  61  53]
  [ 49  61  51]
  ...
  [157 152 149]
  [154 150 147]
  [154 150 147]]

 [[ 49  60  52]
  [ 51  62  54]
  [ 50  62  52]
  ...
  [156 151 148]
  [154 150 147]
  [154 150 147]]

 [[ 49  60  52]
  [ 51  62  54]
  [ 51  61  53]
  ...
  [157 152 149]
  [157 152 149]
  [156 151 148]]

 ...

 [[ 49  54  57]
  [ 49  54  57]
  [ 53  58  61]
  ...
  [ 58  64  54]
  [ 48  54  44]
  [ 45  51  41]]

 [[ 50  55  59]
  [ 48  53  56]
  [ 52  57  60]
  ...
  [ 76  82  70]
  [ 74  80  70]
  [ 72  78  68]]

 [[ 53  58  62]
  [ 49  54  58]
  [ 52  57  60]
  ...
  [ 72  78  66]
  [ 73  79  69]
  [ 68  74  64]]]"
1726695312.626528,0.980367,-1.274851,1.778387,-2.558475,-1.305332,-0.404936,-0.217283,-0.562001,0.279792,-2.596798,0.025536,3.035613,3e-06,9.8e-05,6.7e-05,4e-06,0.000146,8.9e-05,12.675069,0.0,1.012382,9.375,0.0,moving back to original position with red handle,"[[[ 87  78  73]
  [ 86  77  72]
  [ 87  78  71]
  ...
  [126  95  66]
  [126  95  66]
  [124  93  64]]

 [[ 88  79  74]
  [ 87  78  73]
  [ 87  78  73]
  ...
  [124  93  64]
  [124  93  64]
  [123  92  63]]

 [[ 87  77  75]
  [ 86  76  74]
  [ 86  76  74]
  ...
  [122  93  63]
  [123  94  64]
  [124  95  65]]

 ...

 [[190 153 111]
  [189 152 108]
  [188 151 107]
  ...
  [145 138 120]
  [145 138 120]
  [144 137 119]]

 [[189 154 112]
  [187 153 108]
  [189 152 108]
  ...
  [145 138 119]
  [146 139 120]
  [144 137 118]]

 [[189 154 112]
  [188 154 109]
  [190 153 109]
  ...
  [144 138 116]
  [147 141 119]
  [145 139 117]]]","[[[ 54  61  53]
  [ 55  62  54]
  [ 57  64  56]
  ...
  [156 151 148]
  [156 151 148]
  [157 152 149]]

 [[ 54  61  53]
  [ 55  62  54]
  [ 56  63  55]
  ...
  [157 152 149]
  [157 152 149]
  [158 153 150]]

 [[ 53  60  53]
  [ 53  60  53]
  [ 54  61  54]
  ...
  [158 152 152]
  [156 150 150]
  [158 152 152]]

 ...

 [[ 55  62  54]
  [ 53  60  52]
  [ 54  60  56]
  ...
  [ 64  67  60]
  [ 60  63  56]
  [ 55  58  51]]

 [[ 52  62  53]
  [ 51  61  52]
  [ 53  59  55]
  ...
  [ 77  80  73]
  [ 77  80  73]
  [ 75  78  71]]

 [[ 52  62  53]
  [ 51  61  52]
  [ 53  59  55]
  ...
  [ 73  76  69]
  [ 77  80  73]
  [ 77  80  73]]]"
1726695312.722528,0.977444,-1.306869,1.792133,-2.53925,-1.303967,-0.407838,-0.213436,-0.553361,0.289761,-2.597072,0.025457,3.035683,4.8e-05,8.6e-05,0.000173,0.000279,0.000225,1.3e-05,12.675069,0.0,1.012382,9.375,0.0,moving back to original position with red handle,"[[[ 86  83  76]
  [ 84  81  76]
  [ 82  78  75]
  ...
  [124  90  55]
  [124  89  57]
  [128  93  61]]

 [[ 83  80  73]
  [ 83  80  75]
  [ 82  78  75]
  ...
  [121  88  53]
  [123  90  57]
  [127  94  61]]

 [[ 84  81  74]
  [ 84  81  76]
  [ 84  80  77]
  ...
  [122  93  59]
  [125  94  63]
  [128  97  66]]

 ...

 [[193 151 109]
  [195 153 111]
  [195 153 111]
  ...
  [146 139 120]
  [146 137 120]
  [147 138 121]]

 [[195 153 113]
  [196 154 114]
  [195 153 111]
  ...
  [144 139 119]
  [145 138 120]
  [146 139 121]]

 [[195 153 113]
  [195 153 113]
  [194 152 110]
  ...
  [144 139 119]
  [146 139 121]
  [146 139 121]]]","[[[ 55  61  59]
  [ 55  61  59]
  [ 55  61  59]
  ...
  [161 156 153]
  [159 154 151]
  [156 151 148]]

 [[ 55  61  59]
  [ 55  61  59]
  [ 55  61  59]
  ...
  [158 153 150]
  [158 153 150]
  [157 152 149]]

 [[ 55  61  59]
  [ 55  61  59]
  [ 55  61  59]
  ...
  [158 153 150]
  [158 153 150]
  [159 154 151]]

 ...

 [[ 46  55  50]
  [ 49  58  53]
  [ 51  57  53]
  ...
  [ 71  76  69]
  [ 70  73  66]
  [ 68  71  64]]

 [[ 46  55  50]
  [ 50  59  54]
  [ 50  59  54]
  ...
  [ 75  80  73]
  [ 77  80  73]
  [ 76  79  72]]

 [[ 46  55  50]
  [ 50  59  54]
  [ 50  59  54]
  ...
  [ 75  80  73]
  [ 77  80  73]
  [ 78  81  74]]]"
1726695312.818528,0.973408,-1.349616,1.808477,-2.51194,-1.301716,-0.411568,-0.208269,-0.54186,0.303266,-2.596935,0.02559,3.035716,7.1e-05,9e-05,0.000102,0.000143,9.2e-05,-2.8e-05,12.675069,0.0,1.012382,9.375,0.0,moving back to original position with red handle,"[[[ 84  80  77]
  [ 82  78  75]
  [ 84  81  76]
  ...
  [123  94  64]
  [124  93  64]
  [127  96  67]]

 [[ 82  78  75]
  [ 82  78  75]
  [ 83  79  76]
  ...
  [121  92  62]
  [121  90  61]
  [123  92  63]]

 [[ 85  79  79]
  [ 85  80  77]
  [ 86  81  78]
  ...
  [121  92  62]
  [122  91  62]
  [123  92  63]]

 ...

 [[196 149 105]
  [197 150 106]
  [196 152 107]
  ...
  [148 137 117]
  [148 137 117]
  [149 138 118]]

 [[197 150 106]
  [198 151 107]
  [196 152 107]
  ...
  [147 136 116]
  [148 137 117]
  [150 139 119]]

 [[198 151 107]
  [198 151 107]
  [195 151 106]
  ...
  [146 135 115]
  [148 137 117]
  [151 140 120]]]","[[[ 55  65  56]
  [ 51  61  52]
  [ 53  63  55]
  ...
  [157 152 149]
  [157 152 149]
  [156 151 148]]

 [[ 53  63  54]
  [ 52  62  53]
  [ 53  63  55]
  ...
  [158 153 150]
  [157 152 149]
  [156 151 148]]

 [[ 51  61  53]
  [ 55  65  57]
  [ 55  64  59]
  ...
  [159 154 151]
  [157 152 149]
  [156 151 148]]

 ...

 [[ 49  59  51]
  [ 48  58  50]
  [ 49  59  51]
  ...
  [ 77  83  73]
  [ 75  81  71]
  [ 72  78  68]]

 [[ 47  58  50]
  [ 47  58  50]
  [ 49  60  52]
  ...
  [ 77  83  73]
  [ 77  83  73]
  [ 75  81  71]]

 [[ 46  57  49]
  [ 48  59  51]
  [ 51  62  54]
  ...
  [ 77  83  73]
  [ 77  83  73]
  [ 75  81  71]]]"
1726695312.914528,0.968199,-1.402376,1.82626,-2.475549,-1.298974,-0.416378,-0.201785,-0.527531,0.319875,-2.597023,0.025757,3.03566,1.9e-05,1.9e-05,0.000143,0.000234,-7.6e-05,1.7e-05,12.675069,0.0,1.012382,9.375,0.0,moving back to original position with red handle,"[[[ 81  77  74]
  [ 81  77  74]
  [ 83  78  75]
  ...
  [120  95  64]
  [120  95  64]
  [119  94  63]]

 [[ 81  77  74]
  [ 81  77  74]
  [ 83  78  75]
  ...
  [119  94  63]
  [121  96  65]
  [121  96  65]]

 [[ 82  78  75]
  [ 82  78  75]
  [ 84  79  76]
  ...
  [119  94  63]
  [122  97  66]
  [122  97  66]]

 ...

 [[192 151 107]
  [194 153 109]
  [194 153 109]
  ...
  [146 140 116]
  [145 141 116]
  [147 143 118]]

 [[193 155 110]
  [193 155 110]
  [195 154 110]
  ...
  [144 140 115]
  [144 140 115]
  [145 141 116]]

 [[194 156 111]
  [195 157 112]
  [195 154 110]
  ...
  [143 139 114]
  [143 139 114]
  [143 139 114]]]","[[[ 53  62  61]
  [ 53  62  61]
  [ 53  62  61]
  ...
  [157 152 149]
  [156 151 148]
  [155 150 147]]

 [[ 54  63  62]
  [ 53  62  61]
  [ 53  62  61]
  ...
  [157 152 149]
  [156 151 148]
  [155 150 147]]

 [[ 54  63  60]
  [ 52  61  58]
  [ 52  61  58]
  ...
  [157 152 149]
  [155 150 147]
  [155 150 147]]

 ...

 [[ 52  58  54]
  [ 50  56  52]
  [ 52  58  54]
  ...
  [ 80  85  78]
  [ 77  82  75]
  [ 75  80  73]]

 [[ 52  58  56]
  [ 50  56  54]
  [ 51  57  55]
  ...
  [ 77  82  75]
  [ 77  82  75]
  [ 76  81  74]]

 [[ 52  58  56]
  [ 49  55  53]
  [ 50  56  54]
  ...
  [ 72  77  70]
  [ 75  80  73]
  [ 74  79  72]]]"
1726695313.010527,0.962366,-1.457298,1.841072,-2.434488,-1.296052,-0.42186,-0.195026,-0.512533,0.337542,-2.596605,0.025489,3.035615,1.6e-05,1e-06,-3.3e-05,-0.000183,0.000193,5e-05,12.675069,0.0,1.012382,9.375,0.0,moving back to original position with red handle,"[[[ 85  79  79]
  [ 85  79  79]
  [ 84  78  78]
  ...
  [120  94  67]
  [116  90  65]
  [118  92  67]]

 [[ 81  75  75]
  [ 84  78  78]
  [ 83  77  77]
  ...
  [116  90  63]
  [116  90  63]
  [120  94  67]]

 [[ 81  76  73]
  [ 85  80  77]
  [ 85  79  79]
  ...
  [116  91  61]
  [119  94  64]
  [123  98  68]]

 ...

 [[192 152 101]
  [192 152 101]
  [190 152 103]
  ...
  [145 137 118]
  [144 137 118]
  [146 139 120]]

 [[194 154 103]
  [193 153 102]
  [192 152 103]
  ...
  [143 135 116]
  [142 135 116]
  [144 137 118]]

 [[195 155 104]
  [193 153 102]
  [192 152 103]
  ...
  [144 136 117]
  [144 137 118]
  [146 139 120]]]","[[[ 61  66  59]
  [ 60  65  58]
  [ 58  65  58]
  ...
  [155 150 147]
  [154 149 146]
  [154 149 146]]

 [[ 59  64  57]
  [ 59  64  57]
  [ 58  65  58]
  ...
  [155 150 147]
  [154 149 146]
  [155 150 147]]

 [[ 56  63  56]
  [ 57  64  57]
  [ 58  65  58]
  ...
  [155 150 147]
  [155 150 147]
  [156 151 148]]

 ...

 [[ 54  60  58]
  [ 54  60  58]
  [ 55  61  59]
  ...
  [ 74  77  68]
  [ 72  75  66]
  [ 69  72  63]]

 [[ 54  60  56]
  [ 54  60  56]
  [ 55  61  57]
  ...
  [ 76  79  70]
  [ 73  76  67]
  [ 72  75  66]]

 [[ 54  60  56]
  [ 54  60  56]
  [ 54  60  56]
  ...
  [ 71  74  65]
  [ 65  68  59]
  [ 64  67  58]]]"
1726695313.106527,0.956283,-1.511264,1.852508,-2.389908,-1.292903,-0.427654,-0.188191,-0.497566,0.354916,-2.597028,0.025768,3.035641,-6.1e-05,1.3e-05,8.4e-05,0.000241,-8.7e-05,1.3e-05,12.675069,0.0,1.012382,9.375,0.0,moving back to original position with red handle,"[[[ 86  77  78]
  [ 84  75  76]
  [ 85  77  75]
  ...
  [117  93  59]
  [117  91  56]
  [118  92  55]]

 [[ 86  77  78]
  [ 86  77  78]
  [ 86  78  76]
  ...
  [117  93  59]
  [118  92  57]
  [120  94  57]]

 [[ 84  78  78]
  [ 85  79  79]
  [ 85  79  79]
  ...
  [116  92  58]
  [118  92  57]
  [121  95  60]]

 ...

 [[194 153 109]
  [194 153 109]
  [193 151 109]
  ...
  [147 136 116]
  [150 139 119]
  [151 140 120]]

 [[195 154 108]
  [195 154 108]
  [194 153 109]
  ...
  [148 137 117]
  [149 141 120]
  [147 139 118]]

 [[195 155 106]
  [195 155 106]
  [194 153 107]
  ...
  [149 138 118]
  [149 141 120]
  [145 137 116]]]","[[[ 54  66  62]
  [ 56  68  64]
  [ 56  69  62]
  ...
  [156 151 148]
  [156 151 148]
  [156 151 148]]

 [[ 56  68  64]
  [ 57  69  65]
  [ 55  67  63]
  ...
  [156 151 148]
  [156 151 148]
  [156 151 148]]

 [[ 55  67  65]
  [ 56  68  64]
  [ 54  66  62]
  ...
  [157 152 149]
  [157 152 149]
  [156 151 148]]

 ...

 [[ 55  62  55]
  [ 55  62  55]
  [ 55  62  55]
  ...
  [ 65  68  61]
  [ 60  63  56]
  [ 57  60  53]]

 [[ 55  62  55]
  [ 55  62  55]
  [ 55  62  54]
  ...
  [ 62  65  58]
  [ 60  63  56]
  [ 58  61  54]]

 [[ 55  62  55]
  [ 54  61  54]
  [ 55  62  54]
  ...
  [ 60  63  56]
  [ 58  61  54]
  [ 56  59  52]]]"
1726695313.202527,0.949564,-1.564333,1.860207,-2.343068,-1.289526,-0.434035,-0.181462,-0.482581,0.37243,-2.596807,0.025647,3.03563,-3.3e-05,7e-06,6.2e-05,2.2e-05,3.4e-05,1.3e-05,12.675069,0.0,1.012382,9.375,0.0,moving back to original position with red handle,"[[[ 89  76  83]
  [ 87  76  82]
  [ 87  76  84]
  ...
  [117  93  69]
  [119  93  70]
  [121  95  72]]

 [[ 87  74  81]
  [ 85  74  80]
  [ 84  73  81]
  ...
  [116  92  68]
  [119  93  70]
  [122  96  73]]

 [[ 88  76  80]
  [ 85  74  78]
  [ 84  73  79]
  ...
  [118  92  67]
  [119  93  68]
  [121  95  70]]

 ...

 [[193 152 108]
  [193 152 108]
  [193 152 108]
  ...
  [145 137 114]
  [145 137 114]
  [150 142 119]]

 [[194 152 110]
  [194 152 110]
  [192 150 108]
  ...
  [146 139 113]
  [147 140 114]
  [150 143 117]]

 [[196 154 112]
  [194 152 110]
  [192 150 108]
  ...
  [147 140 114]
  [147 140 114]
  [148 141 115]]]","[[[ 59  65  61]
  [ 59  65  61]
  [ 58  64  60]
  ...
  [156 152 149]
  [156 152 149]
  [156 152 149]]

 [[ 61  67  63]
  [ 61  67  63]
  [ 60  66  62]
  ...
  [157 153 150]
  [157 153 150]
  [157 153 150]]

 [[ 60  66  64]
  [ 60  66  64]
  [ 60  66  64]
  ...
  [157 153 150]
  [157 153 150]
  [157 153 150]]

 ...

 [[ 57  63  61]
  [ 57  63  61]
  [ 57  63  61]
  ...
  [ 72  73  65]
  [ 74  75  67]
  [ 74  75  67]]

 [[ 55  61  59]
  [ 54  60  58]
  [ 54  60  56]
  ...
  [ 71  72  64]
  [ 73  74  66]
  [ 75  76  68]]

 [[ 57  63  61]
  [ 56  62  60]
  [ 56  62  58]
  ...
  [ 68  69  61]
  [ 69  70  62]
  [ 70  71  63]]]"
1726695313.298527,0.942487,-1.616278,1.864087,-2.293068,-1.28591,-0.440884,-0.174662,-0.467612,0.389981,-2.596848,0.025705,3.035734,-7.6e-05,1.8e-05,2e-06,6.6e-05,-2.5e-05,-0.000102,12.675069,0.0,1.012382,9.375,0.0,moving back to original position with red handle,"[[[ 88  82  68]
  [ 86  80  66]
  [ 85  81  70]
  ...
  [119  93  58]
  [118  94  58]
  [118  94  58]]

 [[ 89  83  71]
  [ 88  82  70]
  [ 85  81  70]
  ...
  [117  91  56]
  [118  94  58]
  [121  97  61]]

 [[ 86  79  69]
  [ 85  78  68]
  [ 83  78  72]
  ...
  [117  91  58]
  [119  95  61]
  [122  98  64]]

 ...

 [[192 150 100]
  [192 150 100]
  [192 152 103]
  ...
  [149 137 121]
  [148 136 120]
  [150 138 122]]

 [[194 152 102]
  [193 151 101]
  [192 152 103]
  ...
  [149 137 121]
  [149 137 121]
  [150 138 122]]

 [[198 156 106]
  [196 154 104]
  [193 153 104]
  ...
  [149 137 121]
  [149 137 121]
  [149 137 121]]]","[[[ 57  62  65]
  [ 59  64  67]
  [ 61  67  67]
  ...
  [156 152 149]
  [158 154 151]
  [158 154 151]]

 [[ 58  63  66]
  [ 58  63  66]
  [ 60  66  66]
  ...
  [155 151 148]
  [157 153 150]
  [157 153 150]]

 [[ 57  61  64]
  [ 57  61  64]
  [ 58  64  64]
  ...
  [156 152 149]
  [158 154 151]
  [158 154 151]]

 ...

 [[ 56  62  60]
  [ 56  62  60]
  [ 56  62  60]
  ...
  [ 77  78  64]
  [ 72  73  59]
  [ 69  71  57]]

 [[ 56  62  60]
  [ 56  62  60]
  [ 57  63  61]
  ...
  [ 73  74  60]
  [ 71  72  58]
  [ 71  72  58]]

 [[ 55  61  59]
  [ 56  62  60]
  [ 56  62  60]
  ...
  [ 71  69  56]
  [ 69  70  56]
  [ 72  73  59]]]"
1726695313.394527,0.934618,-1.666763,1.864362,-2.241047,-1.282067,-0.448345,-0.16798,-0.452611,0.407514,-2.596635,0.025575,3.035656,-1e-06,-4e-06,-3.9e-05,-0.000147,0.000105,-3.6e-05,12.675069,0.0,1.012382,9.375,0.0,moving back to original position with red handle,"[[[ 83  78  72]
  [ 83  78  72]
  [ 85  80  74]
  ...
  [120  95  65]
  [122  95  65]
  [123  96  66]]

 [[ 85  80  74]
  [ 83  78  72]
  [ 84  79  73]
  ...
  [119  94  64]
  [120  93  63]
  [121  94  64]]

 [[ 85  80  74]
  [ 83  78  72]
  [ 84  79  73]
  ...
  [118  93  63]
  [120  93  64]
  [120  93  64]]

 ...

 [[191 153 108]
  [192 154 109]
  [192 154 109]
  ...
  [149 138 120]
  [149 136 119]
  [151 138 121]]

 [[190 153 109]
  [191 154 110]
  [191 153 108]
  ...
  [149 138 120]
  [150 137 120]
  [154 141 124]]

 [[191 154 110]
  [191 154 110]
  [189 151 106]
  ...
  [146 135 117]
  [148 135 118]
  [152 139 122]]]","[[[ 57  64  70]
  [ 57  64  70]
  [ 55  63  66]
  ...
  [160 155 152]
  [161 156 153]
  [161 156 153]]

 [[ 55  62  68]
  [ 57  65  68]
  [ 58  66  69]
  ...
  [161 156 153]
  [160 155 152]
  [160 155 152]]

 [[ 55  63  66]
  [ 57  65  67]
  [ 59  67  69]
  ...
  [161 156 153]
  [160 155 152]
  [158 153 150]]

 ...

 [[ 55  66  62]
  [ 55  66  62]
  [ 54  64  63]
  ...
  [ 72  76  62]
  [ 68  74  62]
  [ 71  77  65]]

 [[ 55  66  62]
  [ 54  65  61]
  [ 53  64  60]
  ...
  [ 68  74  62]
  [ 68  74  62]
  [ 72  78  66]]

 [[ 56  67  63]
  [ 55  66  62]
  [ 53  64  60]
  ...
  [ 65  71  59]
  [ 64  70  58]
  [ 68  74  62]]]"
1726695313.490527,0.926366,-1.715452,1.861153,-2.186573,-1.277984,-0.456309,-0.161205,-0.437666,0.424845,-2.596922,0.02577,3.035695,-1.9e-05,3.1e-05,0.000121,0.000142,-9e-05,-8.5e-05,12.675069,0.0,1.012382,9.375,0.0,moving back to original position with red handle,"[[[ 86  79  69]
  [ 86  79  69]
  [ 88  79  72]
  ...
  [119  94  64]
  [119  92  63]
  [119  92  63]]

 [[ 87  80  70]
  [ 87  80  70]
  [ 89  80  73]
  ...
  [119  94  64]
  [119  92  63]
  [119  92  63]]

 [[ 86  79  71]
  [ 87  80  72]
  [ 88  81  73]
  ...
  [118  93  62]
  [119  92  63]
  [120  93  64]]

 ...

 [[194 153 109]
  [193 152 108]
  [192 151 107]
  ...
  [149 138 120]
  [149 138 120]
  [150 139 121]]

 [[194 153 109]
  [195 154 110]
  [194 153 109]
  ...
  [149 138 120]
  [149 137 121]
  [149 137 121]]

 [[192 151 107]
  [196 155 111]
  [196 155 111]
  ...
  [149 138 120]
  [150 138 122]
  [148 136 120]]]","[[[ 58  68  57]
  [ 60  70  59]
  [ 60  70  61]
  ...
  [160 156 155]
  [162 158 157]
  [159 155 154]]

 [[ 57  67  58]
  [ 59  69  60]
  [ 60  70  61]
  ...
  [161 157 156]
  [163 159 158]
  [160 156 155]]

 [[ 58  68  60]
  [ 59  69  61]
  [ 60  70  62]
  ...
  [158 154 153]
  [160 156 155]
  [158 154 153]]

 ...

 [[ 56  61  55]
  [ 55  60  54]
  [ 58  63  57]
  ...
  [ 72  75  68]
  [ 71  74  67]
  [ 70  73  66]]

 [[ 58  63  59]
  [ 57  62  58]
  [ 58  63  59]
  ...
  [ 67  70  63]
  [ 73  76  69]
  [ 76  79  72]]

 [[ 59  63  62]
  [ 59  63  62]
  [ 58  62  61]
  ...
  [ 64  67  60]
  [ 66  69  62]
  [ 67  70  63]]]"
1726695313.586527,0.917696,-1.760952,1.854244,-2.131865,-1.273817,-0.464634,-0.154644,-0.423167,0.44183,-2.596873,0.025724,3.035656,-6.3e-05,-2e-05,7e-06,9.5e-05,-4.4e-05,-5.7e-05,12.675069,0.0,1.012382,9.375,0.0,moving back to original position with red handle,"[[[ 89  78  76]
  [ 91  81  79]
  [ 90  80  78]
  ...
  [117  93  57]
  [118  94  56]
  [119  95  57]]

 [[ 88  77  75]
  [ 89  79  77]
  [ 87  79  76]
  ...
  [117  93  57]
  [119  95  59]
  [120  96  58]]

 [[ 87  77  75]
  [ 88  78  76]
  [ 87  79  76]
  ...
  [117  93  57]
  [119  95  59]
  [118  94  58]]

 ...

 [[192 155 103]
  [191 154 102]
  [190 152 103]
  ...
  [151 138 119]
  [151 138 119]
  [150 137 118]]

 [[193 156 104]
  [192 155 103]
  [191 153 104]
  ...
  [152 136 120]
  [155 139 123]
  [151 135 119]]

 [[193 156 104]
  [192 155 103]
  [192 154 105]
  ...
  [152 136 120]
  [157 141 125]
  [152 136 120]]]","[[[ 57  66  63]
  [ 62  71  68]
  [ 60  69  66]
  ...
  [159 155 152]
  [159 155 152]
  [155 151 148]]

 [[ 58  67  64]
  [ 62  71  68]
  [ 58  67  64]
  ...
  [157 153 150]
  [157 153 150]
  [155 151 148]]

 [[ 60  69  68]
  [ 61  70  69]
  [ 58  67  66]
  ...
  [157 153 150]
  [157 153 150]
  [157 153 150]]

 ...

 [[ 60  66  66]
  [ 59  65  63]
  [ 59  65  65]
  ...
  [ 74  77  68]
  [ 73  76  67]
  [ 70  73  64]]

 [[ 57  62  65]
  [ 57  63  63]
  [ 58  63  66]
  ...
  [ 68  71  64]
  [ 70  73  66]
  [ 70  73  66]]

 [[ 60  65  68]
  [ 60  65  68]
  [ 59  64  67]
  ...
  [ 67  70  63]
  [ 67  70  63]
  [ 65  68  61]]]"
1726695313.682527,0.909959,-1.796344,1.846125,-2.086023,-1.270129,-0.472203,-0.149395,-0.411397,0.455537,-2.597034,0.025758,3.035733,8e-06,3e-06,7.2e-05,0.000258,-7.9e-05,-0.000143,12.675069,0.0,1.012382,9.375,0.0,moving back to original position with red handle,"[[[ 87  81  83]
  [ 86  80  82]
  [ 86  80  82]
  ...
  [120  91  61]
  [119  92  63]
  [121  94  65]]

 [[ 84  78  78]
  [ 87  81  81]
  [ 88  82  82]
  ...
  [119  92  62]
  [119  92  63]
  [121  94  65]]

 [[ 83  78  74]
  [ 86  81  77]
  [ 87  82  79]
  ...
  [119  92  62]
  [119  92  63]
  [120  95  65]]

 ...

 [[194 153 109]
  [196 155 111]
  [195 154 110]
  ...
  [149 138 120]
  [147 136 118]
  [147 136 118]]

 [[195 153 111]
  [195 153 111]
  [194 152 110]
  ...
  [147 136 118]
  [147 136 118]
  [148 137 119]]

 [[194 152 110]
  [193 151 109]
  [192 150 108]
  ...
  [145 134 116]
  [148 137 119]
  [150 139 121]]]","[[[ 62  68  68]
  [ 64  70  70]
  [ 62  68  66]
  ...
  [155 149 149]
  [154 148 148]
  [153 147 147]]

 [[ 62  68  68]
  [ 64  70  70]
  [ 62  68  68]
  ...
  [157 151 151]
  [156 150 150]
  [155 149 149]]

 [[ 60  65  68]
  [ 63  69  69]
  [ 61  67  67]
  ...
  [159 154 151]
  [157 151 151]
  [156 150 150]]

 ...

 [[ 58  65  57]
  [ 61  68  60]
  [ 60  67  59]
  ...
  [ 66  69  60]
  [ 63  66  57]
  [ 64  67  58]]

 [[ 57  64  57]
  [ 60  67  60]
  [ 61  68  61]
  ...
  [ 64  67  60]
  [ 63  66  59]
  [ 61  64  57]]

 [[ 57  64  57]
  [ 59  66  59]
  [ 61  68  61]
  ...
  [ 58  61  54]
  [ 64  67  60]
  [ 65  68  61]]]"
1726695313.778527,0.903744,-1.822382,1.838377,-2.050694,-1.267279,-0.477996,-0.145389,-0.402435,0.466037,-2.596913,0.025687,3.03551,2.4e-05,-4.2e-05,-1.6e-05,0.000137,-8e-06,7.3e-05,12.675069,0.0,1.012382,9.375,0.0,moving back to original position with red handle,"[[[ 91  88  79]
  [ 90  87  78]
  [ 88  85  78]
  ...
  [117  93  65]
  [116  95  64]
  [115  94  63]]

 [[ 88  85  78]
  [ 87  84  77]
  [ 86  83  78]
  ...
  [115  92  61]
  [114  93  62]
  [115  94  63]]

 [[ 86  83  78]
  [ 85  82  77]
  [ 85  81  78]
  ...
  [116  93  62]
  [115  94  63]
  [115  95  62]]

 ...

 [[186 152 106]
  [187 153 107]
  [186 152 106]
  ...
  [147 139 120]
  [147 138 121]
  [149 140 123]]

 [[190 156 110]
  [190 156 110]
  [190 156 110]
  ...
  [149 138 120]
  [146 137 120]
  [148 139 122]]

 [[189 155 109]
  [190 156 110]
  [189 155 109]
  ...
  [148 137 119]
  [144 135 118]
  [145 136 119]]]","[[[ 58  67  66]
  [ 58  67  66]
  [ 59  68  67]
  ...
  [154 149 143]
  [152 147 141]
  [152 148 139]]

 [[ 57  66  65]
  [ 57  66  65]
  [ 58  67  66]
  ...
  [155 150 144]
  [154 149 143]
  [154 150 141]]

 [[ 58  67  66]
  [ 58  67  66]
  [ 58  67  66]
  ...
  [156 151 145]
  [155 150 144]
  [156 152 143]]

 ...

 [[ 59  66  59]
  [ 60  67  60]
  [ 60  66  62]
  ...
  [ 62  65  54]
  [ 65  69  55]
  [ 69  73  59]]

 [[ 60  67  60]
  [ 60  67  60]
  [ 60  66  62]
  ...
  [ 61  64  53]
  [ 65  69  55]
  [ 71  75  61]]

 [[ 60  67  60]
  [ 59  66  59]
  [ 60  66  62]
  ...
  [ 65  68  57]
  [ 67  71  57]
  [ 72  76  62]]]"
1726695313.874527,0.897121,-1.848349,1.829098,-2.01367,-1.264322,-0.484353,-0.141206,-0.393202,0.476822,-2.596903,0.025538,3.035389,-6e-06,-6.9e-05,-5.1e-05,0.000129,0.000141,0.000186,12.675069,0.0,1.012382,9.375,0.0,moving back to original position with red handle,"[[[ 87  82  79]
  [ 84  79  76]
  [ 85  80  77]
  ...
  [124  93  64]
  [125  91  64]
  [123  89  62]]

 [[ 86  81  78]
  [ 84  79  76]
  [ 85  80  77]
  ...
  [123  92  63]
  [124  90  63]
  [122  88  61]]

 [[ 86  81  78]
  [ 86  81  78]
  [ 86  81  78]
  ...
  [122  93  63]
  [123  92  63]
  [121  90  61]]

 ...

 [[191 150 106]
  [192 151 107]
  [193 152 108]
  ...
  [146 139 120]
  [146 139 120]
  [149 142 123]]

 [[192 151 107]
  [193 152 108]
  [193 152 108]
  ...
  [146 139 120]
  [147 140 121]
  [149 142 123]]

 [[193 152 108]
  [193 152 108]
  [192 151 107]
  ...
  [148 141 122]
  [147 140 121]
  [145 138 119]]]","[[[ 62  64  59]
  [ 61  63  58]
  [ 61  63  58]
  ...
  [156 151 148]
  [156 151 148]
  [155 150 147]]

 [[ 64  66  61]
  [ 64  66  61]
  [ 64  66  61]
  ...
  [156 151 148]
  [156 151 148]
  [155 150 147]]

 [[ 61  66  62]
  [ 61  66  62]
  [ 62  67  63]
  ...
  [156 151 148]
  [156 151 148]
  [156 151 148]]

 ...

 [[ 57  65  54]
  [ 58  66  55]
  [ 58  65  57]
  ...
  [ 79  80  72]
  [ 83  84  78]
  [ 84  85  79]]

 [[ 57  65  54]
  [ 57  65  54]
  [ 59  66  58]
  ...
  [ 76  77  69]
  [ 80  81  75]
  [ 81  82  76]]

 [[ 55  63  52]
  [ 57  65  54]
  [ 59  66  58]
  ...
  [ 73  74  66]
  [ 75  76  70]
  [ 76  77  71]]]"
1726695313.970527,0.896858,-1.8495,1.828702,-2.011844,-1.26413,-0.484701,-0.140993,-0.392789,0.477265,-2.597039,0.025649,3.035494,1.5e-05,3.7e-05,0.000112,0.000265,2.9e-05,8.2e-05,12.675069,0.0,1.012382,9.375,0.0,moving back to original position with red handle,"[[[ 87  78  69]
  [ 87  78  69]
  [ 90  80  71]
  ...
  [115  94  63]
  [115  95  62]
  [118  98  65]]

 [[ 85  76  67]
  [ 85  76  67]
  [ 87  77  68]
  ...
  [115  94  63]
  [114  94  61]
  [116  96  63]]

 [[ 86  77  70]
  [ 85  76  69]
  [ 86  75  69]
  ...
  [117  94  63]
  [113  93  60]
  [115  95  62]]

 ...

 [[194 153 109]
  [195 154 110]
  [194 153 109]
  ...
  [146 138 117]
  [146 138 117]
  [146 138 117]]

 [[196 155 111]
  [196 155 111]
  [195 154 110]
  ...
  [148 140 119]
  [148 140 119]
  [148 140 119]]

 [[195 154 110]
  [196 155 111]
  [195 154 110]
  ...
  [146 138 117]
  [147 139 118]
  [148 140 119]]]","[[[ 58  70  70]
  [ 57  69  69]
  [ 56  68  68]
  ...
  [155 149 149]
  [156 151 148]
  [158 153 150]]

 [[ 58  70  70]
  [ 57  69  69]
  [ 57  69  69]
  ...
  [154 148 148]
  [155 150 147]
  [156 151 148]]

 [[ 57  69  69]
  [ 57  69  69]
  [ 57  69  69]
  ...
  [155 149 149]
  [155 150 147]
  [156 151 148]]

 ...

 [[ 55  64  59]
  [ 56  65  60]
  [ 57  66  61]
  ...
  [ 82  85  76]
  [ 84  87  78]
  [ 83  86  77]]

 [[ 56  65  60]
  [ 56  65  60]
  [ 55  64  59]
  ...
  [ 76  79  68]
  [ 79  82  71]
  [ 80  83  72]]

 [[ 57  66  61]
  [ 55  64  59]
  [ 55  64  59]
  ...
  [ 72  75  64]
  [ 75  78  67]
  [ 78  81  70]]]"
