correlllab/MAGPIE/datasets/csv/red button_trajectory.csv
timestamp,q0,q1,q2,q3,q4,q5,x,y,z,rx,ry,rz,dx,dy,dz,drx,dry,drz,aperture,d_aperture,contact_force,applied_force,d_applied_force,task,img,wrist_img
1726689406.615655,0.925492,-1.672016,1.798695,-2.039313,-1.281073,-0.548899,-0.170805,-0.449217,0.419269,-2.703276,0.049291,3.110497,-1.1e-05,7e-06,-3.1e-05,-0.000122,-2.5e-05,-1.4e-05,31.952789,0.0,0.0,0.0,0.0,moving to grasp red button,"[[[ 10  17   9]
  [  6  13   5]
  [  6  13   6]
  ...
  [108 104  92]
  [110 107  92]
  [110 107  92]]

 [[ 15  20  13]
  [  7  14   6]
  [  5  10   4]
  ...
  [105 101  89]
  [108 105  90]
  [109 106  91]]

 [[ 18  21  14]
  [ 15  20  13]
  [  7  10   3]
  ...
  [ 98  94  82]
  [103 100  85]
  [105 102  87]]

 ...

 [[173 142 114]
  [174 144 116]
  [173 146 119]
  ...
  [143 135 114]
  [141 133 112]
  [143 135 114]]

 [[173 138 106]
  [175 142 111]
  [175 144 115]
  ...
  [144 136 115]
  [141 133 112]
  [144 136 115]]

 [[179 143 109]
  [175 140 108]
  [173 140 109]
  ...
  [143 135 114]
  [139 131 110]
  [141 133 112]]]","[[[ 43  51  53]
  [ 45  53  55]
  [ 44  52  54]
  ...
  [  9  13  14]
  [  9  13  14]
  [ 10  14  15]]

 [[ 45  53  55]
  [ 47  55  57]
  [ 46  54  56]
  ...
  [ 10  14  15]
  [ 11  15  16]
  [ 11  15  16]]

 [[ 48  56  58]
  [ 48  56  58]
  [ 47  55  57]
  ...
  [ 10  14  15]
  [ 10  14  15]
  [ 11  15  16]]

 ...

 [[ 42  52  53]
  [ 43  53  54]
  [ 43  52  51]
  ...
  [105 112 105]
  [106 113 106]
  [107 114 107]]

 [[ 41  51  52]
  [ 43  53  54]
  [ 43  53  52]
  ...
  [105 111 107]
  [106 112 108]
  [108 114 110]]

 [[ 40  50  51]
  [ 43  53  54]
  [ 43  53  52]
  ...
  [105 111 107]
  [106 112 108]
  [107 113 109]]]"
1726689406.711655,0.925468,-1.672028,1.798731,-2.039277,-1.281109,-0.548899,-0.170813,-0.449204,0.419251,-2.703344,0.049297,3.110457,-3e-06,-6e-06,-1.3e-05,-5.3e-05,-3.1e-05,2.6e-05,31.952789,0.0,0.0,0.0,0.0,moving to grasp red button,"[[[ 10  18   5]
  [  4  12   0]
  [  4  14   3]
  ...
  [105 100  94]
  [108 103  97]
  [112 107 101]]

 [[  5  13   0]
  [  9  17   4]
  [  0   7   0]
  ...
  [102  97  91]
  [107 102  96]
  [111 106 100]]

 [[ 10  18   7]
  [ 11  19   8]
  [  2   9   1]
  ...
  [ 98  93  87]
  [102  97  91]
  [104  99  93]]

 ...

 [[174 143 112]
  [173 144 114]
  [173 146 117]
  ...
  [143 135 114]
  [142 134 113]
  [142 134 113]]

 [[174 139  99]
  [174 139 101]
  [178 145 110]
  ...
  [142 134 113]
  [142 134 113]
  [143 135 114]]

 [[183 144 101]
  [177 140  98]
  [177 142 104]
  ...
  [142 134 113]
  [143 135 114]
  [144 136 115]]]","[[[ 43  54  58]
  [ 43  54  58]
  [ 43  54  56]
  ...
  [ 13  14  16]
  [ 13  13  15]
  [ 13  13  15]]

 [[ 43  54  58]
  [ 43  54  58]
  [ 43  54  56]
  ...
  [ 13  14  16]
  [ 13  13  15]
  [ 13  13  15]]

 [[ 43  54  58]
  [ 42  53  57]
  [ 43  54  56]
  ...
  [ 13  14  16]
  [ 13  14  16]
  [ 13  14  16]]

 ...

 [[ 49  53  54]
  [ 47  53  53]
  [ 47  53  53]
  ...
  [109 116 109]
  [107 114 107]
  [104 111 104]]

 [[ 50  54  55]
  [ 48  54  54]
  [ 48  54  54]
  ...
  [108 115 108]
  [107 114 107]
  [104 111 104]]

 [[ 48  52  53]
  [ 45  51  51]
  [ 46  52  52]
  ...
  [108 115 108]
  [108 115 108]
  [106 113 106]]]"
1726689406.807655,0.926319,-1.664041,1.798743,-2.047584,-1.281504,-0.548324,-0.172238,-0.451718,0.416499,-2.703319,0.049076,3.110712,-2.2e-05,-0.000113,-0.000103,-7.6e-05,0.00019,-0.00023,31.952789,0.0,0.0,0.0,0.0,moving to grasp red button,"[[[  1  11   2]
  [  3  13   4]
  [  3   8   1]
  ...
  [107 102  96]
  [107 102  98]
  [109 104 100]]

 [[  4  14   5]
  [  3  10   2]
  [  6  11   4]
  ...
  [103  98  92]
  [106 101  97]
  [110 105 101]]

 [[ 10  17   9]
  [  6  13   5]
  [  7  12   5]
  ...
  [ 97  92  86]
  [101  96  90]
  [105 100  94]]

 ...

 [[173 143 109]
  [173 144 112]
  [174 147 117]
  ...
  [143 135 114]
  [144 136 115]
  [143 135 114]]

 [[176 143 102]
  [174 142 103]
  [174 144 108]
  ...
  [143 135 114]
  [144 136 115]
  [143 135 114]]

 [[179 145 100]
  [174 141  98]
  [173 141 102]
  ...
  [142 134 113]
  [144 136 115]
  [143 135 114]]]","[[[ 47  52  55]
  [ 46  51  54]
  [ 46  54  56]
  ...
  [  9  15  15]
  [  8  14  14]
  [  8  14  14]]

 [[ 49  54  57]
  [ 46  54  56]
  [ 48  56  58]
  ...
  [ 10  16  16]
  [  9  15  15]
  [  8  14  14]]

 [[ 43  51  53]
  [ 44  52  54]
  [ 47  55  57]
  ...
  [ 11  17  17]
  [  9  15  15]
  [  8  14  14]]

 ...

 [[ 43  52  51]
  [ 43  52  51]
  [ 45  54  53]
  ...
  [107 114 107]
  [107 114 107]
  [107 114 107]]

 [[ 42  51  50]
  [ 43  52  51]
  [ 44  53  52]
  ...
  [108 115 108]
  [107 114 107]
  [106 113 106]]

 [[ 41  50  49]
  [ 43  52  51]
  [ 44  53  52]
  ...
  [107 114 107]
  [107 114 107]
  [107 114 107]]]"
1726689406.903655,0.928199,-1.646965,1.798336,-2.064919,-1.281971,-0.54644,-0.175187,-0.457089,0.410713,-2.703082,0.04917,3.110862,-1.8e-05,-8.8e-05,-0.000113,-0.000307,9.8e-05,-0.000379,31.952789,0.0,0.0,0.0,0.0,moving to grasp red button,"[[[ 10  20   9]
  [  2  12   1]
  [  7  15   4]
  ...
  [107 103  94]
  [109 107  95]
  [112 110  98]]

 [[ 10  18   7]
  [ 10  18   7]
  [  6  14   3]
  ...
  [100  96  87]
  [104 102  90]
  [109 107  95]]

 [[ 32  37  30]
  [ 11  16   9]
  [ 12  17  10]
  ...
  [ 97  93  84]
  [102 100  88]
  [107 105  93]]

 ...

 [[174 144 110]
  [173 144 112]
  [168 141 111]
  ...
  [147 136 116]
  [147 136 116]
  [148 137 117]]

 [[180 145 107]
  [179 144 106]
  [174 141 106]
  ...
  [147 136 116]
  [146 135 115]
  [147 136 116]]

 [[180 141 100]
  [178 140 101]
  [173 138 100]
  ...
  [146 135 115]
  [144 133 113]
  [145 134 114]]]","[[[ 45  50  53]
  [ 45  50  53]
  [ 44  52  54]
  ...
  [ 12  18  18]
  [ 11  17  17]
  [ 11  17  17]]

 [[ 47  52  55]
  [ 46  51  54]
  [ 44  52  54]
  ...
  [ 12  18  18]
  [ 12  18  18]
  [ 11  17  17]]

 [[ 47  52  55]
  [ 46  51  54]
  [ 43  51  53]
  ...
  [ 13  19  19]
  [ 11  17  17]
  [ 11  17  17]]

 ...

 [[ 43  48  51]
  [ 45  50  53]
  [ 45  50  53]
  ...
  [106 111 107]
  [105 110 106]
  [105 110 106]]

 [[ 45  50  53]
  [ 45  50  53]
  [ 45  50  53]
  ...
  [106 110 109]
  [105 109 108]
  [105 109 108]]

 [[ 46  51  54]
  [ 45  50  53]
  [ 44  49  52]
  ...
  [106 110 109]
  [104 108 107]
  [104 108 107]]]"
1726689406.999655,0.931097,-1.620344,1.796779,-2.091101,-1.282929,-0.543213,-0.1797,-0.465369,0.40184,-2.702779,0.049221,3.110715,-7.4e-05,-0.0001,-0.00023,-0.000599,4.9e-05,-0.000231,31.952789,0.0,0.0,0.0,0.0,moving to grasp red button,"[[[ 14  17  10]
  [ 12  15   8]
  [  3   9   0]
  ...
  [109 100  91]
  [110 103  93]
  [113 106  96]]

 [[ 18  21  14]
  [  9  12   5]
  [ 11  14   5]
  ...
  [106  97  88]
  [109 102  92]
  [112 105  95]]

 [[ 16  17  11]
  [ 20  23  16]
  [  9  12   3]
  ...
  [102  93  84]
  [105  98  88]
  [108 101  91]]

 ...

 [[170 140 106]
  [172 143 111]
  [172 145 115]
  ...
  [142 134 115]
  [143 135 116]
  [144 136 117]]

 [[179 144 104]
  [177 143 105]
  [175 143 105]
  ...
  [142 133 116]
  [143 134 117]
  [144 135 118]]

 [[179 142  98]
  [175 140  98]
  [175 140 100]
  ...
  [142 133 116]
  [143 134 117]
  [144 135 118]]]","[[[ 50  50  52]
  [ 50  51  53]
  [ 52  53  55]
  ...
  [ 14  19  22]
  [ 13  18  21]
  [ 13  18  21]]

 [[ 52  52  54]
  [ 48  49  51]
  [ 46  50  51]
  ...
  [ 14  19  22]
  [ 13  18  21]
  [ 13  18  21]]

 [[ 52  53  55]
  [ 49  50  52]
  [ 46  50  51]
  ...
  [ 14  19  22]
  [ 13  18  21]
  [ 13  18  21]]

 ...

 [[ 41  47  47]
  [ 41  47  47]
  [ 41  47  47]
  ...
  [107 112 106]
  [108 113 107]
  [108 113 107]]

 [[ 41  47  47]
  [ 41  47  47]
  [ 41  47  47]
  ...
  [107 112 106]
  [108 113 107]
  [107 112 106]]

 [[ 41  47  47]
  [ 41  47  47]
  [ 41  47  47]
  ...
  [108 113 107]
  [108 113 107]
  [106 111 105]]]"
1726689407.095655,0.93481,-1.583543,1.792995,-2.125179,-1.284533,-0.539339,-0.185867,-0.476587,0.389716,-2.702874,0.049103,3.110611,-8.9e-05,-0.000101,-0.00027,-0.000491,0.000169,-0.000125,31.952789,0.0,0.0,0.0,0.0,moving to grasp red button,"[[[ 13  23  12]
  [  0  10   0]
  [  6  14   3]
  ...
  [109 100  91]
  [110 101  92]
  [111 102  93]]

 [[ 14  24  13]
  [  8  18   7]
  [  3  11   0]
  ...
  [103  94  85]
  [109 100  91]
  [113 104  95]]

 [[ 18  25  17]
  [ 14  21  13]
  [ 14  19  12]
  ...
  [101  92  85]
  [107  98  89]
  [110 101  92]]

 ...

 [[176 145 114]
  [171 142 112]
  [171 144 115]
  ...
  [144 136 115]
  [144 136 115]
  [144 136 115]]

 [[177 142 104]
  [174 138 102]
  [177 143 108]
  ...
  [143 135 114]
  [144 136 115]
  [144 136 115]]

 [[181 142 101]
  [178 140 101]
  [181 143 106]
  ...
  [142 134 113]
  [144 136 115]
  [143 135 114]]]","[[[ 47  51  54]
  [ 46  50  53]
  [ 44  49  52]
  ...
  [ 16  21  25]
  [ 14  19  23]
  [ 15  20  24]]

 [[ 46  50  53]
  [ 45  49  52]
  [ 44  49  52]
  ...
  [ 16  21  25]
  [ 15  20  24]
  [ 15  20  24]]

 [[ 44  49  52]
  [ 44  49  52]
  [ 44  49  52]
  ...
  [ 17  22  25]
  [ 16  21  24]
  [ 15  20  23]]

 ...

 [[ 38  48  47]
  [ 38  48  47]
  [ 40  50  49]
  ...
  [104 111 104]
  [105 112 105]
  [105 112 105]]

 [[ 36  48  46]
  [ 37  49  47]
  [ 39  51  49]
  ...
  [104 111 104]
  [105 112 105]
  [106 113 106]]

 [[ 36  48  46]
  [ 36  48  46]
  [ 39  51  49]
  ...
  [103 110 103]
  [103 110 103]
  [105 112 105]]]"
1726689407.191655,0.939097,-1.536084,1.785655,-2.166181,-1.286294,-0.534817,-0.193696,-0.490733,0.37425,-2.703201,0.049269,3.110476,-4.1e-05,-7.8e-05,-0.000116,-0.000147,7e-06,1.2e-05,31.952789,0.0,0.0,0.0,0.0,moving to grasp red button,"[[[ 24  24  32]
  [ 10  13  18]
  [  4   8  11]
  ...
  [105 100  94]
  [107 102  96]
  [106 101  95]]

 [[ 19  19  27]
  [ 18  19  24]
  [  7  11  12]
  ...
  [103  98  92]
  [106 101  95]
  [108 103  97]]

 [[ 32  33  38]
  [ 14  15  19]
  [  9  13  14]
  ...
  [ 98  93  87]
  [102  97  91]
  [105 100  94]]

 ...

 [[173 147 110]
  [170 146 110]
  [168 144 110]
  ...
  [145 137 116]
  [145 137 116]
  [144 136 115]]

 [[173 142  98]
  [173 141 100]
  [172 144 105]
  ...
  [144 136 115]
  [144 136 115]
  [143 135 114]]

 [[179 145  99]
  [175 142  97]
  [172 140  99]
  ...
  [145 137 116]
  [143 135 114]
  [140 132 111]]]","[[[ 35  49  49]
  [ 34  48  48]
  [ 37  49  49]
  ...
  [ 18  27  26]
  [ 18  27  26]
  [ 19  28  27]]

 [[ 36  50  50]
  [ 35  49  49]
  [ 37  49  49]
  ...
  [ 20  29  28]
  [ 20  29  28]
  [ 19  28  27]]

 [[ 39  51  51]
  [ 37  49  49]
  [ 37  49  49]
  ...
  [ 20  29  28]
  [ 19  28  27]
  [ 17  26  25]]

 ...

 [[ 42  48  48]
  [ 41  47  47]
  [ 40  46  46]
  ...
  [107 113 111]
  [106 112 110]
  [107 113 111]]

 [[ 44  50  50]
  [ 42  48  48]
  [ 40  46  46]
  ...
  [106 112 110]
  [106 112 110]
  [104 110 108]]

 [[ 46  52  52]
  [ 44  50  50]
  [ 42  48  48]
  ...
  [103 109 107]
  [105 111 109]
  [104 110 108]]]"
1726689407.287655,0.943516,-1.483891,1.77416,-2.208128,-1.287982,-0.530271,-0.202102,-0.506047,0.357642,-2.70317,0.049308,3.110495,-3.4e-05,-6e-06,-3.4e-05,-0.00016,-2.8e-05,-4e-06,31.952789,0.0,0.0,0.0,0.0,moving to grasp red button,"[[[ 32  52  53]
  [  7  25  25]
  [ 10  20  21]
  ...
  [103 100  93]
  [106 103  96]
  [110 107 100]]

 [[ 54  72  74]
  [ 19  35  35]
  [ 10  20  21]
  ...
  [100  97  90]
  [104 101  94]
  [107 104  97]]

 [[ 78  92  93]
  [ 58  70  70]
  [ 11  20  19]
  ...
  [ 99  96  89]
  [102  99  92]
  [105 102  95]]

 ...

 [[173 141 118]
  [172 142 118]
  [173 145 121]
  ...
  [144 136 117]
  [144 137 118]
  [144 137 118]]

 [[180 140 114]
  [178 141 114]
  [180 145 117]
  ...
  [143 135 116]
  [144 137 118]
  [144 137 118]]

 [[186 142 113]
  [180 139 109]
  [179 140 111]
  ...
  [143 135 116]
  [144 137 118]
  [145 138 119]]]","[[[ 38  48  49]
  [ 37  47  48]
  [ 38  48  49]
  ...
  [ 20  26  26]
  [ 20  26  26]
  [ 20  26  26]]

 [[ 38  48  49]
  [ 37  47  48]
  [ 38  48  49]
  ...
  [ 19  25  25]
  [ 18  24  24]
  [ 17  23  23]]

 [[ 38  48  49]
  [ 38  48  49]
  [ 38  48  49]
  ...
  [ 21  27  27]
  [ 19  25  25]
  [ 17  23  23]]

 ...

 [[ 40  50  42]
  [ 39  49  41]
  [ 39  48  43]
  ...
  [106 113 106]
  [107 114 107]
  [106 113 106]]

 [[ 39  49  41]
  [ 38  48  40]
  [ 37  46  41]
  ...
  [104 111 104]
  [105 112 105]
  [105 112 105]]

 [[ 37  47  39]
  [ 36  46  38]
  [ 35  44  39]
  ...
  [101 108 101]
  [103 110 103]
  [103 110 103]]]"
1726689407.383654,0.947385,-1.432612,1.759791,-2.245799,-1.289419,-0.526264,-0.210272,-0.520813,0.341475,-2.703382,0.049587,3.110493,2.1e-05,3.1e-05,0.000164,6.9e-05,-0.000304,-1e-06,31.952789,0.0,0.0,0.0,0.0,moving to grasp red button,"[[[ 67  75  64]
  [ 28  35  27]
  [ 10  15   9]
  ...
  [108 104  93]
  [109 105  94]
  [107 103  92]]

 [[ 79  85  75]
  [ 50  55  48]
  [ 13  15  10]
  ...
  [103  99  88]
  [106 102  91]
  [109 105  94]]

 [[ 92  95  86]
  [ 86  89  82]
  [ 41  42  37]
  ...
  [ 96  92  81]
  [100  96  85]
  [106 102  91]]

 ...

 [[178 144 106]
  [176 144 106]
  [173 143 107]
  ...
  [145 137 116]
  [144 136 115]
  [144 136 115]]

 [[180 139  95]
  [179 140  97]
  [180 143 101]
  ...
  [145 137 116]
  [144 136 115]
  [144 136 115]]

 [[187 143  96]
  [184 141  96]
  [181 140  96]
  ...
  [145 137 116]
  [144 136 115]
  [143 135 114]]]","[[[ 33  47  47]
  [ 34  48  48]
  [ 38  50  50]
  ...
  [ 17  26  25]
  [ 17  26  25]
  [ 18  27  26]]

 [[ 34  48  48]
  [ 35  49  49]
  [ 37  49  49]
  ...
  [ 18  27  26]
  [ 18  27  26]
  [ 19  28  27]]

 [[ 35  49  49]
  [ 35  49  49]
  [ 36  48  48]
  ...
  [ 17  26  25]
  [ 18  27  26]
  [ 19  28  27]]

 ...

 [[ 33  43  42]
  [ 35  45  44]
  [ 35  45  44]
  ...
  [102 107 101]
  [105 110 104]
  [108 113 107]]

 [[ 33  45  43]
  [ 32  44  42]
  [ 35  47  45]
  ...
  [102 107 103]
  [105 112 105]
  [106 113 106]]

 [[ 34  46  44]
  [ 31  43  41]
  [ 34  46  44]
  ...
  [105 110 106]
  [106 113 106]
  [101 108 101]]]"
1726689407.479654,0.950367,-1.390364,1.74541,-2.274685,-1.290484,-0.523194,-0.216947,-0.532889,0.328434,-2.703156,0.049594,3.110537,5.8e-05,6.1e-05,0.000144,-0.000143,-0.000309,-4.3e-05,31.952789,0.0,0.0,0.0,0.0,moving to grasp red button,"[[[ 60  66  62]
  [ 25  31  27]
  [  8  14  10]
  ...
  [107 103  94]
  [110 103  95]
  [112 105  97]]

 [[ 73  78  74]
  [ 48  54  50]
  [  8  13   9]
  ...
  [102  98  89]
  [108 101  93]
  [111 104  96]]

 [[ 84  86  81]
  [ 82  87  81]
  [ 29  31  26]
  ...
  [ 98  94  85]
  [104  97  91]
  [107 100  94]]

 ...

 [[170 137 104]
  [170 139 108]
  [171 144 114]
  ...
  [144 136 113]
  [145 138 112]
  [146 139 113]]

 [[178 140 101]
  [176 141 103]
  [174 142 104]
  ...
  [145 137 114]
  [145 138 112]
  [145 138 112]]

 [[181 139  97]
  [179 140  99]
  [177 142 102]
  ...
  [145 137 114]
  [144 137 111]
  [144 137 111]]]","[[[ 40  46  46]
  [ 42  48  48]
  [ 38  47  46]
  ...
  [ 17  23  23]
  [ 18  24  24]
  [ 20  26  26]]

 [[ 38  44  44]
  [ 40  46  46]
  [ 37  46  45]
  ...
  [ 18  24  24]
  [ 18  24  24]
  [ 19  25  25]]

 [[ 37  46  45]
  [ 38  47  46]
  [ 38  47  46]
  ...
  [ 17  23  23]
  [ 18  24  24]
  [ 19  25  25]]

 ...

 [[ 37  44  50]
  [ 37  44  50]
  [ 37  45  48]
  ...
  [109 111 106]
  [108 110 105]
  [107 109 104]]

 [[ 37  44  52]
  [ 37  44  50]
  [ 37  45  48]
  ...
  [104 107 100]
  [101 104  97]
  [ 99 102  95]]

 [[ 36  43  51]
  [ 35  42  48]
  [ 36  43  49]
  ...
  [ 87  90  83]
  [ 94  97  90]
  [102 105  98]]]"
1726689407.575654,0.952594,-1.35826,1.733221,-2.294964,-1.291467,-0.521046,-0.22194,-0.541985,0.318505,-2.703404,0.049612,3.110608,2.7e-05,3.7e-05,0.000186,0.000116,-0.000324,-0.000113,31.952789,0.0,0.0,0.0,0.0,moving to grasp red button,"[[[ 42  51  56]
  [ 20  29  34]
  [  5  15  17]
  ...
  [109 101  90]
  [114 106  95]
  [111 103  92]]

 [[ 67  74  80]
  [ 22  30  33]
  [  6  14  17]
  ...
  [107  99  88]
  [112 104  93]
  [111 103  92]]

 [[ 80  85  89]
  [ 64  69  72]
  [ 18  24  24]
  ...
  [104  95  86]
  [109 101  90]
  [109 101  90]]

 ...

 [[178 144 117]
  [176 144 119]
  [173 141 118]
  ...
  [147 136 116]
  [148 137 119]
  [148 137 119]]

 [[175 140 102]
  [175 141 104]
  [175 140 108]
  ...
  [148 137 117]
  [147 136 118]
  [147 136 118]]

 [[177 140  96]
  [177 142 100]
  [177 142 104]
  ...
  [146 135 115]
  [146 135 117]
  [145 134 116]]]","[[[ 40  45  48]
  [ 39  44  47]
  [ 39  44  47]
  ...
  [ 21  26  29]
  [ 22  27  30]
  [ 20  25  28]]

 [[ 39  44  47]
  [ 38  43  46]
  [ 38  43  46]
  ...
  [ 18  23  26]
  [ 19  24  27]
  [ 17  22  25]]

 [[ 39  44  47]
  [ 39  44  47]
  [ 39  44  47]
  ...
  [ 17  22  25]
  [ 18  23  26]
  [ 17  22  25]]

 ...

 [[ 40  41  43]
  [ 39  43  44]
  [ 39  43  44]
  ...
  [105 107 102]
  [106 109 102]
  [105 108 101]]

 [[ 40  41  43]
  [ 40  44  45]
  [ 39  43  44]
  ...
  [100 101  96]
  [104 105  99]
  [106 107  99]]

 [[ 38  39  41]
  [ 39  43  44]
  [ 39  43  44]
  ...
  [ 88  89  83]
  [ 98  99  93]
  [ 97  98  90]]]"
1726689407.671654,0.95408,-1.336453,1.724061,-2.308451,-1.291993,-0.519679,-0.225326,-0.548195,0.31194,-2.702999,0.049367,3.110786,1e-06,5.5e-05,3.7e-05,-0.000281,-7.8e-05,-0.00029,31.952789,0.0,0.0,0.0,0.0,moving to grasp red button,"[[[ 43  57  58]
  [ 15  29  30]
  [  6  16  17]
  ...
  [110 100  91]
  [110 100  91]
  [111 101  92]]

 [[ 61  73  73]
  [ 28  40  40]
  [  2  12  11]
  ...
  [108  98  89]
  [111 101  92]
  [114 104  95]]

 [[ 72  83  79]
  [ 72  81  78]
  [ 17  23  19]
  ...
  [101  92  85]
  [105  94  88]
  [109  98  92]]

 ...

 [[172 141 112]
  [173 144 114]
  [172 145 118]
  ...
  [141 133 112]
  [145 134 114]
  [147 136 116]]

 [[182 145 103]
  [179 144 104]
  [175 143 105]
  ...
  [143 135 114]
  [145 134 114]
  [146 135 115]]

 [[182 141  95]
  [180 142  97]
  [176 142  97]
  ...
  [143 135 114]
  [144 133 113]
  [143 132 112]]]","[[[ 36  42  42]
  [ 37  43  43]
  [ 38  44  44]
  ...
  [ 17  22  25]
  [ 17  22  25]
  [ 16  21  24]]

 [[ 39  45  45]
  [ 39  45  45]
  [ 40  46  46]
  ...
  [ 16  21  24]
  [ 16  21  24]
  [ 15  20  23]]

 [[ 38  47  46]
  [ 39  48  47]
  [ 40  49  48]
  ...
  [ 13  21  23]
  [ 13  21  23]
  [ 13  21  23]]

 ...

 [[ 33  41  43]
  [ 37  45  47]
  [ 38  47  46]
  ...
  [101 107 105]
  [103 108 104]
  [104 109 105]]

 [[ 32  40  42]
  [ 33  41  43]
  [ 34  43  42]
  ...
  [ 96 102 100]
  [ 96 101  97]
  [ 99 104 100]]

 [[ 32  40  42]
  [ 31  39  41]
  [ 32  41  40]
  ...
  [ 88  94  92]
  [ 89  94  90]
  [ 93  98  94]]]"
1726689407.767654,0.954774,-1.324802,1.71902,-2.315159,-1.292436,-0.518996,-0.227174,-0.551459,0.30837,-2.703158,0.049283,3.110747,4.9e-05,5.3e-05,6.6e-05,-0.000118,7e-06,-0.000251,31.952789,0.0,0.0,0.0,0.0,moving to grasp red button,"[[[ 17  28  22]
  [ 11  22  16]
  [  6  15  10]
  ...
  [105 100  94]
  [109 104  98]
  [108 103  97]]

 [[ 34  43  38]
  [ 12  22  14]
  [  4  10   6]
  ...
  [101  96  90]
  [106 101  95]
  [108 103  97]]

 [[ 71  78  71]
  [ 25  32  24]
  [ 17  22  16]
  ...
  [ 97  92  86]
  [101  96  90]
  [105 100  94]]

 ...

 [[174 145 111]
  [170 144 111]
  [170 143 113]
  ...
  [145 137 116]
  [145 137 116]
  [145 137 116]]

 [[177 143 105]
  [176 142 104]
  [175 142 107]
  ...
  [147 136 116]
  [147 136 116]
  [146 135 115]]

 [[180 143 101]
  [178 143 103]
  [178 143 105]
  ...
  [145 134 114]
  [145 134 114]
  [145 134 114]]]","[[[ 37  49  47]
  [ 37  49  47]
  [ 39  51  49]
  ...
  [ 17  23  21]
  [ 17  23  19]
  [ 18  24  20]]

 [[ 37  49  47]
  [ 37  49  47]
  [ 37  49  47]
  ...
  [ 15  21  19]
  [ 15  21  17]
  [ 16  22  18]]

 [[ 37  49  47]
  [ 35  47  45]
  [ 35  47  45]
  ...
  [ 14  20  18]
  [ 13  19  17]
  [ 14  20  18]]

 ...

 [[ 30  42  40]
  [ 32  44  42]
  [ 34  46  44]
  ...
  [108 117 116]
  [102 106 107]
  [100 104 105]]

 [[ 29  41  39]
  [ 29  41  39]
  [ 31  43  41]
  ...
  [108 117 116]
  [101 105 106]
  [ 98 102 103]]

 [[ 33  45  43]
  [ 31  43  41]
  [ 32  44  42]
  ...
  [108 117 116]
  [ 99 103 104]
  [ 96 100 101]]]"
1726689407.863654,0.954798,-1.323027,1.71829,-2.316047,-1.292807,-0.51884,-0.227513,-0.551914,0.307782,-2.703484,0.049148,3.110493,8.2e-05,-4.8e-05,5.2e-05,0.000208,0.000142,3e-06,31.952789,0.0,0.0,0.0,0.0,moving to grasp red button,"[[[  9  25  24]
  [  7  22  19]
  [  1  13  11]
  ...
  [107 101  89]
  [110 102  89]
  [110 102  89]]

 [[ 26  40  40]
  [  5  20  17]
  [  8  19  15]
  ...
  [105  99  87]
  [110 102  89]
  [113 105  92]]

 [[ 58  70  68]
  [ 31  42  38]
  [  2  11   6]
  ...
  [101  95  83]
  [106  98  87]
  [110 102  91]]

 ...

 [[173 144 112]
  [175 146 116]
  [172 145 118]
  ...
  [144 136 115]
  [143 135 114]
  [142 134 113]]

 [[177 141 105]
  [177 143 106]
  [175 142 109]
  ...
  [145 137 116]
  [144 136 115]
  [143 135 114]]

 [[179 140 101]
  [180 142 105]
  [177 141 105]
  ...
  [145 137 116]
  [144 136 115]
  [143 135 114]]]","[[[ 33  44  50]
  [ 34  45  51]
  [ 35  46  50]
  ...
  [ 16  20  21]
  [ 16  20  21]
  [ 16  20  21]]

 [[ 34  45  51]
  [ 35  46  50]
  [ 36  47  51]
  ...
  [ 16  20  21]
  [ 16  20  21]
  [ 16  20  21]]

 [[ 35  46  50]
  [ 35  46  50]
  [ 36  47  51]
  ...
  [ 15  19  20]
  [ 15  19  20]
  [ 15  19  20]]

 ...

 [[ 34  43  38]
  [ 34  43  38]
  [ 34  43  40]
  ...
  [107 119 119]
  [103 115 115]
  [ 98 110 110]]

 [[ 33  42  37]
  [ 34  43  38]
  [ 33  42  39]
  ...
  [107 119 119]
  [103 115 115]
  [ 97 109 109]]

 [[ 37  46  41]
  [ 37  46  41]
  [ 36  45  42]
  ...
  [107 119 119]
  [103 115 115]
  [ 97 109 109]]]"
1726689407.959654,0.954798,-1.323088,1.718326,-2.315987,-1.292795,-0.518719,-0.227499,-0.551895,0.307793,-2.703513,0.049228,3.110387,6.8e-05,-6.7e-05,4.1e-05,0.000238,6.3e-05,0.00011,31.952789,0.0,0.0,0.0,0.0,moving to grasp red button,"[[[ 84  85  80]
  [ 65  67  62]
  [ 29  31  28]
  ...
  [107 105  92]
  [110 108  95]
  [109 107  94]]

 [[ 83  82  78]
  [ 81  82  77]
  [ 49  51  48]
  ...
  [101  99  86]
  [106 104  91]
  [110 108  95]]

 [[ 86  82  79]
  [ 85  84  80]
  [ 81  80  78]
  ...
  [ 98  94  83]
  [103  99  88]
  [107 103  92]]

 ...

 [[177 144 113]
  [173 142 113]
  [170 143 116]
  ...
  [143 135 112]
  [144 136 113]
  [145 137 114]]

 [[179 141 105]
  [176 140 104]
  [174 141 108]
  ...
  [143 136 110]
  [144 137 111]
  [144 137 111]]

 [[181 142 103]
  [180 142 105]
  [178 144 107]
  ...
  [144 137 111]
  [144 137 111]
  [144 137 111]]]","[[[ 38  44  44]
  [ 36  42  42]
  [ 34  43  42]
  ...
  [ 15  20  23]
  [ 13  21  24]
  [ 13  21  24]]

 [[ 39  45  45]
  [ 37  43  43]
  [ 35  44  43]
  ...
  [ 15  20  23]
  [ 13  21  24]
  [ 13  21  24]]

 [[ 38  47  46]
  [ 37  46  45]
  [ 37  46  45]
  ...
  [ 14  19  22]
  [ 14  19  23]
  [ 14  19  23]]

 ...

 [[ 32  40  43]
  [ 33  41  44]
  [ 35  43  45]
  ...
  [107 119 117]
  [103 118 115]
  [ 96 111 108]]

 [[ 34  39  45]
  [ 35  40  44]
  [ 34  42  44]
  ...
  [107 122 119]
  [104 119 116]
  [ 97 112 109]]

 [[ 37  42  48]
  [ 37  42  46]
  [ 36  44  47]
  ...
  [108 123 120]
  [104 119 116]
  [ 96 111 108]]]"
1726689408.055654,0.954798,-1.323064,1.718326,-2.316011,-1.292735,-0.518659,-0.227498,-0.551903,0.307783,-2.703485,0.0493,3.110354,6.7e-05,-5.9e-05,5.1e-05,0.000209,-1e-05,0.000142,31.952789,0.0,0.0,0.0,0.0,moving to grasp red button,"[[[ 86  83  76]
  [ 77  76  71]
  [ 35  34  30]
  ...
  [106 101  95]
  [108 103  97]
  [109 104  98]]

 [[ 90  85  79]
  [ 87  84  77]
  [ 60  59  55]
  ...
  [101  96  90]
  [106 101  95]
  [109 104  98]]

 [[ 91  84  76]
  [ 88  81  73]
  [ 87  82  76]
  ...
  [ 99  94  88]
  [104  99  93]
  [107 102  96]]

 ...

 [[174 140 112]
  [173 142 113]
  [173 143 115]
  ...
  [144 136 115]
  [144 136 115]
  [142 134 113]]

 [[179 141 105]
  [177 141 105]
  [176 142 107]
  ...
  [144 136 115]
  [146 138 119]
  [144 136 117]]

 [[181 142 103]
  [178 140 101]
  [175 139 103]
  ...
  [144 136 115]
  [146 138 119]
  [145 137 118]]]","[[[ 34  46  44]
  [ 32  44  42]
  [ 33  45  43]
  ...
  [ 14  20  20]
  [ 15  21  21]
  [ 17  23  23]]

 [[ 35  47  45]
  [ 34  46  44]
  [ 34  46  44]
  ...
  [ 14  20  20]
  [ 15  21  21]
  [ 15  21  21]]

 [[ 36  48  46]
  [ 36  48  46]
  [ 35  47  45]
  ...
  [ 14  20  20]
  [ 14  20  20]
  [ 14  20  20]]

 ...

 [[ 38  44  40]
  [ 38  44  40]
  [ 38  44  40]
  ...
  [106 118 116]
  [ 99 114 111]
  [ 93 108 105]]

 [[ 36  43  36]
  [ 35  42  35]
  [ 36  43  36]
  ...
  [103 118 115]
  [ 99 114 111]
  [ 93 108 105]]

 [[ 37  44  37]
  [ 37  44  37]
  [ 37  44  37]
  ...
  [103 118 115]
  [100 115 112]
  [ 95 110 107]]]"
1726689408.151654,0.954798,-1.323039,1.71829,-2.316059,-1.292604,-0.518647,-0.227498,-0.55192,0.307795,-2.703368,0.049377,3.110395,6.7e-05,-4.2e-05,3.9e-05,9.2e-05,-8.6e-05,0.000102,31.952789,0.0,0.0,0.0,0.0,moving to grasp red button,"[[[ 60  68  70]
  [ 22  30  32]
  [  9  17  19]
  ...
  [109  99  90]
  [112 103  94]
  [112 103  94]]

 [[ 74  80  80]
  [ 41  50  49]
  [ 18  24  24]
  ...
  [105  95  86]
  [109 100  91]
  [110 101  92]]

 [[ 79  83  82]
  [ 79  85  83]
  [ 25  29  28]
  ...
  [100  91  84]
  [104  95  88]
  [106  97  90]]

 ...

 [[173 142 113]
  [172 142 114]
  [171 141 115]
  ...
  [146 135 115]
  [147 136 116]
  [146 135 115]]

 [[175 139 105]
  [175 139 105]
  [176 141 111]
  ...
  [145 134 114]
  [146 135 115]
  [145 134 114]]

 [[181 141 105]
  [176 138 102]
  [174 135 102]
  ...
  [145 134 114]
  [145 134 114]
  [144 133 113]]]","[[[ 33  49  39]
  [ 33  49  39]
  [ 36  49  42]
  ...
  [ 14  20  20]
  [ 14  20  20]
  [ 15  21  21]]

 [[ 34  50  40]
  [ 33  49  39]
  [ 35  48  41]
  ...
  [ 15  21  21]
  [ 14  20  20]
  [ 14  20  20]]

 [[ 37  50  41]
  [ 36  49  40]
  [ 36  49  42]
  ...
  [ 15  21  21]
  [ 14  20  20]
  [ 14  20  20]]

 ...

 [[ 36  45  42]
  [ 36  45  42]
  [ 33  44  40]
  ...
  [107 116 115]
  [102 111 110]
  [ 98 107 106]]

 [[ 36  47  43]
  [ 36  47  43]
  [ 35  46  42]
  ...
  [106 115 114]
  [103 112 111]
  [100 109 108]]

 [[ 33  44  40]
  [ 33  44  40]
  [ 33  44  40]
  ...
  [106 115 114]
  [103 112 111]
  [100 109 108]]]"
1726689426.638039,0.954798,-1.323039,1.71829,-2.316059,-1.292604,-0.518647,-0.227498,-0.55192,0.307795,-2.703368,0.049377,3.110395,0.0,0.0,0.0,0.0,0.0,0.0,31.952789,0.229888,0.141246,0.327,0.05,grasping red button,"[[[  1   6   2]
  [  1   6   2]
  [  2   7   1]
  ...
  [111 102  97]
  [114 103  99]
  [114 103  99]]

 [[  1   6   2]
  [  1   6   2]
  [  2   7   1]
  ...
  [105  96  91]
  [110  99  95]
  [113 102  98]]

 [[  1   6   2]
  [  2   7   3]
  [  2   7   1]
  ...
  [100  93  87]
  [106  97  92]
  [109 100  95]]

 ...

 [[171 141 107]
  [171 142 108]
  [169 142 112]
  ...
  [146 135 113]
  [144 136 113]
  [144 136 113]]

 [[176 141 101]
  [177 142 102]
  [175 141 104]
  ...
  [146 136 111]
  [146 136 111]
  [145 135 110]]

 [[181 142  99]
  [178 141  97]
  [175 137  98]
  ...
  [145 135 110]
  [145 135 110]
  [145 135 110]]]","[[[ 34  43  42]
  [ 31  40  39]
  [ 30  39  38]
  ...
  [ 18  24  20]
  [ 16  22  18]
  [ 16  22  18]]

 [[ 31  40  39]
  [ 30  39  38]
  [ 31  40  39]
  ...
  [ 19  25  21]
  [ 18  24  20]
  [ 19  25  21]]

 [[ 29  38  37]
  [ 29  38  37]
  [ 31  40  39]
  ...
  [ 18  24  22]
  [ 19  25  23]
  [ 20  26  24]]

 ...

 [[ 26  36  35]
  [ 27  37  36]
  [ 30  40  39]
  ...
  [115 121 121]
  [110 111 113]
  [108 109 111]]

 [[ 26  38  36]
  [ 26  38  36]
  [ 29  41  39]
  ...
  [115 121 121]
  [109 110 112]
  [105 106 108]]

 [[ 29  41  39]
  [ 28  40  38]
  [ 30  42  40]
  ...
  [112 118 118]
  [105 106 108]
  [100 101 103]]]"
1726689427.53446,0.954798,-1.323039,1.71829,-2.316059,-1.292604,-0.518647,-0.227498,-0.55192,0.307795,-2.703368,0.049377,3.110395,0.0,0.0,0.0,0.0,0.0,0.0,32.182676,0.0,0.188387,0.377,0.0,grasping red button,"[[[  1   6   0]
  [  1   6   0]
  [  1   6   0]
  ...
  [109  98  94]
  [113 102  98]
  [111 100  96]]

 [[  1   6   0]
  [  1   6   0]
  [  1   6   0]
  ...
  [105  94  90]
  [109  98  94]
  [111 100  96]]

 [[  1   6   0]
  [  1   6   0]
  [  1   6   0]
  ...
  [102  93  88]
  [104  94  92]
  [109  99  97]]

 ...

 [[173 143 109]
  [174 145 113]
  [173 146 116]
  ...
  [142 134 111]
  [143 135 112]
  [143 135 112]]

 [[176 141 103]
  [177 143 105]
  [174 144 106]
  ...
  [141 134 108]
  [142 135 109]
  [143 136 110]]

 [[178 141  99]
  [176 141  99]
  [173 139 101]
  ...
  [140 133 107]
  [141 134 108]
  [143 136 110]]]","[[[ 34  43  42]
  [ 31  40  39]
  [ 30  39  38]
  ...
  [ 18  24  20]
  [ 16  22  18]
  [ 16  22  18]]

 [[ 31  40  39]
  [ 30  39  38]
  [ 31  40  39]
  ...
  [ 19  25  21]
  [ 18  24  20]
  [ 19  25  21]]

 [[ 29  38  37]
  [ 29  38  37]
  [ 31  40  39]
  ...
  [ 18  24  22]
  [ 19  25  23]
  [ 20  26  24]]

 ...

 [[ 26  36  35]
  [ 27  37  36]
  [ 30  40  39]
  ...
  [115 121 121]
  [110 111 113]
  [108 109 111]]

 [[ 26  38  36]
  [ 26  38  36]
  [ 29  41  39]
  ...
  [115 121 121]
  [109 110 112]
  [105 106 108]]

 [[ 29  41  39]
  [ 28  40  38]
  [ 30  42  40]
  ...
  [112 118 118]
  [105 106 108]
  [100 101 103]]]"
1726689463.174939,0.954989,-1.323052,1.71829,-2.316095,-1.292604,-0.518575,-0.227391,-0.551962,0.307806,-2.703331,0.049381,3.110523,-4e-05,0.0,2.8e-05,5.5e-05,-9e-05,-2.6e-05,32.182676,0.0,0.188387,0.377,0.0,moving back to original position with red button,"[[[  7   5   6]
  [  7   5   6]
  [  6   6   4]
  ...
  [112 102  93]
  [114 104  95]
  [118 108  99]]

 [[  7   5   6]
  [  6   6   6]
  [  5   5   3]
  ...
  [105  95  86]
  [110 100  91]
  [115 105  96]]

 [[  5   5   5]
  [  5   5   5]
  [  5   5   3]
  ...
  [102  93  84]
  [107  98  89]
  [112 103  94]]

 ...

 [[179 146 113]
  [175 145 111]
  [174 145 113]
  ...
  [149 139 112]
  [149 139 112]
  [148 138 111]]

 [[181 144 102]
  [179 144 104]
  [178 146 107]
  ...
  [148 139 110]
  [148 139 110]
  [148 139 110]]

 [[184 146 101]
  [182 145 101]
  [178 143 101]
  ...
  [147 138 109]
  [146 137 108]
  [146 137 108]]]","[[[ 26  40  40]
  [ 27  41  41]
  [ 28  42  42]
  ...
  [ 16  22  22]
  [ 18  24  24]
  [ 20  26  26]]

 [[ 24  38  38]
  [ 25  39  39]
  [ 26  40  40]
  ...
  [ 15  21  21]
  [ 17  23  23]
  [ 19  25  25]]

 [[ 24  38  38]
  [ 24  38  38]
  [ 26  40  40]
  ...
  [ 14  20  20]
  [ 16  22  22]
  [ 18  24  24]]

 ...

 [[ 28  43  40]
  [ 28  43  40]
  [ 27  42  39]
  ...
  [113 122 121]
  [106 115 114]
  [103 112 111]]

 [[ 28  43  40]
  [ 30  45  42]
  [ 29  44  41]
  ...
  [116 122 122]
  [109 115 115]
  [105 111 111]]

 [[ 26  41  38]
  [ 29  44  41]
  [ 29  44  41]
  ...
  [117 123 123]
  [109 115 115]
  [104 110 110]]]"
1726689463.270939,0.954978,-1.323052,1.71829,-2.316095,-1.292628,-0.518552,-0.227399,-0.551959,0.307805,-2.703344,0.049372,3.110481,-3.2e-05,-3e-06,2.9e-05,6.8e-05,-8.1e-05,1.5e-05,32.182676,0.0,0.188387,0.377,0.0,moving back to original position with red button,"[[[  4   6   1]
  [  4   6   1]
  [  4   6   1]
  ...
  [116 102  99]
  [118 103 100]
  [119 104 101]]

 [[  4   6   1]
  [  4   6   1]
  [  4   6   1]
  ...
  [109  95  92]
  [113  98  95]
  [117 102  99]]

 [[  4   6   1]
  [  4   6   1]
  [  4   6   1]
  ...
  [104  93  89]
  [110  96  93]
  [114 100  97]]

 ...

 [[176 143 110]
  [175 144 113]
  [176 147 117]
  ...
  [145 137 116]
  [146 138 117]
  [147 139 118]]

 [[179 141 102]
  [178 143 105]
  [180 146 111]
  ...
  [145 137 116]
  [145 137 116]
  [147 139 118]]

 [[184 142 100]
  [179 140  99]
  [180 142 105]
  ...
  [145 137 116]
  [146 138 117]
  [147 139 118]]]","[[[ 31  42  48]
  [ 28  39  43]
  [ 28  39  43]
  ...
  [ 15  20  23]
  [ 15  20  23]
  [ 14  19  22]]

 [[ 29  40  46]
  [ 26  37  41]
  [ 27  38  42]
  ...
  [ 17  22  25]
  [ 17  22  25]
  [ 17  22  25]]

 [[ 29  40  46]
  [ 27  38  42]
  [ 28  39  43]
  ...
  [ 18  23  26]
  [ 18  23  26]
  [ 18  23  26]]

 ...

 [[ 25  37  35]
  [ 26  38  36]
  [ 28  40  38]
  ...
  [114 122 124]
  [108 116 118]
  [102 110 112]]

 [[ 26  38  34]
  [ 25  37  33]
  [ 28  40  36]
  ...
  [115 123 125]
  [108 116 118]
  [101 109 111]]

 [[ 25  37  33]
  [ 23  35  31]
  [ 26  38  34]
  ...
  [115 123 125]
  [108 116 118]
  [100 108 110]]]"
1726689463.366939,0.95451,-1.331491,1.721858,-2.311355,-1.292436,-0.51908,-0.226067,-0.549619,0.310452,-2.703125,0.049206,3.110536,-1.2e-05,0.000111,4.3e-05,-0.000154,8.4e-05,-4e-05,32.182676,0.0,0.188387,0.377,0.0,moving back to original position with red button,"[[[  1   8   1]
  [  1   8   1]
  [  0   7   0]
  ...
  [107 100  94]
  [110 103  97]
  [115 108 102]]

 [[  1   8   1]
  [  1   8   1]
  [  0   7   0]
  ...
  [102  95  89]
  [107 100  94]
  [111 104  98]]

 [[  1   8   1]
  [  1   8   1]
  [  0   7   0]
  ...
  [103  94  89]
  [108  99  94]
  [109 100  95]]

 ...

 [[176 143 108]
  [176 146 112]
  [172 146 113]
  ...
  [148 137 115]
  [148 137 115]
  [148 137 115]]

 [[180 142 103]
  [180 145 105]
  [176 144 105]
  ...
  [149 138 116]
  [149 138 116]
  [149 138 116]]

 [[183 144 101]
  [183 146 102]
  [179 144 102]
  ...
  [149 138 116]
  [149 138 116]
  [149 138 116]]]","[[[ 32  44  42]
  [ 32  44  42]
  [ 29  44  41]
  ...
  [ 17  23  23]
  [ 19  25  25]
  [ 19  25  25]]

 [[ 31  43  41]
  [ 30  42  40]
  [ 28  43  40]
  ...
  [ 17  23  23]
  [ 18  24  24]
  [ 19  25  25]]

 [[ 30  42  40]
  [ 30  42  40]
  [ 29  41  39]
  ...
  [ 16  22  22]
  [ 17  23  23]
  [ 20  26  26]]

 ...

 [[ 27  41  44]
  [ 26  40  43]
  [ 26  40  41]
  ...
  [105 114 113]
  [112 118 118]
  [107 113 113]]

 [[ 26  39  45]
  [ 25  39  42]
  [ 25  39  40]
  ...
  [ 97 106 105]
  [110 115 118]
  [106 110 113]]

 [[ 25  38  44]
  [ 24  38  41]
  [ 24  38  41]
  ...
  [ 82  91  90]
  [100 104 107]
  [102 106 109]]]"
1726689463.462939,0.953241,-1.349988,1.729581,-2.299992,-1.292065,-0.520099,-0.223232,-0.544374,0.316096,-2.703411,0.049344,3.110226,2.9e-05,8.6e-05,5.8e-05,0.000126,-5.5e-05,0.000269,32.182676,0.0,0.188387,0.377,0.0,moving back to original position with red button,"[[[  6   7   2]
  [  5   6   1]
  [  3   5   0]
  ...
  [109 102  94]
  [113 104  97]
  [115 106  99]]

 [[  6   7   2]
  [  5   6   1]
  [  3   5   0]
  ...
  [107 100  92]
  [112 103  96]
  [114 105  98]]

 [[  5   6   1]
  [  5   6   1]
  [  5   6   1]
  ...
  [105  98  92]
  [109 100  93]
  [111 102  95]]

 ...

 [[178 148 112]
  [177 147 113]
  [175 146 114]
  ...
  [147 136 114]
  [147 136 114]
  [148 137 115]]

 [[180 143 101]
  [182 144 105]
  [181 145 109]
  ...
  [147 136 114]
  [147 136 116]
  [148 137 117]]

 [[184 143  99]
  [184 142 100]
  [181 142 103]
  ...
  [146 135 113]
  [147 136 116]
  [148 137 117]]]","[[[ 30  38  40]
  [ 29  37  39]
  [ 31  39  41]
  ...
  [ 18  24  24]
  [ 16  22  22]
  [ 18  24  24]]

 [[ 32  40  42]
  [ 31  39  41]
  [ 31  39  41]
  ...
  [ 19  25  25]
  [ 18  24  24]
  [ 19  25  25]]

 [[ 34  42  44]
  [ 32  40  42]
  [ 30  38  40]
  ...
  [ 19  25  25]
  [ 19  25  25]
  [ 17  23  23]]

 ...

 [[ 29  39  38]
  [ 30  40  39]
  [ 30  40  39]
  ...
  [111 116 110]
  [107 112 106]
  [106 111 105]]

 [[ 30  42  38]
  [ 31  43  39]
  [ 30  42  38]
  ...
  [105 110 104]
  [108 111 104]
  [111 114 107]]

 [[ 30  42  38]
  [ 30  42  38]
  [ 30  42  38]
  ...
  [ 90  95  89]
  [100 103  96]
  [ 98 101  94]]]"
1726689463.558939,0.951241,-1.378819,1.740921,-2.282352,-1.291502,-0.522078,-0.21879,-0.536197,0.324988,-2.703202,0.048958,3.110102,8.6e-05,7.4e-05,1.9e-05,-9.2e-05,0.000329,0.000392,32.182676,0.0,0.188387,0.377,0.0,moving back to original position with red button,"[[[  0   5   0]
  [  1   6   0]
  [  3   5   0]
  ...
  [107 102  96]
  [112 105  99]
  [115 108 102]]

 [[  1   6   0]
  [  1   6   0]
  [  3   5   0]
  ...
  [103  98  92]
  [109 102  96]
  [113 106 100]]

 [[  1   6   0]
  [  1   6   0]
  [  3   5   0]
  ...
  [100  95  89]
  [106  99  93]
  [110 103  97]]

 ...

 [[178 143 115]
  [179 145 117]
  [174 143 115]
  ...
  [146 138 115]
  [146 138 115]
  [146 138 115]]

 [[181 138 104]
  [183 143 108]
  [182 143 110]
  ...
  [145 137 114]
  [145 138 112]
  [146 139 113]]

 [[183 137 101]
  [186 142 105]
  [184 141 107]
  ...
  [145 137 114]
  [144 137 111]
  [145 138 112]]]","[[[ 30  42  42]
  [ 32  44  44]
  [ 32  44  44]
  ...
  [ 16  28  28]
  [ 15  27  27]
  [ 15  27  27]]

 [[ 30  42  42]
  [ 31  43  43]
  [ 30  42  42]
  ...
  [ 17  29  29]
  [ 15  27  27]
  [ 15  27  27]]

 [[ 30  42  42]
  [ 30  42  42]
  [ 30  42  42]
  ...
  [ 17  29  29]
  [ 16  28  28]
  [ 16  28  28]]

 ...

 [[ 29  42  35]
  [ 29  42  35]
  [ 28  40  36]
  ...
  [108 113 106]
  [108 115 107]
  [107 114 106]]

 [[ 30  43  36]
  [ 29  42  35]
  [ 27  39  35]
  ...
  [107 113 103]
  [108 114 104]
  [109 115 105]]

 [[ 30  43  36]
  [ 29  42  35]
  [ 27  39  35]
  ...
  [ 84  90  80]
  [ 97 103  93]
  [106 112 102]]]"
1726689463.654939,0.948522,-1.417626,1.754918,-2.256312,-1.290437,-0.525185,-0.212661,-0.525098,0.33683,-2.703602,0.049062,3.110365,6.9e-05,6.7e-05,0.000202,0.000294,0.000222,0.000127,32.182676,0.0,0.188387,0.377,0.0,moving back to original position with red button,"[[[  1   6   2]
  [  1   6   2]
  [  2   7   3]
  ...
  [113 105 102]
  [116 107 102]
  [118 109 104]]

 [[  1   6   2]
  [  1   6   2]
  [  1   6   2]
  ...
  [107 100  94]
  [112 103  98]
  [115 106 101]]

 [[  3   5   0]
  [  3   5   0]
  [  1   6   0]
  ...
  [103  96  90]
  [108  99  94]
  [112 103  96]]

 ...

 [[177 146 118]
  [175 145 117]
  [173 146 117]
  ...
  [148 138 113]
  [147 137 110]
  [149 139 112]]

 [[179 143 111]
  [178 143 111]
  [179 146 113]
  ...
  [148 138 111]
  [146 139 111]
  [148 141 113]]

 [[184 144 109]
  [181 143 107]
  [178 142 108]
  ...
  [148 138 111]
  [146 139 111]
  [149 142 114]]]","[[[ 28  40  40]
  [ 28  40  40]
  [ 29  41  41]
  ...
  [ 20  26  26]
  [ 20  26  26]
  [ 22  28  28]]

 [[ 29  41  41]
  [ 29  41  41]
  [ 29  41  41]
  ...
  [ 21  27  27]
  [ 20  26  26]
  [ 22  28  28]]

 [[ 30  42  42]
  [ 30  42  42]
  [ 30  42  42]
  ...
  [ 21  27  27]
  [ 19  25  25]
  [ 20  26  26]]

 ...

 [[ 30  39  34]
  [ 31  40  35]
  [ 32  41  36]
  ...
  [112 114 109]
  [113 115 110]
  [113 115 110]]

 [[ 30  40  32]
  [ 30  40  32]
  [ 30  40  32]
  ...
  [112 114 109]
  [111 113 108]
  [110 112 107]]

 [[ 30  40  32]
  [ 30  40  32]
  [ 30  40  32]
  ...
  [106 108 103]
  [110 112 107]
  [108 110 105]]]"
1726689463.750939,0.94487,-1.46635,1.769646,-2.221318,-1.288952,-0.52894,-0.204938,-0.511093,0.352047,-2.703573,0.049067,3.110383,6.4e-05,7.1e-05,0.000174,0.000248,0.000214,0.000108,32.182676,0.0,0.188387,0.377,0.0,moving back to original position with red button,"[[[  5   6   1]
  [  5   6   1]
  [  5   6   1]
  ...
  [112 103  98]
  [116 107 102]
  [116 107 102]]

 [[  5   6   1]
  [  5   6   1]
  [  5   6   1]
  ...
  [107  98  93]
  [112 103  98]
  [114 105 100]]

 [[  5   6   1]
  [  5   6   1]
  [  5   6   1]
  ...
  [103  94  89]
  [108  99  94]
  [112 103  98]]

 ...

 [[177 148 118]
  [176 146 118]
  [173 146 117]
  ...
  [147 139 116]
  [148 140 117]
  [147 139 116]]

 [[177 141 107]
  [178 142 108]
  [178 143 111]
  ...
  [147 139 116]
  [147 139 116]
  [148 140 117]]

 [[182 142 106]
  [182 144 107]
  [180 141 108]
  ...
  [146 138 115]
  [146 138 115]
  [149 141 118]]]","[[[ 26  40  40]
  [ 29  43  43]
  [ 28  42  42]
  ...
  [ 21  29  31]
  [ 21  29  31]
  [ 23  31  33]]

 [[ 26  40  40]
  [ 28  42  42]
  [ 28  42  42]
  ...
  [ 21  29  31]
  [ 22  30  32]
  [ 24  32  34]]

 [[ 27  41  41]
  [ 27  41  41]
  [ 29  43  43]
  ...
  [ 22  30  32]
  [ 23  31  33]
  [ 25  33  35]]

 ...

 [[ 32  41  38]
  [ 30  39  36]
  [ 32  41  38]
  ...
  [110 117 110]
  [110 117 110]
  [114 121 114]]

 [[ 32  41  38]
  [ 31  40  37]
  [ 33  42  39]
  ...
  [110 117 110]
  [109 116 109]
  [111 118 111]]

 [[ 32  41  38]
  [ 33  42  39]
  [ 34  43  40]
  ...
  [110 117 110]
  [107 114 107]
  [106 113 106]]]"
1726689463.846939,0.940606,-1.518662,1.782386,-2.180548,-1.287251,-0.53345,-0.196533,-0.495834,0.368568,-2.703561,0.049025,3.110503,5.8e-05,5.5e-05,0.000179,0.000219,0.000252,-1.5e-05,32.182676,0.0,0.188387,0.377,0.0,moving back to original position with red button,"[[[  2   7   3]
  [  2   7   3]
  [  2   7   1]
  ...
  [112 103  98]
  [115 104 100]
  [117 106 102]]

 [[  2   7   3]
  [  2   7   3]
  [  2   7   1]
  ...
  [108  99  94]
  [112 101  97]
  [114 103  99]]

 [[  1   6   0]
  [  1   6   0]
  [  3   5   0]
  ...
  [104  95  88]
  [108  97  91]
  [110  99  93]]

 ...

 [[180 148 110]
  [177 147 111]
  [171 145 110]
  ...
  [147 139 118]
  [147 139 118]
  [148 140 119]]

 [[178 141  97]
  [177 142 100]
  [177 145 104]
  ...
  [146 138 117]
  [147 139 118]
  [147 139 118]]

 [[181 143  96]
  [180 143  98]
  [177 143  98]
  ...
  [145 137 116]
  [145 137 116]
  [146 138 117]]]","[[[ 26  40  40]
  [ 30  44  44]
  [ 29  43  43]
  ...
  [ 21  30  29]
  [ 21  30  29]
  [ 18  27  26]]

 [[ 27  41  41]
  [ 31  45  45]
  [ 29  43  43]
  ...
  [ 21  30  29]
  [ 20  29  28]
  [ 19  28  27]]

 [[ 28  42  42]
  [ 31  45  45]
  [ 29  43  43]
  ...
  [ 20  29  28]
  [ 20  29  28]
  [ 20  29  28]]

 ...

 [[ 35  40  34]
  [ 35  42  35]
  [ 35  41  37]
  ...
  [112 119 112]
  [110 116 112]
  [110 116 112]]

 [[ 36  41  35]
  [ 34  41  34]
  [ 33  39  35]
  ...
  [111 118 111]
  [108 114 110]
  [109 115 111]]

 [[ 36  41  35]
  [ 33  40  33]
  [ 34  40  36]
  ...
  [111 118 111]
  [108 114 110]
  [110 116 112]]]"
1726689463.942939,0.936091,-1.568878,1.791175,-2.137963,-1.285432,-0.53796,-0.188352,-0.480938,0.384806,-2.703439,0.04906,3.110401,3.3e-05,-3.9e-05,-1e-05,7.9e-05,0.000214,8.5e-05,32.182676,0.0,0.188387,0.377,0.0,moving back to original position with red button,"[[[  3   7   6]
  [  3   7   6]
  [  3   8   4]
  ...
  [108 103  97]
  [109 104  98]
  [111 106 100]]

 [[  4   6   5]
  [  2   6   5]
  [  4   6   3]
  ...
  [105 100  94]
  [109 104  98]
  [113 108 102]]

 [[  4   4   4]
  [  3   5   4]
  [  4   4   2]
  ...
  [100  95  89]
  [105 100  94]
  [109 104  98]]

 ...

 [[177 144 111]
  [176 146 112]
  [175 146 116]
  ...
  [149 138 116]
  [148 138 113]
  [149 139 114]]

 [[180 143 101]
  [180 145 105]
  [182 148 111]
  ...
  [148 137 115]
  [148 138 113]
  [149 139 114]]

 [[185 144 100]
  [181 142  99]
  [179 141 102]
  ...
  [148 137 115]
  [147 137 112]
  [149 139 114]]]","[[[ 43  48  41]
  [ 41  46  39]
  [ 41  46  40]
  ...
  [ 17  23  23]
  [ 15  21  21]
  [ 15  21  21]]

 [[ 44  49  43]
  [ 42  47  41]
  [ 41  46  40]
  ...
  [ 16  22  22]
  [ 16  22  22]
  [ 16  22  22]]

 [[ 43  48  44]
  [ 41  46  42]
  [ 41  46  42]
  ...
  [ 17  23  23]
  [ 16  22  22]
  [ 17  23  23]]

 ...

 [[ 36  48  48]
  [ 35  47  47]
  [ 36  48  48]
  ...
  [114 121 114]
  [114 121 114]
  [116 123 116]]

 [[ 35  47  47]
  [ 34  46  46]
  [ 33  45  45]
  ...
  [111 118 111]
  [112 119 112]
  [112 119 112]]

 [[ 34  46  46]
  [ 32  44  44]
  [ 32  44  44]
  ...
  [112 119 112]
  [111 118 111]
  [110 117 110]]]"
1726689464.038939,0.932223,-1.609108,1.795953,-2.10122,-1.283983,-0.541954,-0.181629,-0.468758,0.397981,-2.703619,0.049129,3.110375,1.7e-05,-4.6e-05,1.2e-05,0.000245,0.000141,0.00011,32.182676,0.0,0.188387,0.377,0.0,moving back to original position with red button,"[[[  4   6   3]
  [  4   6   3]
  [  2   7   1]
  ...
  [116 108  97]
  [114 106  93]
  [115 107  94]]

 [[  4   6   3]
  [  4   6   3]
  [  2   7   1]
  ...
  [110 102  91]
  [113 105  94]
  [116 108  95]]

 [[  4   6   3]
  [  3   5   2]
  [  3   5   0]
  ...
  [105  97  86]
  [109 101  90]
  [112 104  93]]

 ...

 [[180 146 118]
  [179 148 119]
  [174 147 118]
  ...
  [150 139 119]
  [149 138 118]
  [150 139 119]]

 [[183 145 109]
  [182 146 110]
  [179 146 111]
  ...
  [150 139 119]
  [149 138 118]
  [149 138 118]]

 [[183 144 105]
  [180 142 103]
  [177 141 105]
  ...
  [149 138 118]
  [148 137 117]
  [148 137 117]]]","[[[ 38  50  46]
  [ 38  50  46]
  [ 38  50  46]
  ...
  [ 13  19  19]
  [ 11  20  19]
  [ 12  21  20]]

 [[ 36  48  44]
  [ 37  49  45]
  [ 37  49  45]
  ...
  [ 16  22  22]
  [ 14  23  22]
  [ 13  22  21]]

 [[ 37  49  45]
  [ 37  49  45]
  [ 38  50  46]
  ...
  [ 15  21  21]
  [ 15  21  21]
  [ 14  20  20]]

 ...

 [[ 37  46  43]
  [ 37  46  43]
  [ 37  46  43]
  ...
  [112 119 112]
  [112 119 112]
  [112 119 112]]

 [[ 38  47  44]
  [ 38  47  44]
  [ 38  47  44]
  ...
  [112 119 112]
  [112 119 112]
  [111 118 111]]

 [[ 38  47  44]
  [ 38  47  44]
  [ 38  47  44]
  ...
  [113 120 113]
  [113 120 113]
  [112 119 112]]]"
1726689464.134939,0.929145,-1.63923,1.798072,-2.072326,-1.282773,-0.545157,-0.176488,-0.459484,0.408032,-2.70361,0.049148,3.110404,-3e-05,-7.4e-05,-1.4e-05,0.000225,0.00012,8e-05,32.182676,0.0,0.188387,0.377,0.0,moving back to original position with red button,"[[[  3   5   2]
  [  4   6   3]
  [  4   6   3]
  ...
  [110 104  92]
  [110 103  93]
  [111 104  94]]

 [[  4   6   3]
  [  4   6   3]
  [  4   6   3]
  ...
  [107 101  89]
  [110 103  93]
  [115 108  98]]

 [[  4   6   3]
  [  4   6   3]
  [  4   6   3]
  ...
  [103  95  84]
  [106  97  88]
  [113 104  95]]

 ...

 [[177 144 113]
  [176 145 114]
  [176 146 118]
  ...
  [144 136 113]
  [144 136 113]
  [145 137 114]]

 [[179 139 104]
  [180 142 106]
  [182 146 114]
  ...
  [146 138 115]
  [146 138 115]
  [146 138 115]]

 [[187 143 106]
  [183 140 105]
  [180 140 105]
  ...
  [146 138 115]
  [146 138 115]
  [145 137 114]]]","[[[ 42  48  48]
  [ 42  48  48]
  [ 44  50  50]
  ...
  [ 14  20  20]
  [ 12  18  18]
  [ 13  19  19]]

 [[ 40  46  46]
  [ 40  46  46]
  [ 43  49  49]
  ...
  [ 13  19  19]
  [ 13  19  19]
  [ 14  20  20]]

 [[ 40  46  46]
  [ 39  45  45]
  [ 42  48  48]
  ...
  [ 13  19  19]
  [ 13  19  19]
  [ 14  20  20]]

 ...

 [[ 41  50  49]
  [ 42  51  50]
  [ 41  50  49]
  ...
  [111 118 111]
  [111 118 111]
  [111 118 111]]

 [[ 39  47  49]
  [ 41  49  51]
  [ 41  49  51]
  ...
  [111 118 111]
  [110 117 110]
  [111 118 111]]

 [[ 37  45  47]
  [ 40  48  50]
  [ 40  48  50]
  ...
  [109 116 109]
  [109 116 109]
  [111 118 111]]]"
1726689464.230939,0.926894,-1.659497,1.798527,-2.052159,-1.281959,-0.547496,-0.173025,-0.45316,0.415012,-2.703392,0.048944,3.110414,-1.1e-05,-7.9e-05,-0.000143,-1e-06,0.000323,6.9e-05,32.182676,0.0,0.188387,0.377,0.0,moving back to original position with red button,"[[[  4   5   7]
  [  4   6   5]
  [  4   6   5]
  ...
  [114 105  98]
  [117 106 100]
  [115 105  96]]

 [[  4   5   7]
  [  4   6   5]
  [  4   6   5]
  ...
  [110 101  94]
  [114 104  95]
  [117 107  98]]

 [[  4   5   7]
  [  4   6   5]
  [  4   6   5]
  ...
  [106  97  90]
  [110 100  91]
  [115 105  96]]

 ...

 [[176 141 109]
  [176 143 110]
  [176 145 116]
  ...
  [147 139 116]
  [147 139 116]
  [147 139 116]]

 [[184 144 108]
  [184 146 109]
  [183 147 113]
  ...
  [147 139 116]
  [147 139 116]
  [147 139 116]]

 [[185 141 102]
  [185 143 105]
  [184 144 108]
  ...
  [147 139 116]
  [147 139 116]
  [147 139 116]]]","[[[ 37  53  50]
  [ 37  53  50]
  [ 36  52  49]
  ...
  [ 12  18  18]
  [ 12  18  18]
  [ 11  17  17]]

 [[ 37  53  50]
  [ 37  53  50]
  [ 37  53  50]
  ...
  [ 12  18  18]
  [ 12  18  18]
  [ 12  18  18]]

 [[ 37  52  49]
  [ 37  52  49]
  [ 37  52  49]
  ...
  [ 13  19  19]
  [ 13  19  19]
  [ 13  19  19]]

 ...

 [[ 37  49  47]
  [ 37  49  47]
  [ 38  50  48]
  ...
  [113 118 112]
  [112 117 111]
  [111 116 110]]

 [[ 37  49  47]
  [ 37  49  47]
  [ 38  50  48]
  ...
  [113 118 112]
  [111 118 111]
  [111 118 111]]

 [[ 36  48  46]
  [ 37  49  47]
  [ 38  50  48]
  ...
  [113 118 112]
  [111 118 111]
  [111 118 111]]]"
1726689464.326939,0.925696,-1.670085,1.798587,-2.041114,-1.28148,-0.548516,-0.171175,-0.449814,0.418631,-2.703528,0.049155,3.110217,9e-06,-3.2e-05,-8.3e-05,0.000131,0.000111,0.000266,32.182676,0.0,0.188387,0.377,0.0,moving back to original position with red button,"[[[  4   9   3]
  [  2   7   1]
  [  1   6   0]
  ...
  [110 105  99]
  [112 107 101]
  [111 106 100]]

 [[  4   9   3]
  [  3   8   2]
  [  2   7   1]
  ...
  [107 102  96]
  [109 104  98]
  [109 104  98]]

 [[  3   8   2]
  [  2   7   1]
  [  3   5   0]
  ...
  [100  95  89]
  [104  99  93]
  [107 102  96]]

 ...

 [[178 145 114]
  [176 145 114]
  [175 146 116]
  ...
  [149 137 111]
  [149 139 112]
  [149 139 112]]

 [[182 144 107]
  [180 145 107]
  [178 144 107]
  ...
  [149 138 110]
  [150 139 111]
  [151 140 112]]

 [[182 143 102]
  [180 143 101]
  [178 143 103]
  ...
  [149 138 108]
  [150 139 109]
  [150 139 109]]]","[[[ 40  51  53]
  [ 41  52  54]
  [ 42  53  55]
  ...
  [ 13  18  21]
  [ 13  18  21]
  [ 13  18  21]]

 [[ 39  51  51]
  [ 40  52  52]
  [ 41  53  53]
  ...
  [ 13  18  21]
  [ 13  18  21]
  [ 12  17  20]]

 [[ 39  51  49]
  [ 39  51  49]
  [ 40  52  50]
  ...
  [ 13  18  21]
  [ 13  18  21]
  [ 13  18  21]]

 ...

 [[ 41  48  41]
  [ 42  49  42]
  [ 42  48  44]
  ...
  [112 119 112]
  [112 119 112]
  [112 119 112]]

 [[ 41  48  41]
  [ 41  48  41]
  [ 41  47  43]
  ...
  [113 120 113]
  [112 119 112]
  [113 120 113]]

 [[ 41  48  41]
  [ 41  48  41]
  [ 41  47  43]
  ...
  [113 120 113]
  [111 118 111]
  [112 119 112]]]"
1726689464.422938,0.925588,-1.671956,1.798683,-2.039373,-1.281156,-0.548647,-0.170782,-0.449248,0.419252,-2.703322,0.049326,3.110334,-3.4e-05,3.8e-05,-1.4e-05,-7.5e-05,-6e-05,0.000149,32.182676,0.0,0.188387,0.377,0.0,moving back to original position with red button,"[[[  0   9   1]
  [  0   9   1]
  [  0   9   1]
  ...
  [112 101  95]
  [116 103  97]
  [118 105  99]]

 [[  0   9   1]
  [  0   9   1]
  [  0   9   1]
  ...
  [111 100  94]
  [116 103  97]
  [119 106 100]]

 [[  0   9   1]
  [  0   9   1]
  [  0   9   1]
  ...
  [107  97  88]
  [112  99  91]
  [114 101  93]]

 ...

 [[176 143 108]
  [176 146 110]
  [175 146 112]
  ...
  [148 137 115]
  [149 137 115]
  [149 137 115]]

 [[179 142  98]
  [181 144 102]
  [178 145 104]
  ...
  [148 137 115]
  [149 137 115]
  [149 137 115]]

 [[183 142  96]
  [182 144  99]
  [179 142  98]
  ...
  [148 137 115]
  [149 137 115]
  [150 138 116]]]","[[[ 45  49  52]
  [ 44  49  52]
  [ 44  49  52]
  ...
  [ 10  16  14]
  [  9  15  13]
  [  9  15  13]]

 [[ 48  52  55]
  [ 47  52  55]
  [ 45  53  55]
  ...
  [ 11  17  15]
  [ 10  16  14]
  [ 12  18  16]]

 [[ 46  51  54]
  [ 47  52  55]
  [ 46  54  56]
  ...
  [  9  15  13]
  [  9  15  13]
  [ 10  16  14]]

 ...

 [[ 44  48  49]
  [ 44  48  49]
  [ 43  49  49]
  ...
  [112 119 112]
  [112 119 112]
  [112 119 112]]

 [[ 44  48  51]
  [ 44  48  51]
  [ 43  48  51]
  ...
  [113 118 112]
  [113 118 112]
  [113 118 112]]

 [[ 44  48  51]
  [ 43  48  51]
  [ 43  48  51]
  ...
  [113 118 112]
  [113 118 112]
  [113 118 112]]]"
1726689464.518938,0.925588,-1.671968,1.798731,-2.039409,-1.281181,-0.548803,-0.17078,-0.449242,0.419237,-2.703329,0.049241,3.110467,-3.6e-05,3.2e-05,1e-06,-6.9e-05,2.5e-05,1.6e-05,32.182676,0.0,0.188387,0.377,0.0,moving back to original position with red button,"[[[  5   7   2]
  [  4   6   1]
  [  4   6   1]
  ...
  [106 104  92]
  [110 106  95]
  [113 109  98]]

 [[  4   6   1]
  [  3   5   0]
  [  4   6   1]
  ...
  [102 100  88]
  [106 102  91]
  [110 106  95]]

 [[  4   6   1]
  [  3   5   0]
  [  4   6   1]
  ...
  [ 99  95  84]
  [105  98  88]
  [108 101  91]]

 ...

 [[179 146 113]
  [176 146 112]
  [174 145 113]
  ...
  [148 137 115]
  [148 137 115]
  [148 137 115]]

 [[183 146 104]
  [181 146 106]
  [179 145 107]
  ...
  [147 136 114]
  [147 136 114]
  [147 136 114]]

 [[184 146 101]
  [183 146 101]
  [180 145 103]
  ...
  [147 136 114]
  [147 136 114]
  [148 137 115]]]","[[[ 37  51  51]
  [ 41  55  55]
  [ 39  54  51]
  ...
  [ 12  17  21]
  [ 12  17  21]
  [ 12  17  21]]

 [[ 35  49  49]
  [ 38  52  52]
  [ 37  52  49]
  ...
  [ 12  17  21]
  [ 12  17  21]
  [ 12  17  21]]

 [[ 36  50  50]
  [ 37  51  51]
  [ 39  51  51]
  ...
  [ 12  17  20]
  [ 12  17  20]
  [ 13  18  21]]

 ...

 [[ 43  49  47]
  [ 43  49  47]
  [ 44  50  48]
  ...
  [112 119 112]
  [112 119 112]
  [113 120 113]]

 [[ 43  49  45]
  [ 43  49  45]
  [ 44  50  46]
  ...
  [112 119 112]
  [112 119 112]
  [112 119 112]]

 [[ 43  49  45]
  [ 44  50  46]
  [ 44  50  46]
  ...
  [112 119 112]
  [112 119 112]
  [112 119 112]]]"
1726689464.614938,0.925576,-1.671992,1.798743,-2.039409,-1.281181,-0.548983,-0.17078,-0.449233,0.419242,-2.703311,0.049158,3.110619,-3.6e-05,2.3e-05,-4e-06,-8.6e-05,0.000108,-0.000136,32.182676,0.0,0.188387,0.377,0.0,moving back to original position with red button,"[[[  5   6   1]
  [  5   6   1]
  [  5   6   1]
  ...
  [108 105 100]
  [109 106 101]
  [112 109 104]]

 [[  5   6   1]
  [  5   6   1]
  [  5   6   1]
  ...
  [103 100  95]
  [106 103  98]
  [111 108 103]]

 [[  5   6   1]
  [  5   6   1]
  [  5   6   1]
  ...
  [ 99  96  89]
  [103 100  93]
  [109 106  99]]

 ...

 [[178 147 119]
  [177 147 119]
  [175 148 121]
  ...
  [146 138 115]
  [145 139 115]
  [145 139 115]]

 [[180 145 113]
  [179 146 115]
  [177 146 117]
  ...
  [146 138 115]
  [145 139 115]
  [145 139 115]]

 [[179 143 109]
  [179 145 110]
  [178 145 114]
  ...
  [147 139 116]
  [145 139 115]
  [145 139 115]]]","[[[ 39  51  51]
  [ 41  53  53]
  [ 41  53  53]
  ...
  [ 11  16  19]
  [ 11  16  19]
  [ 11  16  19]]

 [[ 41  53  53]
  [ 43  55  55]
  [ 44  56  56]
  ...
  [ 11  16  19]
  [ 11  16  19]
  [ 11  16  19]]

 [[ 39  51  51]
  [ 41  53  53]
  [ 43  55  55]
  ...
  [ 12  17  20]
  [ 12  17  20]
  [ 12  17  20]]

 ...

 [[ 37  52  49]
  [ 39  54  51]
  [ 40  55  52]
  ...
  [113 120 113]
  [112 119 112]
  [112 119 112]]

 [[ 34  49  46]
  [ 36  51  48]
  [ 37  52  49]
  ...
  [112 119 112]
  [112 119 112]
  [113 120 113]]

 [[ 35  50  47]
  [ 36  51  48]
  [ 38  53  50]
  ...
  [112 119 112]
  [112 119 112]
  [114 121 114]]]"
1726689464.710938,0.925588,-1.671956,1.798731,-2.039421,-1.281181,-0.549067,-0.170782,-0.449245,0.419233,-2.703317,0.049129,3.110707,-3.4e-05,3.5e-05,5e-06,-8.1e-05,0.000136,-0.000224,32.182676,0.0,0.188387,0.377,0.0,moving back to original position with red button,"[[[  1   5   6]
  [  1   5   6]
  [  1   5   4]
  ...
  [109 101  90]
  [110 102  91]
  [113 105  94]]

 [[  3   7   8]
  [  3   7   8]
  [  3   7   6]
  ...
  [106  98  87]
  [108 100  89]
  [111 103  92]]

 [[  3   7   6]
  [  3   7   6]
  [  3   7   6]
  ...
  [106  97  88]
  [109 100  91]
  [111 102  93]]

 ...

 [[180 149 118]
  [177 148 118]
  [173 146 117]
  ...
  [150 139 119]
  [147 136 116]
  [148 137 117]]

 [[178 143 105]
  [177 143 106]
  [175 145 109]
  ...
  [151 140 120]
  [148 137 117]
  [149 138 118]]

 [[182 145 103]
  [178 143 103]
  [177 143 105]
  ...
  [150 139 119]
  [147 136 116]
  [148 137 117]]]","[[[ 45  46  50]
  [ 45  46  50]
  [ 44  48  51]
  ...
  [ 11  17  17]
  [ 10  16  16]
  [  8  14  14]]

 [[ 45  46  50]
  [ 45  46  50]
  [ 44  48  51]
  ...
  [ 11  17  17]
  [ 10  16  16]
  [  8  14  14]]

 [[ 43  47  50]
  [ 43  47  50]
  [ 43  47  50]
  ...
  [ 12  18  18]
  [ 11  17  17]
  [  9  15  15]]

 ...

 [[ 42  48  48]
  [ 42  48  48]
  [ 43  49  49]
  ...
  [113 120 113]
  [111 118 111]
  [110 117 110]]

 [[ 43  49  49]
  [ 44  50  50]
  [ 43  49  49]
  ...
  [112 118 114]
  [111 118 111]
  [112 119 112]]

 [[ 42  48  48]
  [ 44  50  50]
  [ 43  49  49]
  ...
  [112 118 114]
  [112 119 112]
  [114 121 114]]]"
