correlllab/MAGPIE/datasets/csv/water bottle_trajectory.csv
timestamp,q0,q1,q2,q3,q4,q5,x,y,z,rx,ry,rz,dx,dy,dz,drx,dry,drz,aperture,d_aperture,contact_force,applied_force,d_applied_force,task,img,wrist_img
1726693199.729617,0.896834,-1.84962,1.828499,-2.011785,-1.263902,-0.484737,-0.140959,-0.392761,0.477414,-2.596708,0.025661,3.035609,-2.1e-05,-8e-06,-3.4e-05,-0.000118,7.4e-05,-5.3e-05,54.115007,0.0,0.0,0.0,0.0,moving to grasp water bottle,"[[[ 13  14   8]
  [ 16  17  11]
  [ 14  17   8]
  ...
  [108 104  93]
  [111 107  96]
  [112 108  97]]

 [[ 14  15   9]
  [ 15  16  10]
  [ 14  17   8]
  ...
  [103  99  88]
  [107 103  92]
  [109 105  94]]

 [[ 14  17  10]
  [ 15  18  11]
  [ 13  16   7]
  ...
  [ 99  95  84]
  [102  98  87]
  [106 102  91]]

 ...

 [[168 151 135]
  [170 154 138]
  [176 160 145]
  ...
  [147 139 118]
  [147 139 118]
  [146 138 117]]

 [[164 146 124]
  [165 147 125]
  [166 149 129]
  ...
  [146 138 117]
  [146 138 117]
  [144 136 115]]

 [[167 147 122]
  [165 147 123]
  [165 147 125]
  ...
  [145 137 116]
  [144 136 115]
  [142 134 113]]]","[[[ 54  62  64]
  [ 54  62  64]
  [ 54  62  64]
  ...
  [131 131 133]
  [131 131 133]
  [131 131 133]]

 [[ 55  63  65]
  [ 55  63  65]
  [ 54  62  64]
  ...
  [131 131 133]
  [131 131 133]
  [132 132 134]]

 [[ 55  63  65]
  [ 54  62  64]
  [ 53  61  63]
  ...
  [130 128 131]
  [130 130 132]
  [133 133 135]]

 ...

 [[ 56  57  61]
  [ 55  56  60]
  [ 53  57  60]
  ...
  [ 69  72  65]
  [ 69  74  67]
  [ 67  72  65]]

 [[ 56  57  61]
  [ 54  55  59]
  [ 52  56  59]
  ...
  [ 64  67  60]
  [ 63  68  61]
  [ 62  67  60]]

 [[ 61  62  66]
  [ 58  59  63]
  [ 54  58  61]
  ...
  [ 58  61  54]
  [ 57  62  55]
  [ 59  64  57]]]"
1726693199.825617,0.896906,-1.849117,1.828511,-2.012481,-1.264034,-0.484713,-0.141073,-0.392934,0.477289,-2.596619,0.025478,3.03561,-6.7e-05,-0.000116,-0.000144,-0.000207,0.000258,-5.3e-05,54.115007,0.0,0.0,0.0,0.0,moving to grasp water bottle,"[[[ 13  14   8]
  [ 16  17  11]
  [ 14  17   8]
  ...
  [108 104  93]
  [111 107  96]
  [112 108  97]]

 [[ 14  15   9]
  [ 15  16  10]
  [ 14  17   8]
  ...
  [103  99  88]
  [107 103  92]
  [109 105  94]]

 [[ 14  17  10]
  [ 15  18  11]
  [ 13  16   7]
  ...
  [ 99  95  84]
  [102  98  87]
  [106 102  91]]

 ...

 [[168 151 135]
  [170 154 138]
  [176 160 145]
  ...
  [147 139 118]
  [147 139 118]
  [146 138 117]]

 [[164 146 124]
  [165 147 125]
  [166 149 129]
  ...
  [146 138 117]
  [146 138 117]
  [144 136 115]]

 [[167 147 122]
  [165 147 123]
  [165 147 125]
  ...
  [145 137 116]
  [144 136 115]
  [142 134 113]]]","[[[ 51  65  66]
  [ 51  65  66]
  [ 53  64  66]
  ...
  [132 128 129]
  [134 130 131]
  [136 132 133]]

 [[ 52  66  67]
  [ 51  65  66]
  [ 53  64  66]
  ...
  [134 130 131]
  [134 130 131]
  [135 131 132]]

 [[ 53  65  65]
  [ 53  65  65]
  [ 53  64  66]
  ...
  [135 131 132]
  [134 130 131]
  [133 129 130]]

 ...

 [[ 52  62  63]
  [ 51  61  62]
  [ 52  62  63]
  ...
  [ 65  68  61]
  [ 64  69  62]
  [ 66  71  64]]

 [[ 51  63  63]
  [ 49  61  61]
  [ 51  63  63]
  ...
  [ 60  63  54]
  [ 59  64  57]
  [ 60  65  58]]

 [[ 53  65  65]
  [ 51  63  63]
  [ 53  65  65]
  ...
  [ 58  61  52]
  [ 57  62  55]
  [ 55  60  53]]]"
1726693199.921617,0.898211,-1.840576,1.82881,-2.021797,-1.264466,-0.48355,-0.142797,-0.395888,0.474854,-2.596441,0.02551,3.035799,-4.3e-05,-0.00013,-0.000189,-0.000383,0.000224,-0.000241,54.115007,0.0,0.0,0.0,0.0,moving to grasp water bottle,"[[[ 19  15   4]
  [ 20  16   5]
  [ 19  17   5]
  ...
  [109 100  95]
  [111 100  94]
  [111 100  94]]

 [[ 19  15   4]
  [ 20  16   5]
  [ 19  17   5]
  ...
  [107  98  93]
  [112 101  95]
  [116 105  99]]

 [[ 20  16   5]
  [ 20  16   5]
  [ 19  17   5]
  ...
  [101  94  88]
  [107  98  91]
  [112 103  96]]

 ...

 [[167 153 127]
  [170 158 134]
  [176 164 142]
  ...
  [148 137 119]
  [147 136 118]
  [145 134 116]]

 [[168 153 124]
  [166 150 124]
  [163 149 123]
  ...
  [149 136 119]
  [148 135 118]
  [148 135 118]]

 [[163 146 116]
  [164 149 120]
  [165 149 123]
  ...
  [148 135 118]
  [150 137 120]
  [150 137 120]]]","[[[ 52  65  55]
  [ 53  66  56]
  [ 55  68  61]
  ...
  [131 127 128]
  [131 125 127]
  [136 130 132]]

 [[ 53  66  56]
  [ 53  66  57]
  [ 54  67  60]
  ...
  [132 128 129]
  [131 125 127]
  [135 129 131]]

 [[ 53  66  57]
  [ 53  66  57]
  [ 53  66  59]
  ...
  [133 129 130]
  [133 127 129]
  [135 129 131]]

 ...

 [[ 45  61  60]
  [ 47  63  62]
  [ 47  63  62]
  ...
  [ 63  71  60]
  [ 66  72  62]
  [ 65  71  61]]

 [[ 44  63  59]
  [ 46  65  61]
  [ 47  66  64]
  ...
  [ 56  64  51]
  [ 59  67  54]
  [ 60  68  55]]

 [[ 46  65  61]
  [ 49  68  64]
  [ 49  68  66]
  ...
  [ 53  61  48]
  [ 56  64  51]
  [ 58  66  53]]]"
1726693200.017617,0.901061,-1.822358,1.829205,-2.041005,-1.265782,-0.480707,-0.146397,-0.402134,0.469594,-2.596609,0.025694,3.035764,5e-06,-8.8e-05,-0.000114,-0.000209,3.7e-05,-0.000204,54.115007,0.0,0.0,0.0,0.0,moving to grasp water bottle,"[[[ 15  16  11]
  [ 14  15  10]
  [ 16  17  12]
  ...
  [106 102  93]
  [109 105  94]
  [113 109  98]]

 [[ 15  16  11]
  [ 14  15  10]
  [ 16  17  12]
  ...
  [102  98  89]
  [106 102  91]
  [111 107  96]]

 [[ 15  16  11]
  [ 15  16  11]
  [ 16  17  12]
  ...
  [ 99  95  86]
  [104 100  89]
  [106 102  91]]

 ...

 [[174 152 138]
  [173 154 140]
  [175 162 146]
  ...
  [146 138 117]
  [146 138 117]
  [145 137 116]]

 [[174 147 128]
  [167 145 124]
  [163 146 128]
  ...
  [147 139 118]
  [146 138 117]
  [145 137 116]]

 [[173 145 123]
  [170 145 123]
  [169 148 127]
  ...
  [147 139 118]
  [146 138 117]
  [145 137 116]]]","[[[ 54  65  67]
  [ 53  64  66]
  [ 53  64  66]
  ...
  [132 128 125]
  [132 128 125]
  [136 132 129]]

 [[ 54  65  67]
  [ 53  64  66]
  [ 54  65  67]
  ...
  [133 129 126]
  [132 128 125]
  [135 131 128]]

 [[ 54  65  67]
  [ 53  64  66]
  [ 54  65  67]
  ...
  [134 130 129]
  [133 129 128]
  [134 130 129]]

 ...

 [[ 52  62  51]
  [ 52  62  51]
  [ 53  63  54]
  ...
  [ 64  69  63]
  [ 66  71  65]
  [ 67  72  66]]

 [[ 52  62  51]
  [ 52  62  51]
  [ 53  63  54]
  ...
  [ 59  66  59]
  [ 61  68  61]
  [ 61  68  61]]

 [[ 53  63  52]
  [ 52  62  51]
  [ 52  62  53]
  ...
  [ 58  65  58]
  [ 58  65  58]
  [ 56  63  56]]]"
1726693200.113617,0.905409,-1.794365,1.828918,-2.069745,-1.267865,-0.476401,-0.151767,-0.411628,0.461613,-2.596785,0.025838,3.035699,-3.2e-05,-3.6e-05,-2.3e-05,-2.5e-05,-0.000112,-0.000136,54.115007,0.0,0.0,0.0,0.0,moving to grasp water bottle,"[[[ 10  17   9]
  [ 11  18  10]
  [ 12  19  11]
  ...
  [108 103  97]
  [107 102  96]
  [109 104  98]]

 [[ 10  17   9]
  [ 10  17   9]
  [ 11  18  10]
  ...
  [104  99  93]
  [106 101  95]
  [110 105  99]]

 [[ 11  16   9]
  [ 11  16   9]
  [ 12  17  10]
  ...
  [ 98  94  85]
  [101  97  88]
  [106 102  93]]

 ...

 [[169 151 137]
  [173 155 141]
  [177 161 146]
  ...
  [144 136 115]
  [145 137 116]
  [147 139 118]]

 [[169 148 131]
  [167 146 129]
  [166 147 132]
  ...
  [144 136 115]
  [145 137 116]
  [146 138 117]]

 [[170 147 129]
  [168 147 128]
  [168 147 130]
  ...
  [145 137 116]
  [146 138 117]
  [146 138 117]]]","[[[ 56  68  68]
  [ 56  68  68]
  [ 55  67  67]
  ...
  [130 130 132]
  [132 130 133]
  [131 129 132]]

 [[ 55  67  67]
  [ 55  67  67]
  [ 55  67  67]
  ...
  [132 132 134]
  [134 132 135]
  [133 131 134]]

 [[ 54  66  64]
  [ 54  66  64]
  [ 54  66  66]
  ...
  [131 131 133]
  [130 130 132]
  [130 130 132]]

 ...

 [[ 51  62  58]
  [ 51  62  58]
  [ 52  62  61]
  ...
  [ 63  66  57]
  [ 65  71  61]
  [ 64  70  60]]

 [[ 50  61  57]
  [ 50  61  57]
  [ 50  62  60]
  ...
  [ 60  63  54]
  [ 61  64  55]
  [ 65  68  59]]

 [[ 51  62  58]
  [ 51  62  58]
  [ 50  62  60]
  ...
  [ 59  62  53]
  [ 55  58  49]
  [ 61  64  55]]]"
1726693200.209617,0.910642,-1.756203,1.826835,-2.10709,-1.270548,-0.471123,-0.159046,-0.424298,0.450876,-2.597043,0.025927,3.035477,-1.2e-05,-4.5e-05,0.000118,0.000242,-0.000207,9.1e-05,54.115007,0.0,0.0,0.0,0.0,moving to grasp water bottle,"[[[  8  15   8]
  [  8  15   8]
  [  7  14   6]
  ...
  [110 100  99]
  [115 103 103]
  [114 102 102]]

 [[ 10  17  10]
  [ 10  17  10]
  [ 10  17   9]
  ...
  [104  94  93]
  [111  99  99]
  [111  99  99]]

 [[ 11  16   9]
  [ 12  17  10]
  [ 13  18  11]
  ...
  [102  92  90]
  [107  97  95]
  [108  98  96]]

 ...

 [[170 152 132]
  [173 156 138]
  [178 162 147]
  ...
  [148 137 115]
  [148 137 115]
  [147 136 114]]

 [[168 147 126]
  [167 146 125]
  [167 148 131]
  ...
  [148 137 115]
  [148 137 117]
  [147 136 116]]

 [[171 149 126]
  [167 146 125]
  [165 144 125]
  ...
  [147 136 114]
  [147 136 116]
  [147 136 116]]]","[[[ 52  67  62]
  [ 51  66  61]
  [ 53  65  63]
  ...
  [134 131 126]
  [133 130 125]
  [131 128 123]]

 [[ 51  66  61]
  [ 51  66  61]
  [ 53  65  63]
  ...
  [135 132 127]
  [134 131 126]
  [133 130 125]]

 [[ 50  65  62]
  [ 50  65  62]
  [ 52  64  62]
  ...
  [135 131 128]
  [134 130 127]
  [133 129 126]]

 ...

 [[ 50  63  56]
  [ 51  64  57]
  [ 51  64  57]
  ...
  [ 55  58  51]
  [ 58  61  54]
  [ 62  65  58]]

 [[ 47  62  57]
  [ 48  63  58]
  [ 51  63  59]
  ...
  [ 57  60  53]
  [ 60  63  56]
  [ 59  62  55]]

 [[ 47  62  57]
  [ 48  63  58]
  [ 51  63  59]
  ...
  [ 58  61  54]
  [ 60  63  56]
  [ 57  60  53]]]"
1726693200.305616,0.916654,-1.707597,1.820931,-2.151742,-1.273529,-0.465185,-0.168135,-0.440137,0.437692,-2.596839,0.025796,3.035395,3e-06,-5.3e-05,5.9e-05,5.1e-05,-8.4e-05,0.000179,54.115007,0.0,0.0,0.0,0.0,moving to grasp water bottle,"[[[ 17  17   5]
  [ 17  17   5]
  [ 14  16   3]
  ...
  [110 100  91]
  [110 100  91]
  [112 102  93]]

 [[ 16  16   4]
  [ 17  17   5]
  [ 14  16   3]
  ...
  [109  99  90]
  [111 101  92]
  [116 106  97]]

 [[ 15  15   3]
  [ 16  16   4]
  [ 15  17   4]
  ...
  [105  95  86]
  [107  97  88]
  [111 101  92]]

 ...

 [[169 153 130]
  [171 155 132]
  [176 161 142]
  ...
  [146 135 115]
  [146 133 114]
  [148 135 116]]

 [[169 149 124]
  [166 146 121]
  [166 148 126]
  ...
  [146 135 115]
  [146 133 114]
  [151 136 117]]

 [[168 147 120]
  [166 146 119]
  [168 148 124]
  ...
  [146 135 115]
  [148 133 114]
  [151 136 117]]]","[[[ 60  66  66]
  [ 58  64  64]
  [ 57  63  63]
  ...
  [135 133 134]
  [134 132 135]
  [132 130 133]]

 [[ 59  65  65]
  [ 59  65  65]
  [ 58  64  64]
  ...
  [136 134 135]
  [133 131 134]
  [131 129 132]]

 [[ 57  63  63]
  [ 59  65  65]
  [ 59  65  65]
  ...
  [136 134 135]
  [133 131 132]
  [130 128 129]]

 ...

 [[ 53  62  57]
  [ 53  62  57]
  [ 53  62  57]
  ...
  [ 52  57  51]
  [ 53  58  54]
  [ 55  60  56]]

 [[ 52  62  54]
  [ 52  62  54]
  [ 52  62  54]
  ...
  [ 52  57  51]
  [ 54  59  53]
  [ 58  63  57]]

 [[ 52  62  54]
  [ 53  63  55]
  [ 53  63  55]
  ...
  [ 54  59  53]
  [ 53  58  52]
  [ 56  61  55]]]"
1726693200.401616,0.92257,-1.654939,1.81104,-2.19621,-1.276439,-0.459572,-0.177759,-0.456989,0.423692,-2.596779,0.025699,3.035517,-2.7e-05,-6e-05,-3.1e-05,5e-06,4e-06,6.3e-05,54.115007,0.0,0.0,0.0,0.0,moving to grasp water bottle,"[[[  6  18   8]
  [  5  17   7]
  [  8  18   9]
  ...
  [104  99  95]
  [108 103  99]
  [110 105 101]]

 [[  6  18   8]
  [  5  17   7]
  [  7  17   8]
  ...
  [100  95  91]
  [107 102  98]
  [111 106 102]]

 [[  8  18   9]
  [  7  17   8]
  [  8  18   7]
  ...
  [ 95  90  86]
  [102  97  93]
  [106 101  97]]

 ...

 [[171 152 135]
  [172 155 137]
  [175 162 145]
  ...
  [148 137 117]
  [147 136 116]
  [147 136 116]]

 [[173 147 130]
  [168 147 128]
  [166 149 131]
  ...
  [147 136 116]
  [145 134 114]
  [146 135 115]]

 [[172 145 126]
  [170 145 125]
  [165 147 127]
  ...
  [145 134 114]
  [143 132 112]
  [144 133 113]]]","[[[ 57  61  64]
  [ 58  62  65]
  [ 57  62  65]
  ...
  [137 133 134]
  [135 131 132]
  [135 131 132]]

 [[ 57  61  64]
  [ 58  62  65]
  [ 57  62  65]
  ...
  [137 133 134]
  [134 130 131]
  [135 131 132]]

 [[ 57  61  64]
  [ 58  62  65]
  [ 57  63  63]
  ...
  [137 133 132]
  [134 130 131]
  [135 131 132]]

 ...

 [[ 61  62  64]
  [ 61  62  64]
  [ 60  61  63]
  ...
  [ 52  55  48]
  [ 51  54  47]
  [ 52  55  48]]

 [[ 59  63  64]
  [ 57  63  63]
  [ 56  62  62]
  ...
  [ 51  54  47]
  [ 54  57  50]
  [ 53  56  49]]

 [[ 56  62  62]
  [ 56  62  62]
  [ 52  61  60]
  ...
  [ 51  54  47]
  [ 58  61  54]
  [ 56  59  52]]]"
1726693200.497616,0.927936,-1.601253,1.797809,-2.237819,-1.279109,-0.454498,-0.187429,-0.47387,0.409474,-2.597043,0.025795,3.035625,-1.1e-05,-3.9e-05,9.7e-05,0.000283,-0.000101,-3.8e-05,54.115007,0.0,0.0,0.0,0.0,moving to grasp water bottle,"[[[ 14  21  13]
  [ 10  17   9]
  [  9  17   6]
  ...
  [106 103  94]
  [109 105  94]
  [110 106  95]]

 [[ 13  20  12]
  [ 10  17   9]
  [  9  17   6]
  ...
  [103 100  91]
  [108 104  93]
  [112 108  97]]

 [[ 12  17  10]
  [ 10  15   8]
  [ 10  16   6]
  ...
  [ 98  94  85]
  [103  99  90]
  [108 104  95]]

 ...

 [[169 150 133]
  [172 155 137]
  [175 162 145]
  ...
  [146 139 113]
  [147 136 114]
  [147 136 114]]

 [[168 147 128]
  [166 148 128]
  [165 150 129]
  ...
  [145 138 110]
  [147 137 112]
  [148 138 113]]

 [[168 147 126]
  [166 148 126]
  [165 148 128]
  ...
  [145 138 110]
  [147 137 112]
  [148 138 113]]]","[[[ 56  62  62]
  [ 57  63  63]
  [ 57  63  63]
  ...
  [137 133 132]
  [137 133 132]
  [136 132 131]]

 [[ 57  63  63]
  [ 58  64  64]
  [ 57  63  63]
  ...
  [137 133 132]
  [137 133 132]
  [135 131 130]]

 [[ 57  62  65]
  [ 58  63  66]
  [ 58  63  66]
  ...
  [137 133 132]
  [137 133 132]
  [136 132 131]]

 ...

 [[ 53  63  64]
  [ 52  62  63]
  [ 50  60  61]
  ...
  [ 52  53  47]
  [ 53  52  47]
  [ 57  56  51]]

 [[ 50  61  63]
  [ 49  60  62]
  [ 48  59  61]
  ...
  [ 52  53  47]
  [ 51  50  45]
  [ 55  54  49]]

 [[ 54  65  67]
  [ 52  63  65]
  [ 50  61  63]
  ...
  [ 53  54  48]
  [ 51  50  45]
  [ 54  53  48]]]"
1726693200.593616,0.93293,-1.547055,1.780877,-2.276604,-1.281612,-0.449688,-0.197052,-0.490743,0.395415,-2.596897,0.025704,3.03565,-4.2e-05,-2.7e-05,6.6e-05,0.000151,-1.8e-05,-5.8e-05,54.115007,0.0,0.0,0.0,0.0,moving to grasp water bottle,"[[[ 18  19  13]
  [ 14  15   9]
  [ 13  14   8]
  ...
  [108  99  94]
  [110 101  96]
  [112 103  98]]

 [[ 17  18  12]
  [ 15  16  10]
  [ 14  15   9]
  ...
  [104  95  90]
  [107  98  93]
  [110 101  96]]

 [[ 17  18  12]
  [ 16  17  11]
  [ 16  17  11]
  ...
  [101  92  87]
  [105  96  91]
  [108  99  94]]

 ...

 [[168 151 133]
  [171 156 137]
  [175 162 145]
  ...
  [147 139 118]
  [146 138 117]
  [146 138 117]]

 [[167 146 127]
  [165 147 127]
  [165 148 130]
  ...
  [147 139 118]
  [146 138 117]
  [146 138 117]]

 [[169 147 126]
  [168 147 126]
  [167 149 129]
  ...
  [145 137 116]
  [145 137 116]
  [144 136 115]]]","[[[ 54  65  69]
  [ 54  65  69]
  [ 55  66  68]
  ...
  [133 135 130]
  [133 135 130]
  [136 138 133]]

 [[ 54  65  69]
  [ 53  64  68]
  [ 54  65  67]
  ...
  [131 133 128]
  [131 133 128]
  [132 134 129]]

 [[ 54  63  68]
  [ 53  62  67]
  [ 53  63  65]
  ...
  [132 132 130]
  [132 133 128]
  [133 134 129]]

 ...

 [[ 53  59  57]
  [ 54  60  58]
  [ 53  59  57]
  ...
  [ 53  54  49]
  [ 52  53  48]
  [ 55  56  51]]

 [[ 53  59  57]
  [ 54  60  58]
  [ 53  59  57]
  ...
  [ 53  54  49]
  [ 52  53  48]
  [ 53  54  49]]

 [[ 54  60  58]
  [ 54  60  58]
  [ 52  58  56]
  ...
  [ 55  56  51]
  [ 55  56  51]
  [ 52  53  48]]]"
1726693200.689616,0.937109,-1.49582,1.761755,-2.310024,-1.2836,-0.445502,-0.206134,-0.506541,0.382266,-2.596681,0.02579,3.035589,1.9e-05,1.8e-05,4.9e-05,-5.2e-05,-0.000113,9e-06,54.115007,0.0,0.0,0.0,0.0,moving to grasp water bottle,"[[[ 17  18  12]
  [ 15  16  10]
  [ 14  15   7]
  ...
  [110 100  90]
  [111 103  92]
  [112 104  93]]

 [[ 14  15   9]
  [ 13  14   8]
  [ 13  14   6]
  ...
  [109  99  89]
  [110 102  91]
  [114 106  95]]

 [[ 13  14   8]
  [ 12  13   7]
  [ 14  15   7]
  ...
  [102  94  83]
  [105  97  86]
  [109 101  90]]

 ...

 [[166 150 134]
  [170 157 140]
  [176 163 147]
  ...
  [146 138 117]
  [146 138 117]
  [146 138 117]]

 [[167 151 128]
  [164 149 128]
  [164 149 130]
  ...
  [144 136 115]
  [144 136 115]
  [145 137 116]]

 [[167 151 126]
  [165 149 124]
  [165 148 128]
  ...
  [144 136 115]
  [145 137 116]
  [146 138 117]]]","[[[ 53  62  67]
  [ 54  63  68]
  [ 55  64  69]
  ...
  [136 132 131]
  [138 134 133]
  [140 136 135]]

 [[ 52  61  66]
  [ 53  62  67]
  [ 53  62  67]
  ...
  [136 132 131]
  [137 133 132]
  [138 134 133]]

 [[ 52  59  65]
  [ 52  59  65]
  [ 52  59  65]
  ...
  [137 133 132]
  [136 132 131]
  [136 132 131]]

 ...

 [[ 50  55  59]
  [ 52  57  61]
  [ 51  56  59]
  ...
  [ 51  54  47]
  [ 50  53  46]
  [ 50  53  46]]

 [[ 50  55  59]
  [ 53  58  62]
  [ 52  57  60]
  ...
  [ 53  56  49]
  [ 53  56  49]
  [ 54  57  50]]

 [[ 50  55  59]
  [ 54  59  63]
  [ 52  57  60]
  ...
  [ 60  63  56]
  [ 59  62  55]
  [ 54  57  50]]]"
1726693200.785616,0.940283,-1.45472,1.744308,-2.334525,-1.285108,-0.442443,-0.213351,-0.519153,0.371759,-2.596631,0.025872,3.035636,4.2e-05,6.5e-05,5.6e-05,-9.2e-05,-0.0002,-3.3e-05,54.115007,0.0,0.0,0.0,0.0,moving to grasp water bottle,"[[[  7  14   6]
  [  9  16   8]
  [ 10  17   9]
  ...
  [109 100  95]
  [111 102  95]
  [108  99  92]]

 [[  9  16   8]
  [  9  16   8]
  [  9  16   8]
  ...
  [106  97  92]
  [110 101  94]
  [111 102  95]]

 [[ 11  16   9]
  [ 10  15   8]
  [  9  14   7]
  ...
  [102  93  88]
  [107  98  93]
  [110 101  96]]

 ...

 [[169 152 132]
  [171 156 137]
  [177 161 146]
  ...
  [147 136 114]
  [147 136 116]
  [146 135 115]]

 [[166 148 126]
  [164 148 125]
  [166 151 132]
  ...
  [147 136 114]
  [147 136 116]
  [146 135 115]]

 [[168 150 126]
  [164 148 125]
  [164 147 127]
  ...
  [147 136 114]
  [147 136 116]
  [146 135 115]]]","[[[ 58  62  61]
  [ 58  62  61]
  [ 58  64  64]
  ...
  [133 133 133]
  [132 132 134]
  [131 131 133]]

 [[ 57  61  60]
  [ 58  62  61]
  [ 57  63  63]
  ...
  [134 134 134]
  [133 133 135]
  [133 133 135]]

 [[ 58  62  61]
  [ 58  62  61]
  [ 57  63  63]
  ...
  [132 132 132]
  [132 132 132]
  [131 131 131]]

 ...

 [[ 51  57  57]
  [ 52  58  58]
  [ 52  58  58]
  ...
  [ 53  54  48]
  [ 54  55  49]
  [ 54  55  49]]

 [[ 50  56  56]
  [ 51  57  57]
  [ 51  57  57]
  ...
  [ 56  57  51]
  [ 55  56  50]
  [ 52  53  47]]

 [[ 51  57  57]
  [ 52  58  58]
  [ 52  58  58]
  ...
  [ 57  58  52]
  [ 57  58  52]
  [ 55  56  50]]]"
1726693200.881616,0.943888,-1.404331,1.720481,-2.362025,-1.286964,-0.439205,-0.222186,-0.534534,0.358886,-2.596643,0.025752,3.035821,4.8e-05,2.7e-05,4.3e-05,-6.8e-05,-8.9e-05,-0.000213,54.115007,0.0,0.0,0.0,0.0,moving to grasp water bottle,"[[[  7  13  11]
  [ 12  18  14]
  [ 11  17  13]
  ...
  [107 102  96]
  [107 102  96]
  [111 106 100]]

 [[  8  14  12]
  [ 11  17  13]
  [ 11  18  11]
  ...
  [104  99  93]
  [106 101  95]
  [112 107 101]]

 [[  9  15  11]
  [ 10  17  10]
  [ 12  17  11]
  ...
  [ 99  94  88]
  [102  97  91]
  [107 102  96]]

 ...

 [[172 151 130]
  [174 153 132]
  [177 159 139]
  ...
  [145 138 110]
  [145 138 110]
  [144 137 109]]

 [[170 146 122]
  [170 146 122]
  [169 147 124]
  ...
  [145 138 110]
  [146 139 111]
  [145 138 109]]

 [[171 145 120]
  [170 146 120]
  [170 145 123]
  ...
  [146 139 111]
  [147 140 111]
  [147 140 111]]]","[[[ 52  66  66]
  [ 52  66  66]
  [ 52  66  66]
  ...
  [133 132 130]
  [135 134 132]
  [133 132 130]]

 [[ 51  65  65]
  [ 51  65  65]
  [ 51  65  65]
  ...
  [134 133 131]
  [134 133 131]
  [132 131 129]]

 [[ 51  63  63]
  [ 52  64  64]
  [ 52  64  64]
  ...
  [134 133 131]
  [134 133 131]
  [132 131 129]]

 ...

 [[ 50  56  56]
  [ 50  56  56]
  [ 50  56  56]
  ...
  [ 52  53  47]
  [ 53  54  48]
  [ 54  55  49]]

 [[ 50  56  56]
  [ 50  56  56]
  [ 52  58  58]
  ...
  [ 54  55  49]
  [ 53  54  48]
  [ 53  54  48]]

 [[ 52  58  58]
  [ 52  58  58]
  [ 54  60  60]
  ...
  [ 59  60  54]
  [ 57  58  52]
  [ 56  57  51]]]"
1726693200.977616,0.944498,-1.394848,1.71568,-2.366908,-1.287419,-0.438761,-0.223876,-0.537411,0.356473,-2.596665,0.02555,3.035878,0.000104,5e-05,7.1e-05,-4.4e-05,0.000112,-0.000269,54.115007,0.0,0.0,0.0,0.0,moving to grasp water bottle,"[[[ 16  16   8]
  [ 14  14   6]
  [ 15  14   9]
  ...
  [107 103  91]
  [108 104  92]
  [109 105  93]]

 [[ 16  16   8]
  [ 14  14   6]
  [ 15  14   9]
  ...
  [ 98  94  82]
  [102  98  86]
  [108 104  92]]

 [[ 15  16  10]
  [ 13  14   8]
  [ 13  14   8]
  ...
  [ 95  91  80]
  [101  97  85]
  [107 103  91]]

 ...

 [[167 152 129]
  [170 155 132]
  [175 162 143]
  ...
  [145 137 116]
  [144 136 115]
  [144 136 115]]

 [[168 148 123]
  [165 148 122]
  [164 148 125]
  ...
  [145 137 116]
  [144 136 115]
  [144 136 115]]

 [[168 147 120]
  [168 148 121]
  [169 149 125]
  ...
  [145 137 116]
  [145 137 116]
  [144 136 115]]]","[[[ 54  62  65]
  [ 54  62  65]
  [ 54  62  65]
  ...
  [133 134 128]
  [134 135 127]
  [133 134 126]]

 [[ 53  61  64]
  [ 54  62  65]
  [ 54  62  65]
  ...
  [135 136 130]
  [134 135 129]
  [131 132 124]]

 [[ 54  62  65]
  [ 54  62  65]
  [ 54  62  64]
  ...
  [136 135 130]
  [133 134 128]
  [131 132 126]]

 ...

 [[ 46  54  56]
  [ 48  56  58]
  [ 51  59  61]
  ...
  [ 53  54  49]
  [ 53  54  49]
  [ 55  56  51]]

 [[ 50  55  59]
  [ 51  56  60]
  [ 51  59  61]
  ...
  [ 57  58  53]
  [ 55  56  51]
  [ 56  57  52]]

 [[ 52  57  61]
  [ 52  57  61]
  [ 50  58  60]
  ...
  [ 59  60  55]
  [ 55  56  51]
  [ 53  54  49]]]"
1726693201.073616,0.944522,-1.394213,1.715452,-2.367173,-1.287419,-0.438509,-0.223986,-0.537588,0.356257,-2.596794,0.025753,3.035686,7.9e-05,-8e-06,9.1e-05,8.6e-05,-9.2e-05,-7.7e-05,54.115007,0.0,0.0,0.0,0.0,moving to grasp water bottle,"[[[  6  17   3]
  [  8  16   3]
  [  9  15   1]
  ...
  [110 101  96]
  [113 104  99]
  [117 108 103]]

 [[  6  17   3]
  [  8  16   3]
  [  9  15   3]
  ...
  [106  97  92]
  [109 100  95]
  [113 104  99]]

 [[  6  16   5]
  [  8  16   3]
  [  8  14   2]
  ...
  [104  93  89]
  [107  96  92]
  [109  98  94]]

 ...

 [[170 155 136]
  [168 155 138]
  [173 160 144]
  ...
  [145 137 114]
  [145 137 114]
  [146 138 115]]

 [[165 148 128]
  [164 147 127]
  [163 148 129]
  ...
  [145 138 112]
  [145 138 112]
  [145 138 112]]

 [[163 145 123]
  [164 148 125]
  [165 148 128]
  ...
  [146 139 113]
  [145 138 112]
  [145 138 112]]]","[[[ 55  63  65]
  [ 58  66  68]
  [ 57  65  67]
  ...
  [136 132 133]
  [136 132 133]
  [135 131 132]]

 [[ 52  60  62]
  [ 55  63  65]
  [ 55  63  65]
  ...
  [136 132 133]
  [136 132 133]
  [135 131 132]]

 [[ 56  64  66]
  [ 58  66  68]
  [ 57  65  67]
  ...
  [136 132 133]
  [136 132 133]
  [136 132 133]]

 ...

 [[ 57  59  58]
  [ 56  57  59]
  [ 54  58  61]
  ...
  [ 52  55  48]
  [ 53  56  49]
  [ 51  54  47]]

 [[ 56  57  59]
  [ 56  57  59]
  [ 54  58  61]
  ...
  [ 53  56  47]
  [ 54  57  48]
  [ 52  55  46]]

 [[ 56  57  59]
  [ 55  56  58]
  [ 54  58  61]
  ...
  [ 52  55  46]
  [ 55  58  49]
  [ 54  57  48]]]"
1726693201.169616,0.944558,-1.39426,1.71544,-2.367148,-1.287467,-0.438329,-0.223964,-0.537585,0.356286,-2.596789,0.025791,3.035546,5.7e-05,-1.1e-05,6.2e-05,8e-05,-0.00013,6.3e-05,54.115007,0.0,0.0,0.0,0.0,moving to grasp water bottle,"[[[  9  13   0]
  [ 10  14   0]
  [ 11  14   3]
  ...
  [105 101  92]
  [105 101  92]
  [110 106  97]]

 [[ 10  14   0]
  [ 10  14   0]
  [ 11  14   3]
  ...
  [103  99  90]
  [105 101  92]
  [110 106  97]]

 [[ 10  14   0]
  [ 10  14   0]
  [ 11  14   3]
  ...
  [100  96  85]
  [102  98  87]
  [106 102  91]]

 ...

 [[171 154 136]
  [174 157 139]
  [179 163 147]
  ...
  [145 137 116]
  [144 136 115]
  [145 137 116]]

 [[167 144 126]
  [168 147 128]
  [169 150 133]
  ...
  [146 138 117]
  [145 137 116]
  [145 137 116]]

 [[171 146 126]
  [169 147 126]
  [167 146 129]
  ...
  [147 139 118]
  [146 138 117]
  [146 138 117]]]","[[[ 52  64  62]
  [ 51  63  61]
  [ 52  64  64]
  ...
  [133 132 127]
  [134 133 128]
  [136 135 130]]

 [[ 51  63  61]
  [ 52  64  62]
  [ 52  64  64]
  ...
  [134 133 128]
  [134 133 128]
  [136 135 130]]

 [[ 51  63  61]
  [ 53  65  63]
  [ 53  65  65]
  ...
  [135 131 128]
  [136 132 129]
  [137 133 130]]

 ...

 [[ 53  59  59]
  [ 52  58  58]
  [ 52  58  58]
  ...
  [ 53  56  49]
  [ 53  56  49]
  [ 49  52  45]]

 [[ 53  59  59]
  [ 51  57  57]
  [ 52  58  58]
  ...
  [ 54  57  50]
  [ 53  56  49]
  [ 52  55  48]]

 [[ 55  61  61]
  [ 52  58  58]
  [ 53  59  59]
  ...
  [ 56  59  52]
  [ 55  58  51]
  [ 56  59  52]]]"
1726693201.265616,0.94457,-1.394344,1.715428,-2.367136,-1.287539,-0.438233,-0.22395,-0.537568,0.356337,-2.596749,0.025743,3.035444,4.3e-05,-2.8e-05,1.1e-05,4.1e-05,-8.2e-05,0.000165,54.115007,0.0,0.0,0.0,0.0,moving to grasp water bottle,"[[[ 11  14   5]
  [ 10  13   4]
  [ 10  13   4]
  ...
  [107 103  92]
  [108 104  93]
  [109 105  94]]

 [[ 11  14   5]
  [ 10  13   4]
  [ 10  13   4]
  ...
  [104 100  89]
  [107 103  92]
  [110 106  95]]

 [[ 11  14   5]
  [ 10  13   4]
  [ 10  13   4]
  ...
  [ 98  94  83]
  [102  98  87]
  [105 101  90]]

 ...

 [[167 150 134]
  [168 152 136]
  [175 159 144]
  ...
  [144 137 111]
  [144 137 111]
  [143 136 110]]

 [[170 152 132]
  [162 144 124]
  [159 142 124]
  ...
  [144 137 111]
  [144 137 111]
  [143 136 110]]

 [[168 147 126]
  [165 147 125]
  [166 148 128]
  ...
  [144 137 111]
  [144 137 111]
  [143 136 110]]]","[[[ 56  61  64]
  [ 56  61  64]
  [ 57  62  65]
  ...
  [134 130 127]
  [135 131 128]
  [137 133 130]]

 [[ 55  60  63]
  [ 56  61  64]
  [ 57  62  65]
  ...
  [134 130 127]
  [134 130 127]
  [136 132 129]]

 [[ 55  60  63]
  [ 56  61  64]
  [ 57  62  65]
  ...
  [135 131 128]
  [135 131 128]
  [136 132 129]]

 ...

 [[ 54  60  58]
  [ 53  59  57]
  [ 52  58  56]
  ...
  [ 52  55  48]
  [ 52  55  48]
  [ 51  54  47]]

 [[ 54  60  56]
  [ 54  60  56]
  [ 53  59  55]
  ...
  [ 53  56  49]
  [ 53  56  49]
  [ 49  52  45]]

 [[ 51  57  53]
  [ 53  59  55]
  [ 53  59  55]
  ...
  [ 58  61  54]
  [ 57  60  53]
  [ 53  56  49]]]"
1726693201.361616,0.94463,-1.394332,1.715428,-2.367136,-1.287587,-0.438209,-0.223923,-0.537582,0.356329,-2.596781,0.025725,3.035461,1.6e-05,-1.4e-05,1.9e-05,7.2e-05,-6.3e-05,0.000148,54.115007,0.0,0.0,0.0,0.0,moving to grasp water bottle,"[[[ 16  14   1]
  [ 15  13   0]
  [ 12  13   0]
  ...
  [109 104  98]
  [110 105  99]
  [109 104  98]]

 [[ 16  14   1]
  [ 13  14   0]
  [ 13  14   0]
  ...
  [102  97  91]
  [105 100  94]
  [108 103  97]]

 [[ 13  13   1]
  [ 13  13   1]
  [ 13  13   1]
  ...
  [ 98  93  87]
  [102  97  91]
  [107 102  96]]

 ...

 [[169 152 134]
  [171 156 137]
  [178 162 146]
  ...
  [147 135 111]
  [148 136 110]
  [148 136 110]]

 [[168 150 130]
  [164 146 126]
  [165 148 130]
  ...
  [150 136 110]
  [150 136 110]
  [150 136 110]]

 [[168 147 126]
  [163 145 123]
  [166 147 130]
  ...
  [149 135 109]
  [150 136 110]
  [149 135 109]]]","[[[ 58  62  63]
  [ 57  61  62]
  [ 55  60  63]
  ...
  [132 130 131]
  [134 132 133]
  [137 135 136]]

 [[ 58  62  63]
  [ 57  61  62]
  [ 56  61  64]
  ...
  [133 131 132]
  [133 131 132]
  [134 132 133]]

 [[ 56  62  62]
  [ 57  63  63]
  [ 57  62  65]
  ...
  [133 131 132]
  [132 130 131]
  [132 130 131]]

 ...

 [[ 54  60  60]
  [ 53  59  59]
  [ 55  61  61]
  ...
  [ 52  55  48]
  [ 52  55  48]
  [ 51  54  47]]

 [[ 54  60  60]
  [ 54  60  60]
  [ 55  61  61]
  ...
  [ 53  56  49]
  [ 53  56  49]
  [ 52  55  48]]

 [[ 49  55  55]
  [ 50  56  56]
  [ 52  58  58]
  ...
  [ 55  58  51]
  [ 56  59  52]
  [ 56  59  52]]]"
1726693207.315683,0.94463,-1.394332,1.715428,-2.367136,-1.287587,-0.438209,-0.223923,-0.537582,0.356329,-2.596781,0.025725,3.035461,0.0,0.0,0.0,0.0,0.0,0.0,54.115007,-0.660052,1.027796,6.13125,0.05,grasping water bottle,"[[[ 11  23  11]
  [  8  20   8]
  [  6  18   6]
  ...
  [111 102  95]
  [112 103  94]
  [112 103  94]]

 [[ 11  21  10]
  [  9  19   8]
  [  8  18   7]
  ...
  [105  96  89]
  [107  98  89]
  [109 100  91]]

 [[ 11  19   8]
  [ 11  19   8]
  [ 11  19   8]
  ...
  [102  93  86]
  [105  96  87]
  [108  99  90]]

 ...

 [[165 152 133]
  [168 157 139]
  [175 163 149]
  ...
  [144 136 113]
  [145 138 112]
  [146 139 113]]

 [[164 149 128]
  [164 149 128]
  [164 151 134]
  ...
  [145 137 114]
  [146 139 113]
  [146 139 113]]

 [[166 150 127]
  [162 147 126]
  [162 147 128]
  ...
  [145 137 114]
  [146 139 113]
  [146 139 113]]]","[[[ 52  61  60]
  [ 53  62  61]
  [ 54  63  62]
  ...
  [136 132 131]
  [135 131 130]
  [136 132 131]]

 [[ 52  61  60]
  [ 52  61  60]
  [ 52  61  60]
  ...
  [136 132 131]
  [136 132 131]
  [136 132 131]]

 [[ 51  60  59]
  [ 51  60  59]
  [ 51  60  59]
  ...
  [135 131 130]
  [135 131 130]
  [135 131 130]]

 ...

 [[ 49  60  56]
  [ 49  60  56]
  [ 50  59  56]
  ...
  [ 50  53  46]
  [ 50  53  46]
  [ 52  55  48]]

 [[ 48  59  55]
  [ 49  60  56]
  [ 49  58  55]
  ...
  [ 50  53  46]
  [ 51  54  45]
  [ 51  54  45]]

 [[ 45  56  52]
  [ 48  59  55]
  [ 47  56  53]
  ...
  [ 53  56  49]
  [ 56  59  50]
  [ 55  58  49]]]"
1726693207.492883,0.94463,-1.394332,1.715428,-2.367136,-1.287587,-0.438209,-0.223923,-0.537582,0.356329,-2.596781,0.025725,3.035461,0.0,0.0,0.0,0.0,0.0,0.0,53.454955,-0.440837,1.76439,6.18125,0.05,grasping water bottle,"[[[ 16  19   0]
  [ 16  19   0]
  [ 16  19   0]
  ...
  [110  99  93]
  [110 101  96]
  [113 104  99]]

 [[ 14  17   0]
  [ 14  17   0]
  [ 14  17   0]
  ...
  [107  96  90]
  [108  99  94]
  [112 103  98]]

 [[ 15  17   3]
  [ 15  17   3]
  [ 14  16   2]
  ...
  [102  93  84]
  [104  95  88]
  [107  98  91]]

 ...

 [[166 151 130]
  [170 157 138]
  [179 166 149]
  ...
  [145 137 114]
  [145 137 114]
  [146 138 115]]

 [[168 150 128]
  [167 151 128]
  [167 150 132]
  ...
  [144 136 113]
  [144 136 113]
  [146 138 115]]

 [[168 148 124]
  [164 146 124]
  [163 145 125]
  ...
  [142 134 111]
  [144 136 113]
  [147 139 116]]]","[[[ 55  60  63]
  [ 53  58  61]
  [ 51  56  59]
  ...
  [131 131 131]
  [132 132 134]
  [133 133 135]]

 [[ 52  57  60]
  [ 51  56  59]
  [ 51  56  59]
  ...
  [131 131 131]
  [132 132 134]
  [133 133 135]]

 [[ 54  59  62]
  [ 54  59  62]
  [ 54  59  62]
  ...
  [131 131 131]
  [131 131 133]
  [133 133 135]]

 ...

 [[ 49  55  53]
  [ 50  56  54]
  [ 52  58  56]
  ...
  [ 47  52  45]
  [ 47  52  45]
  [ 46  51  44]]

 [[ 50  56  54]
  [ 49  55  53]
  [ 50  56  54]
  ...
  [ 49  55  45]
  [ 51  57  47]
  [ 50  56  46]]

 [[ 50  56  54]
  [ 47  53  51]
  [ 47  53  51]
  ...
  [ 54  60  50]
  [ 54  60  50]
  [ 51  57  47]]]"
1726693207.67043,0.94463,-1.394332,1.715428,-2.367136,-1.287587,-0.438209,-0.223923,-0.537582,0.356329,-2.596781,0.025725,3.035461,0.0,0.0,0.0,0.0,0.0,0.0,53.014118,-0.663124,1.407235,6.23125,0.05,grasping water bottle,"[[[ 17  19   5]
  [ 16  18   4]
  [ 16  18   4]
  ...
  [110 100  98]
  [110 100  98]
  [115 105 103]]

 [[ 17  19   5]
  [ 16  18   4]
  [ 16  18   4]
  ...
  [107  97  95]
  [110 100  98]
  [116 106 104]]

 [[ 17  19   5]
  [ 16  18   4]
  [ 16  18   5]
  ...
  [101  91  89]
  [105  95  93]
  [110 100  98]]

 ...

 [[165 155 130]
  [169 158 136]
  [171 163 144]
  ...
  [146 138 117]
  [146 138 117]
  [146 138 117]]

 [[165 151 122]
  [165 151 124]
  [161 149 125]
  ...
  [146 138 117]
  [146 138 117]
  [146 138 117]]

 [[165 150 117]
  [166 151 120]
  [163 149 123]
  ...
  [144 136 115]
  [144 136 115]
  [144 136 115]]]","[[[ 52  57  60]
  [ 54  59  62]
  [ 54  59  62]
  ...
  [136 132 131]
  [137 133 132]
  [136 132 131]]

 [[ 52  57  60]
  [ 52  57  60]
  [ 51  56  59]
  ...
  [136 132 131]
  [136 132 131]
  [136 132 131]]

 [[ 52  57  60]
  [ 50  55  58]
  [ 50  55  58]
  ...
  [135 131 130]
  [135 131 130]
  [136 132 131]]

 ...

 [[ 48  57  56]
  [ 48  57  56]
  [ 49  58  57]
  ...
  [ 52  55  44]
  [ 51  54  45]
  [ 50  53  42]]

 [[ 48  57  56]
  [ 47  56  55]
  [ 47  56  55]
  ...
  [ 54  58  44]
  [ 52  55  44]
  [ 51  55  41]]

 [[ 46  55  54]
  [ 44  53  52]
  [ 43  52  51]
  ...
  [ 54  58  44]
  [ 52  56  42]
  [ 52  56  42]]]"
1726693207.862185,0.94463,-1.394332,1.715428,-2.367136,-1.287587,-0.438209,-0.223923,-0.537582,0.356329,-2.596781,0.025725,3.035461,0.0,0.0,0.0,0.0,0.0,0.0,52.350994,-0.221581,0.446613,6.28125,0.05,grasping water bottle,"[[[ 16  17  11]
  [ 16  17  11]
  [ 16  17  11]
  ...
  [112 101  95]
  [113 102  96]
  [113 102  96]]

 [[ 14  15   9]
  [ 15  16  10]
  [ 16  17  11]
  ...
  [103  92  86]
  [109  98  92]
  [113 102  96]]

 [[ 13  14   8]
  [ 14  15   9]
  [ 16  17  11]
  ...
  [100  90  81]
  [107  96  90]
  [112 101  95]]

 ...

 [[171 152 137]
  [172 155 139]
  [177 161 146]
  ...
  [144 136 115]
  [144 136 115]
  [143 135 114]]

 [[170 149 128]
  [166 145 126]
  [163 146 128]
  ...
  [144 136 115]
  [144 136 115]
  [143 135 114]]

 [[167 145 122]
  [165 144 123]
  [164 146 126]
  ...
  [144 136 115]
  [145 137 116]
  [144 136 115]]]","[[[ 53  58  62]
  [ 53  58  62]
  [ 58  63  66]
  ...
  [137 133 134]
  [138 134 133]
  [136 132 131]]

 [[ 54  59  63]
  [ 53  58  62]
  [ 58  63  66]
  ...
  [135 131 132]
  [136 132 131]
  [135 131 130]]

 [[ 54  59  63]
  [ 54  59  63]
  [ 58  63  66]
  ...
  [134 130 131]
  [134 130 131]
  [134 130 131]]

 ...

 [[ 53  59  59]
  [ 51  57  57]
  [ 50  56  56]
  ...
  [ 53  54  49]
  [ 53  54  49]
  [ 51  52  47]]

 [[ 51  57  57]
  [ 51  57  57]
  [ 51  57  57]
  ...
  [ 53  54  48]
  [ 55  56  50]
  [ 55  56  50]]

 [[ 52  58  58]
  [ 51  57  57]
  [ 50  56  56]
  ...
  [ 55  56  50]
  [ 55  56  50]
  [ 54  55  49]]]"
1726693208.082447,0.94463,-1.394332,1.715428,-2.367136,-1.287587,-0.438209,-0.223923,-0.537582,0.356329,-2.596781,0.025725,3.035461,0.0,0.0,0.0,0.0,0.0,0.0,52.129413,0.0,2.823502,6.33125,0.0,grasping water bottle,"[[[ 12  19  12]
  [ 11  18  11]
  [ 12  17  10]
  ...
  [112 103  98]
  [114 105 100]
  [113 104  99]]

 [[ 12  19  12]
  [ 12  19  12]
  [ 14  19  12]
  ...
  [104  95  90]
  [108  99  94]
  [111 102  97]]

 [[ 10  17  10]
  [ 11  18  11]
  [ 13  18  11]
  ...
  [100  91  86]
  [106  97  92]
  [112 103  98]]

 ...

 [[170 152 132]
  [171 154 136]
  [175 159 143]
  ...
  [147 136 114]
  [146 135 113]
  [146 135 113]]

 [[167 145 124]
  [165 144 123]
  [164 146 126]
  ...
  [147 136 114]
  [146 135 113]
  [147 136 114]]

 [[170 145 123]
  [169 147 124]
  [168 147 126]
  ...
  [147 136 114]
  [147 136 114]
  [149 138 116]]]","[[[ 50  58  60]
  [ 51  59  61]
  [ 53  61  63]
  ...
  [136 132 131]
  [135 131 130]
  [135 131 130]]

 [[ 51  59  61]
  [ 52  60  62]
  [ 54  62  64]
  ...
  [135 131 130]
  [135 131 130]
  [136 132 131]]

 [[ 52  60  62]
  [ 53  61  63]
  [ 54  62  64]
  ...
  [134 130 129]
  [134 130 129]
  [136 132 131]]

 ...

 [[ 50  54  55]
  [ 51  55  56]
  [ 51  55  56]
  ...
  [ 51  52  47]
  [ 51  52  47]
  [ 55  56  51]]

 [[ 51  55  56]
  [ 52  56  57]
  [ 52  56  57]
  ...
  [ 55  56  51]
  [ 52  53  48]
  [ 52  53  48]]

 [[ 51  55  56]
  [ 52  56  57]
  [ 52  56  57]
  ...
  [ 56  57  52]
  [ 55  56  51]
  [ 57  58  53]]]"
1726693217.749642,0.944678,-1.394308,1.715428,-2.367112,-1.287623,-0.438389,-0.223903,-0.537596,0.356312,-2.596834,0.025628,3.035644,-4e-06,0.0,3.6e-05,0.000125,3.4e-05,-3.5e-05,52.129413,0.0,2.823502,6.33125,0.0,moving back to original position with water bottle,"[[[ 10  17   9]
  [ 10  17   9]
  [ 11  18  10]
  ...
  [107 100  90]
  [107 103  92]
  [110 106  95]]

 [[ 11  18  10]
  [ 11  18  10]
  [ 10  17   9]
  ...
  [101  97  86]
  [105 101  90]
  [109 105  94]]

 [[ 12  17  10]
  [ 11  16   9]
  [ 10  16   6]
  ...
  [100  96  85]
  [104 100  89]
  [107 105  93]]

 ...

 [[172 151 132]
  [173 155 135]
  [176 161 142]
  ...
  [149 138 116]
  [149 138 116]
  [148 137 115]]

 [[169 144 124]
  [168 146 125]
  [166 149 129]
  ...
  [148 137 115]
  [148 137 115]
  [147 136 114]]

 [[171 144 123]
  [171 146 124]
  [165 147 125]
  ...
  [147 136 114]
  [146 135 113]
  [145 134 112]]]","[[[ 53  61  64]
  [ 51  59  62]
  [ 50  58  61]
  ...
  [133 131 132]
  [133 131 132]
  [133 131 132]]

 [[ 55  63  66]
  [ 54  62  65]
  [ 52  60  63]
  ...
  [133 131 132]
  [133 131 132]
  [133 131 132]]

 [[ 53  61  64]
  [ 52  60  63]
  [ 51  59  62]
  ...
  [133 132 130]
  [133 132 130]
  [133 132 130]]

 ...

 [[ 47  59  57]
  [ 48  60  58]
  [ 48  60  58]
  ...
  [ 52  55  46]
  [ 53  56  49]
  [ 51  54  45]]

 [[ 47  59  57]
  [ 48  60  58]
  [ 48  60  58]
  ...
  [ 54  57  46]
  [ 54  57  48]
  [ 52  55  44]]

 [[ 47  59  57]
  [ 47  59  57]
  [ 46  58  56]
  ...
  [ 54  57  46]
  [ 55  58  47]
  [ 54  57  46]]]"
1726693217.845641,0.944654,-1.395902,1.716278,-2.36632,-1.287539,-0.438545,-0.223574,-0.537127,0.356703,-2.596838,0.025633,3.035787,-1.8e-05,8.2e-05,0.000105,0.000129,3e-05,-0.000177,52.129413,0.0,2.823502,6.33125,0.0,moving back to original position with water bottle,"[[[ 10  17   9]
  [ 10  17   9]
  [ 11  18  10]
  ...
  [107 100  90]
  [107 103  92]
  [110 106  95]]

 [[ 11  18  10]
  [ 11  18  10]
  [ 10  17   9]
  ...
  [101  97  86]
  [105 101  90]
  [109 105  94]]

 [[ 12  17  10]
  [ 11  16   9]
  [ 10  16   6]
  ...
  [100  96  85]
  [104 100  89]
  [107 105  93]]

 ...

 [[172 151 132]
  [173 155 135]
  [176 161 142]
  ...
  [149 138 116]
  [149 138 116]
  [148 137 115]]

 [[169 144 124]
  [168 146 125]
  [166 149 129]
  ...
  [148 137 115]
  [148 137 115]
  [147 136 114]]

 [[171 144 123]
  [171 146 124]
  [165 147 125]
  ...
  [147 136 114]
  [146 135 113]
  [145 134 112]]]","[[[ 53  61  64]
  [ 51  59  62]
  [ 50  58  61]
  ...
  [133 131 132]
  [133 131 132]
  [133 131 132]]

 [[ 55  63  66]
  [ 54  62  65]
  [ 52  60  63]
  ...
  [133 131 132]
  [133 131 132]
  [133 131 132]]

 [[ 53  61  64]
  [ 52  60  63]
  [ 51  59  62]
  ...
  [133 132 130]
  [133 132 130]
  [133 132 130]]

 ...

 [[ 47  59  57]
  [ 48  60  58]
  [ 48  60  58]
  ...
  [ 52  55  46]
  [ 53  56  49]
  [ 51  54  45]]

 [[ 47  59  57]
  [ 48  60  58]
  [ 48  60  58]
  ...
  [ 54  57  46]
  [ 54  57  48]
  [ 52  55  44]]

 [[ 47  59  57]
  [ 47  59  57]
  [ 46  58  56]
  ...
  [ 54  57  46]
  [ 55  58  47]
  [ 54  57  46]]]"
1726693217.941641,0.9439,-1.407376,1.72199,-2.360405,-1.287251,-0.439156,-0.221562,-0.533641,0.359655,-2.596846,0.025591,3.035644,-2.2e-05,0.000103,8.4e-05,0.000134,7.3e-05,-3.6e-05,52.129413,0.0,2.823502,6.33125,0.0,moving back to original position with water bottle,"[[[ 13  16   9]
  [ 14  17  10]
  [ 16  18  13]
  ...
  [110 101  96]
  [112 103  98]
  [114 105 100]]

 [[ 13  16   9]
  [ 14  17  10]
  [ 15  18  11]
  ...
  [104  95  90]
  [107  98  93]
  [111 102  97]]

 [[ 13  16   7]
  [ 13  16   7]
  [ 14  17   8]
  ...
  [101  92  87]
  [105  96  91]
  [108  99  94]]

 ...

 [[170 153 133]
  [171 156 135]
  [176 161 142]
  ...
  [145 137 114]
  [145 137 114]
  [146 138 115]]

 [[166 149 121]
  [166 149 123]
  [167 151 126]
  ...
  [145 138 112]
  [146 139 113]
  [148 141 115]]

 [[170 151 119]
  [165 148 118]
  [165 148 120]
  ...
  [145 138 112]
  [146 139 113]
  [147 140 114]]]","[[[ 56  60  63]
  [ 57  61  64]
  [ 55  60  63]
  ...
  [137 133 132]
  [138 134 131]
  [138 134 131]]

 [[ 56  60  63]
  [ 55  60  63]
  [ 56  61  64]
  ...
  [136 132 131]
  [137 133 130]
  [138 134 131]]

 [[ 54  59  62]
  [ 55  60  63]
  [ 56  61  64]
  ...
  [136 132 131]
  [136 132 129]
  [137 133 130]]

 ...

 [[ 45  54  53]
  [ 46  55  54]
  [ 47  56  55]
  ...
  [ 55  56  51]
  [ 54  55  50]
  [ 52  53  48]]

 [[ 45  53  55]
  [ 46  54  56]
  [ 48  56  58]
  ...
  [ 59  58  53]
  [ 57  56  51]
  [ 54  53  48]]

 [[ 46  54  56]
  [ 47  55  57]
  [ 49  57  59]
  ...
  [ 60  59  54]
  [ 58  57  52]
  [ 55  54  49]]]"
1726693218.037641,0.942307,-1.429423,1.732682,-2.348875,-1.286581,-0.440332,-0.217736,-0.526907,0.365308,-2.596704,0.025541,3.035283,1.4e-05,0.000113,6.7e-05,-1.3e-05,0.000126,0.000322,52.129413,0.0,2.823502,6.33125,0.0,moving back to original position with water bottle,"[[[ 16  15  11]
  [ 18  17  13]
  [ 16  17  12]
  ...
  [107  98  91]
  [111 101  99]
  [115 105 104]]

 [[ 17  16  12]
  [ 19  18  14]
  [ 16  17  12]
  ...
  [103  94  87]
  [107  97  95]
  [111 101 100]]

 [[ 16  17  12]
  [ 18  19  14]
  [ 16  17  12]
  ...
  [101  92  85]
  [105  96  91]
  [108  98  96]]

 ...

 [[171 149 135]
  [171 152 138]
  [175 157 145]
  ...
  [145 137 114]
  [146 138 115]
  [146 138 115]]

 [[167 144 128]
  [166 145 128]
  [165 146 131]
  ...
  [145 137 114]
  [146 138 115]
  [147 140 114]]

 [[172 146 129]
  [171 148 130]
  [169 147 133]
  ...
  [145 137 114]
  [147 140 114]
  [148 141 115]]]","[[[ 51  62  64]
  [ 51  62  64]
  [ 51  63  63]
  ...
  [134 130 129]
  [133 129 128]
  [139 135 134]]

 [[ 52  63  65]
  [ 51  62  64]
  [ 51  63  63]
  ...
  [134 130 129]
  [135 131 130]
  [138 134 133]]

 [[ 52  63  65]
  [ 51  62  64]
  [ 51  63  63]
  ...
  [134 130 129]
  [135 131 130]
  [136 132 131]]

 ...

 [[ 54  59  55]
  [ 52  58  54]
  [ 51  57  53]
  ...
  [ 47  54  46]
  [ 48  58  49]
  [ 47  57  48]]

 [[ 52  59  52]
  [ 51  58  51]
  [ 50  57  50]
  ...
  [ 48  55  47]
  [ 49  59  50]
  [ 47  57  48]]

 [[ 52  59  52]
  [ 50  57  50]
  [ 47  57  49]
  ...
  [ 50  57  49]
  [ 49  59  50]
  [ 47  57  48]]]"
1726693218.133641,0.939744,-1.462094,1.747541,-2.330194,-1.285384,-0.442863,-0.21209,-0.516879,0.373638,-2.596917,0.025521,3.035292,8.3e-05,6.6e-05,7.8e-05,0.000192,0.000151,0.00031,52.129413,0.0,2.823502,6.33125,0.0,moving back to original position with water bottle,"[[[ 10  15   8]
  [ 10  15   8]
  [ 11  16   9]
  ...
  [111 102  97]
  [111 102  97]
  [113 104  99]]

 [[ 12  17  10]
  [ 11  16   9]
  [ 11  16   9]
  ...
  [105  96  91]
  [107  98  93]
  [110 101  96]]

 [[ 14  20  10]
  [ 12  18   8]
  [ 10  16   6]
  ...
  [103  94  89]
  [105  96  91]
  [108  99  94]]

 ...

 [[164 149 130]
  [169 153 137]
  [177 161 146]
  ...
  [148 137 115]
  [147 136 114]
  [145 134 112]]

 [[165 149 126]
  [164 147 127]
  [165 148 132]
  ...
  [147 136 114]
  [147 136 114]
  [146 135 113]]

 [[167 149 125]
  [166 148 126]
  [164 147 129]
  ...
  [147 136 114]
  [148 137 115]
  [148 137 115]]]","[[[ 52  61  58]
  [ 54  63  60]
  [ 54  63  60]
  ...
  [137 133 132]
  [134 130 131]
  [134 130 131]]

 [[ 53  62  59]
  [ 52  61  58]
  [ 53  62  59]
  ...
  [137 133 132]
  [134 130 131]
  [134 130 131]]

 [[ 54  63  62]
  [ 51  60  59]
  [ 50  59  58]
  ...
  [137 133 132]
  [134 130 129]
  [134 130 129]]

 ...

 [[ 50  56  54]
  [ 52  58  56]
  [ 54  60  58]
  ...
  [ 51  54  47]
  [ 51  53  48]
  [ 50  52  47]]

 [[ 50  56  52]
  [ 52  58  54]
  [ 51  57  55]
  ...
  [ 51  54  47]
  [ 53  56  49]
  [ 52  55  48]]

 [[ 50  56  52]
  [ 52  58  54]
  [ 49  55  53]
  ...
  [ 50  53  46]
  [ 55  58  51]
  [ 54  57  50]]]"
1726693218.229641,0.93633,-1.505124,1.765395,-2.304275,-1.28354,-0.446282,-0.204538,-0.503667,0.384678,-2.596722,0.025455,3.035462,0.0001,7.2e-05,8.5e-05,-1.4e-05,0.000225,0.000135,52.129413,0.0,2.823502,6.33125,0.0,moving back to original position with water bottle,"[[[ 18  15   6]
  [ 17  14   5]
  [ 17  15   3]
  ...
  [105 100  94]
  [108 104  95]
  [110 106  97]]

 [[ 19  16   7]
  [ 17  14   5]
  [ 17  14   5]
  ...
  [102  97  91]
  [106 102  93]
  [109 105  96]]

 [[ 16  16   8]
  [ 15  15   5]
  [ 15  15   5]
  ...
  [100  95  89]
  [104 100  91]
  [108 104  95]]

 ...

 [[169 150 135]
  [172 155 139]
  [177 161 146]
  ...
  [150 137 118]
  [150 137 118]
  [150 137 118]]

 [[169 148 131]
  [167 146 129]
  [165 146 131]
  ...
  [148 135 116]
  [151 136 117]
  [152 137 118]]

 [[168 145 127]
  [169 148 129]
  [170 149 132]
  ...
  [146 133 114]
  [150 135 116]
  [151 136 117]]]","[[[ 54  60  56]
  [ 54  60  56]
  [ 56  62  58]
  ...
  [135 133 134]
  [134 132 135]
  [134 132 135]]

 [[ 55  61  57]
  [ 55  61  57]
  [ 56  62  58]
  ...
  [136 134 135]
  [136 134 137]
  [135 133 136]]

 [[ 55  61  59]
  [ 54  60  58]
  [ 55  61  59]
  ...
  [136 134 135]
  [137 135 138]
  [137 135 138]]

 ...

 [[ 50  56  56]
  [ 51  57  57]
  [ 51  57  57]
  ...
  [ 50  51  46]
  [ 51  52  47]
  [ 50  51  46]]

 [[ 50  56  56]
  [ 51  57  57]
  [ 52  58  58]
  ...
  [ 53  54  49]
  [ 52  53  48]
  [ 50  51  46]]

 [[ 51  57  57]
  [ 53  59  59]
  [ 53  59  59]
  ...
  [ 57  58  53]
  [ 58  59  54]
  [ 57  58  53]]]"
1726693218.325641,0.931959,-1.55799,1.784374,-2.269308,-1.281144,-0.45066,-0.195137,-0.487375,0.398365,-2.596558,0.025464,3.035679,-8e-06,9e-06,-4e-05,-0.000191,0.000223,-8.9e-05,52.129413,0.0,2.823502,6.33125,0.0,moving back to original position with water bottle,"[[[ 11  16  10]
  [ 12  17  10]
  [ 13  16   9]
  ...
  [109 102  96]
  [113 104  99]
  [116 107 102]]

 [[ 11  16  10]
  [ 10  15   8]
  [ 12  15   6]
  ...
  [104  97  91]
  [109 100  95]
  [113 104  99]]

 [[ 12  17  10]
  [ 10  15   8]
  [ 12  15   6]
  ...
  [102  95  89]
  [106  97  92]
  [110 101  96]]

 ...

 [[165 151 125]
  [167 155 131]
  [173 162 140]
  ...
  [145 137 114]
  [146 138 115]
  [147 139 116]]

 [[167 151 125]
  [165 149 123]
  [164 150 124]
  ...
  [144 136 113]
  [146 138 115]
  [146 138 115]]

 [[164 147 119]
  [164 147 119]
  [164 148 123]
  ...
  [143 135 112]
  [145 137 114]
  [146 138 115]]]","[[[ 52  59  51]
  [ 53  60  52]
  [ 54  61  54]
  ...
  [136 132 131]
  [136 132 131]
  [136 132 131]]

 [[ 55  62  54]
  [ 56  63  55]
  [ 57  64  57]
  ...
  [137 133 132]
  [136 132 131]
  [136 132 131]]

 [[ 55  62  55]
  [ 57  64  57]
  [ 58  65  58]
  ...
  [137 133 132]
  [136 132 131]
  [135 131 130]]

 ...

 [[ 47  59  57]
  [ 49  61  59]
  [ 49  61  59]
  ...
  [ 52  55  48]
  [ 51  54  47]
  [ 52  55  48]]

 [[ 46  61  58]
  [ 47  62  59]
  [ 49  61  59]
  ...
  [ 51  54  47]
  [ 50  51  45]
  [ 51  52  46]]

 [[ 44  60  57]
  [ 45  61  58]
  [ 49  61  59]
  ...
  [ 52  55  48]
  [ 51  52  46]
  [ 51  52  46]]]"
1726693218.421641,0.926965,-1.611961,1.800539,-2.229995,-1.278607,-0.45541,-0.185499,-0.47055,0.412409,-2.596677,0.025609,3.035615,8e-06,4.4e-05,6e-06,-8.6e-05,8.7e-05,-3e-05,52.129413,0.0,2.823502,6.33125,0.0,moving back to original position with water bottle,"[[[  9  18   1]
  [  9  18   1]
  [ 10  17   1]
  ...
  [106 101  98]
  [111 106 103]
  [114 109 106]]

 [[ 11  20   3]
  [ 11  20   3]
  [ 11  18   2]
  ...
  [103  98  95]
  [107 102  99]
  [108 103 100]]

 [[ 11  20   3]
  [ 10  19   2]
  [ 11  17   3]
  ...
  [100  95  91]
  [106 101  98]
  [107 102  99]]

 ...

 [[165 150 129]
  [172 157 136]
  [174 161 142]
  ...
  [148 138 113]
  [150 138 112]
  [151 139 113]]

 [[167 149 127]
  [167 149 127]
  [163 146 126]
  ...
  [149 137 113]
  [151 137 111]
  [151 137 111]]

 [[166 146 122]
  [167 149 125]
  [166 148 126]
  ...
  [149 137 113]
  [150 136 110]
  [149 135 109]]]","[[[ 50  60  52]
  [ 51  61  53]
  [ 52  61  56]
  ...
  [133 133 133]
  [134 134 134]
  [133 133 133]]

 [[ 52  62  54]
  [ 53  63  55]
  [ 53  62  57]
  ...
  [133 133 133]
  [134 134 134]
  [134 134 134]]

 [[ 54  64  56]
  [ 55  65  57]
  [ 55  64  59]
  ...
  [134 134 134]
  [134 134 134]
  [135 135 135]]

 ...

 [[ 48  60  58]
  [ 47  59  57]
  [ 46  58  56]
  ...
  [ 51  53  48]
  [ 52  54  51]
  [ 54  56  53]]

 [[ 48  60  58]
  [ 46  58  56]
  [ 45  57  55]
  ...
  [ 51  53  48]
  [ 51  53  50]
  [ 51  53  50]]

 [[ 47  59  57]
  [ 43  55  53]
  [ 42  54  52]
  ...
  [ 52  54  49]
  [ 51  53  50]
  [ 50  52  49]]]"
1726693218.517641,0.921552,-1.665444,1.813363,-2.187917,-1.275888,-0.460639,-0.175802,-0.45367,0.426462,-2.59661,0.025605,3.035605,-3.5e-05,2.4e-05,4.3e-05,-0.000167,0.0001,-2.6e-05,52.129413,0.0,2.823502,6.33125,0.0,moving back to original position with water bottle,"[[[  7  20  13]
  [  6  19  12]
  [  9  20  12]
  ...
  [108 101  85]
  [111 102  87]
  [115 106  91]]

 [[  7  20  13]
  [  6  19  12]
  [  9  20  12]
  ...
  [105  97  84]
  [109  99  87]
  [113 103  91]]

 [[  8  19  13]
  [  7  18  12]
  [ 10  20  12]
  ...
  [101  95  83]
  [106  98  87]
  [108 100  89]]

 ...

 [[168 153 132]
  [169 156 137]
  [175 162 145]
  ...
  [145 137 116]
  [145 137 116]
  [146 138 117]]

 [[167 151 126]
  [163 148 125]
  [163 148 127]
  ...
  [145 137 116]
  [145 137 116]
  [145 137 116]]

 [[162 146 120]
  [162 146 121]
  [163 148 125]
  ...
  [145 137 116]
  [145 137 116]
  [145 137 116]]]","[[[ 57  61  62]
  [ 57  61  62]
  [ 56  62  62]
  ...
  [136 130 130]
  [136 131 128]
  [139 134 131]]

 [[ 56  60  61]
  [ 56  60  61]
  [ 54  60  60]
  ...
  [138 132 132]
  [138 133 130]
  [139 134 131]]

 [[ 57  61  62]
  [ 56  60  61]
  [ 54  60  60]
  ...
  [137 133 132]
  [138 134 133]
  [138 134 133]]

 ...

 [[ 52  56  59]
  [ 53  57  60]
  [ 54  58  61]
  ...
  [ 52  57  50]
  [ 53  58  51]
  [ 54  59  52]]

 [[ 52  55  60]
  [ 53  56  61]
  [ 53  57  60]
  ...
  [ 51  56  49]
  [ 52  57  50]
  [ 52  57  50]]

 [[ 49  52  57]
  [ 50  53  58]
  [ 49  53  56]
  ...
  [ 53  58  51]
  [ 53  58  51]
  [ 51  56  49]]]"
1726693218.613641,0.915624,-1.718162,1.822392,-2.14256,-1.272991,-0.466445,-0.166092,-0.436764,0.440607,-2.596641,0.025576,3.035624,-9.1e-05,-2.2e-05,-1.2e-05,-0.00015,0.000137,-5.2e-05,52.129413,0.0,2.823502,6.33125,0.0,moving back to original position with water bottle,"[[[ 17  20   3]
  [ 17  20   3]
  [ 17  19   5]
  ...
  [108  99  90]
  [112 103  94]
  [116 107  98]]

 [[ 17  19   5]
  [ 17  19   5]
  [ 17  19   6]
  ...
  [107  98  89]
  [109 100  91]
  [112 103  94]]

 [[ 16  18   7]
  [ 16  18   7]
  [ 16  18   7]
  ...
  [104  95  86]
  [106  97  88]
  [108  99  90]]

 ...

 [[171 154 136]
  [170 155 136]
  [174 161 144]
  ...
  [143 135 114]
  [143 135 114]
  [144 136 115]]

 [[168 150 130]
  [164 146 126]
  [164 147 129]
  ...
  [144 136 115]
  [143 135 114]
  [144 136 115]]

 [[165 144 123]
  [167 149 127]
  [169 151 131]
  ...
  [143 135 114]
  [143 135 114]
  [144 136 115]]]","[[[ 51  60  57]
  [ 51  60  57]
  [ 51  60  57]
  ...
  [139 135 136]
  [139 134 138]
  [138 133 137]]

 [[ 51  60  57]
  [ 51  60  57]
  [ 51  60  57]
  ...
  [137 133 134]
  [137 132 136]
  [138 133 137]]

 [[ 52  61  60]
  [ 51  60  59]
  [ 51  60  59]
  ...
  [135 130 134]
  [135 130 136]
  [138 133 139]]

 ...

 [[ 54  60  60]
  [ 55  61  61]
  [ 55  61  61]
  ...
  [ 55  55  53]
  [ 55  55  53]
  [ 55  55  53]]

 [[ 53  59  59]
  [ 54  60  60]
  [ 55  61  61]
  ...
  [ 54  55  50]
  [ 54  53  49]
  [ 55  54  50]]

 [[ 52  58  58]
  [ 53  59  59]
  [ 54  60  60]
  ...
  [ 54  55  50]
  [ 53  52  48]
  [ 55  54  50]]]"
1726693218.709641,0.909576,-1.764886,1.827301,-2.099131,-1.270069,-0.472382,-0.157387,-0.421461,0.453435,-2.596581,0.025489,3.035657,-5.7e-05,-6.3e-05,-8.5e-05,-0.000221,0.000233,-9e-05,52.129413,0.0,2.823502,6.33125,0.0,moving back to original position with water bottle,"[[[  9  20  16]
  [  9  20  16]
  [ 10  19  14]
  ...
  [112 103  96]
  [115 105  96]
  [115 105  96]]

 [[  9  20  16]
  [  9  20  14]
  [ 10  19  14]
  ...
  [105  96  89]
  [109  99  90]
  [112 102  93]]

 [[ 11  20  15]
  [ 10  19  14]
  [ 10  19  14]
  ...
  [102  93  86]
  [105  96  87]
  [110 101  92]]

 ...

 [[167 152 133]
  [168 155 136]
  [174 163 145]
  ...
  [148 137 117]
  [147 134 115]
  [146 133 114]]

 [[166 148 124]
  [164 148 125]
  [163 148 127]
  ...
  [148 137 117]
  [148 135 116]
  [147 134 115]]

 [[167 147 122]
  [163 145 121]
  [162 146 123]
  ...
  [146 135 115]
  [149 136 117]
  [150 137 118]]]","[[[ 53  65  65]
  [ 54  66  66]
  [ 52  66  66]
  ...
  [137 131 133]
  [137 131 133]
  [137 131 133]]

 [[ 53  65  65]
  [ 53  65  65]
  [ 53  65  65]
  ...
  [138 132 134]
  [137 131 133]
  [138 132 134]]

 [[ 52  62  63]
  [ 53  65  65]
  [ 53  64  66]
  ...
  [136 132 133]
  [136 132 133]
  [136 132 133]]

 ...

 [[ 51  63  63]
  [ 53  65  65]
  [ 55  65  66]
  ...
  [ 52  57  50]
  [ 51  56  50]
  [ 48  53  47]]

 [[ 52  63  65]
  [ 52  63  65]
  [ 52  64  64]
  ...
  [ 50  55  48]
  [ 50  55  48]
  [ 49  54  47]]

 [[ 54  65  67]
  [ 50  61  63]
  [ 47  59  59]
  ...
  [ 54  59  52]
  [ 53  58  51]
  [ 50  55  48]]]"
1726693218.805641,0.90445,-1.800854,1.829122,-2.063563,-1.267602,-0.47724,-0.150541,-0.409443,0.463473,-2.596562,0.025539,3.035537,-1.7e-05,-5.5e-05,-7.3e-05,-0.00025,0.000188,2.6e-05,52.129413,0.0,2.823502,6.33125,0.0,moving back to original position with water bottle,"[[[ 16  19   8]
  [ 16  19   8]
  [ 17  18  10]
  ...
  [112 105  95]
  [114 106  95]
  [113 105  94]]

 [[ 16  19   8]
  [ 16  19   8]
  [ 17  18  10]
  ...
  [104  97  87]
  [109 101  90]
  [112 104  93]]

 [[ 13  19   9]
  [ 13  19   9]
  [ 15  18  11]
  ...
  [100  93  83]
  [106  98  87]
  [112 104  93]]

 ...

 [[165 150 131]
  [167 154 135]
  [174 163 145]
  ...
  [147 136 114]
  [147 137 112]
  [147 137 112]]

 [[164 147 127]
  [162 145 125]
  [160 147 128]
  ...
  [148 137 115]
  [149 139 114]
  [149 139 114]]

 [[165 147 125]
  [164 148 125]
  [164 149 128]
  ...
  [148 137 115]
  [149 139 114]
  [149 139 114]]]","[[[ 57  62  66]
  [ 56  61  65]
  [ 57  62  66]
  ...
  [136 131 135]
  [134 129 135]
  [132 127 133]]

 [[ 55  60  64]
  [ 54  59  63]
  [ 55  60  64]
  ...
  [138 133 137]
  [135 130 136]
  [134 129 135]]

 [[ 56  61  65]
  [ 55  60  64]
  [ 56  61  64]
  ...
  [139 134 138]
  [137 132 138]
  [135 130 136]]

 ...

 [[ 55  61  59]
  [ 54  60  58]
  [ 53  59  57]
  ...
  [ 57  58  52]
  [ 63  64  58]
  [ 66  67  61]]

 [[ 54  60  56]
  [ 54  60  56]
  [ 52  58  56]
  ...
  [ 60  59  54]
  [ 63  62  57]
  [ 64  63  58]]

 [[ 54  60  56]
  [ 53  59  55]
  [ 52  58  56]
  ...
  [ 61  60  55]
  [ 62  61  56]
  [ 62  61  56]]]"
1726693218.901641,0.900474,-1.82676,1.829122,-2.036576,-1.265818,-0.480995,-0.145523,-0.400635,0.470889,-2.596577,0.025481,3.035376,-3e-06,-7.5e-05,-0.000145,-0.000243,0.000251,0.000183,52.129413,0.0,2.823502,6.33125,0.0,moving back to original position with water bottle,"[[[ 15  18  11]
  [ 14  17  10]
  [ 13  16   9]
  ...
  [109 104 100]
  [112 102 100]
  [113 103 101]]

 [[ 14  17  10]
  [ 14  17  10]
  [ 14  17  10]
  ...
  [102  97  93]
  [107  99  96]
  [110 100  98]]

 [[ 13  16   9]
  [ 14  17  10]
  [ 12  18   8]
  ...
  [ 98  93  89]
  [104  96  93]
  [108 100  97]]

 ...

 [[166 150 134]
  [169 156 140]
  [173 161 145]
  ...
  [148 137 117]
  [147 136 116]
  [146 135 115]]

 [[163 146 128]
  [164 149 130]
  [163 150 133]
  ...
  [147 134 115]
  [146 133 114]
  [147 134 115]]

 [[163 146 126]
  [164 149 128]
  [163 147 131]
  ...
  [147 134 115]
  [147 134 115]
  [151 138 119]]]","[[[ 54  62  64]
  [ 56  64  66]
  [ 56  64  66]
  ...
  [133 129 130]
  [131 127 128]
  [131 127 128]]

 [[ 56  64  66]
  [ 56  64  66]
  [ 55  63  65]
  ...
  [133 129 130]
  [131 127 128]
  [130 126 127]]

 [[ 56  64  66]
  [ 54  62  64]
  [ 53  61  63]
  ...
  [135 131 132]
  [132 128 129]
  [131 127 128]]

 ...

 [[ 56  60  63]
  [ 53  57  60]
  [ 55  59  62]
  ...
  [ 58  61  54]
  [ 65  67  62]
  [ 67  69  64]]

 [[ 57  58  62]
  [ 53  57  60]
  [ 54  58  61]
  ...
  [ 58  61  54]
  [ 62  64  59]
  [ 62  64  59]]

 [[ 56  57  61]
  [ 54  55  59]
  [ 53  57  60]
  ...
  [ 58  61  52]
  [ 58  60  55]
  [ 56  58  53]]]"
1726693218.997641,0.897947,-1.842927,1.828918,-2.019096,-1.264705,-0.48355,-0.142306,-0.395069,0.475406,-2.596943,0.025571,3.035397,-4.1e-05,-8.9e-05,-2.3e-05,0.000119,0.000164,0.000161,52.129413,0.0,2.823502,6.33125,0.0,moving back to original position with water bottle,"[[[ 19  20   6]
  [ 18  19   5]
  [ 19  19   7]
  ...
  [106  99  89]
  [111 102  93]
  [116 107  98]]

 [[ 19  20   6]
  [ 19  20   6]
  [ 20  20   8]
  ...
  [103  96  86]
  [108  99  90]
  [113 104  95]]

 [[ 18  19   5]
  [ 18  19   5]
  [ 20  20   8]
  ...
  [ 99  92  82]
  [104  95  86]
  [109 100  91]]

 ...

 [[167 148 133]
  [171 154 138]
  [178 162 147]
  ...
  [144 136 115]
  [144 136 115]
  [145 137 116]]

 [[167 146 125]
  [167 146 127]
  [165 148 130]
  ...
  [144 136 115]
  [144 136 115]
  [144 136 115]]

 [[168 146 123]
  [168 148 124]
  [167 149 129]
  ...
  [144 136 115]
  [144 136 115]
  [144 136 115]]]","[[[ 53  61  64]
  [ 52  60  63]
  [ 52  60  63]
  ...
  [130 130 130]
  [129 131 130]
  [129 131 130]]

 [[ 53  61  64]
  [ 52  60  63]
  [ 52  60  63]
  ...
  [130 130 130]
  [129 131 130]
  [129 131 130]]

 [[ 53  61  64]
  [ 52  60  63]
  [ 52  60  63]
  ...
  [128 128 128]
  [128 128 128]
  [129 129 129]]

 ...

 [[ 53  59  57]
  [ 50  56  54]
  [ 50  56  54]
  ...
  [ 65  67  62]
  [ 65  67  62]
  [ 67  69  64]]

 [[ 51  57  57]
  [ 50  56  56]
  [ 51  57  57]
  ...
  [ 62  63  58]
  [ 62  63  58]
  [ 64  65  60]]

 [[ 50  56  56]
  [ 50  56  56]
  [ 51  57  57]
  ...
  [ 63  64  59]
  [ 63  64  59]
  [ 62  63  58]]]"
1726693219.093641,0.896858,-1.84956,1.828702,-2.011725,-1.264154,-0.484606,-0.140978,-0.392767,0.477273,-2.597104,0.025713,3.035398,-4.4e-05,-7.7e-05,4.4e-05,0.000278,2.2e-05,0.000158,52.129413,0.0,2.823502,6.33125,0.0,moving back to original position with water bottle,"[[[ 13  16   7]
  [ 13  16   7]
  [ 13  16   7]
  ...
  [113 103 101]
  [113 102 100]
  [111 100  98]]

 [[ 13  16   7]
  [ 13  16   7]
  [ 13  16   7]
  ...
  [107  97  95]
  [112 101  99]
  [115 104 102]]

 [[ 13  16   5]
  [ 13  16   5]
  [ 13  16   7]
  ...
  [102  92  90]
  [109  98  96]
  [113 102 100]]

 ...

 [[169 151 137]
  [171 155 140]
  [175 162 146]
  ...
  [144 136 115]
  [143 137 113]
  [143 137 113]]

 [[167 149 129]
  [165 148 128]
  [166 149 131]
  ...
  [144 136 115]
  [143 137 113]
  [144 138 114]]

 [[168 150 126]
  [165 147 123]
  [163 146 126]
  ...
  [143 135 114]
  [142 136 112]
  [143 137 113]]]","[[[ 56  62  60]
  [ 56  62  60]
  [ 57  63  63]
  ...
  [131 127 128]
  [132 128 129]
  [135 131 132]]

 [[ 55  61  59]
  [ 54  60  58]
  [ 54  60  60]
  ...
  [132 128 129]
  [133 129 130]
  [134 130 131]]

 [[ 55  61  59]
  [ 53  59  57]
  [ 53  59  59]
  ...
  [132 128 129]
  [132 128 129]
  [134 130 131]]

 ...

 [[ 53  58  62]
  [ 54  59  63]
  [ 55  60  64]
  ...
  [ 67  68  62]
  [ 69  70  64]
  [ 70  71  65]]

 [[ 54  59  63]
  [ 54  59  63]
  [ 53  58  62]
  ...
  [ 64  65  57]
  [ 64  65  57]
  [ 65  66  58]]

 [[ 54  59  63]
  [ 53  58  62]
  [ 51  56  60]
  ...
  [ 56  57  49]
  [ 57  58  50]
  [ 60  61  53]]]"
1726693219.189641,0.896858,-1.849536,1.828702,-2.011725,-1.264058,-0.484618,-0.140977,-0.392778,0.477266,-2.597078,0.025793,3.035452,-3e-06,9e-06,0.000114,0.000252,-5.7e-05,0.000104,52.129413,0.0,2.823502,6.33125,0.0,moving back to original position with water bottle,"[[[ 12  18   6]
  [ 11  17   5]
  [ 11  17   7]
  ...
  [106 101  95]
  [108 103  97]
  [110 105  99]]

 [[ 13  19   7]
  [ 12  18   6]
  [ 12  18   8]
  ...
  [102  97  91]
  [104  99  93]
  [106 101  95]]

 [[ 11  19   8]
  [ 11  19   8]
  [ 12  18   8]
  ...
  [ 98  93  87]
  [100  95  89]
  [102  97  91]]

 ...

 [[166 150 135]
  [169 156 140]
  [176 164 150]
  ...
  [145 139 117]
  [143 136 117]
  [142 135 116]]

 [[162 145 127]
  [162 147 128]
  [164 148 132]
  ...
  [145 139 117]
  [146 139 120]
  [144 137 118]]

 [[163 146 126]
  [164 147 127]
  [162 146 130]
  ...
  [144 138 116]
  [148 141 122]
  [146 139 120]]]","[[[ 57  59  58]
  [ 55  59  58]
  [ 55  59  60]
  ...
  [133 129 130]
  [132 128 129]
  [132 128 129]]

 [[ 58  60  59]
  [ 56  60  59]
  [ 57  61  62]
  ...
  [132 128 129]
  [132 128 129]
  [132 128 129]]

 [[ 59  61  60]
  [ 56  60  59]
  [ 56  60  61]
  ...
  [132 128 129]
  [132 128 129]
  [132 128 129]]

 ...

 [[ 52  58  56]
  [ 52  58  56]
  [ 53  59  57]
  ...
  [ 68  71  64]
  [ 65  68  61]
  [ 69  72  65]]

 [[ 52  58  56]
  [ 52  58  56]
  [ 53  59  57]
  ...
  [ 64  67  60]
  [ 63  66  59]
  [ 67  70  63]]

 [[ 51  57  55]
  [ 52  58  56]
  [ 54  60  58]
  ...
  [ 58  61  54]
  [ 59  62  55]
  [ 61  64  57]]]"
1726693219.285641,0.896882,-1.849512,1.828666,-2.011749,-1.264034,-0.484653,-0.140973,-0.392791,0.477278,-2.597036,0.025772,3.035518,-7e-06,2.2e-05,0.000102,0.00021,-3.7e-05,3.8e-05,52.129413,0.0,2.823502,6.33125,0.0,moving back to original position with water bottle,"[[[ 18  18  20]
  [ 17  17  19]
  [ 16  16  16]
  ...
  [110 101  92]
  [112 104  93]
  [113 105  94]]

 [[ 14  14  16]
  [ 13  13  15]
  [ 14  14  14]
  ...
  [105  96  87]
  [108 100  89]
  [110 102  91]]

 [[ 11  11  11]
  [ 12  12  12]
  [ 14  14  14]
  ...
  [101  92  83]
  [104  96  85]
  [108 100  89]]

 ...

 [[169 152 134]
  [171 156 137]
  [175 164 146]
  ...
  [144 136 115]
  [144 136 115]
  [146 138 117]]

 [[170 152 130]
  [164 148 125]
  [159 147 125]
  ...
  [146 138 117]
  [146 138 117]
  [145 137 116]]

 [[167 147 123]
  [163 145 121]
  [161 146 125]
  ...
  [147 139 118]
  [147 139 118]
  [145 137 116]]]","[[[ 55  60  63]
  [ 55  60  63]
  [ 56  61  64]
  ...
  [132 128 129]
  [132 128 129]
  [132 128 129]]

 [[ 55  60  63]
  [ 55  60  63]
  [ 56  61  64]
  ...
  [134 130 131]
  [134 130 131]
  [134 130 131]]

 [[ 54  59  62]
  [ 55  60  63]
  [ 55  60  63]
  ...
  [131 127 128]
  [131 127 128]
  [132 128 129]]

 ...

 [[ 50  59  56]
  [ 49  58  55]
  [ 49  58  55]
  ...
  [ 64  69  65]
  [ 67  72  68]
  [ 63  68  64]]

 [[ 48  57  54]
  [ 48  57  54]
  [ 47  56  53]
  ...
  [ 60  65  59]
  [ 61  66  60]
  [ 61  66  60]]

 [[ 51  60  57]
  [ 51  60  57]
  [ 48  57  54]
  ...
  [ 58  63  57]
  [ 57  62  56]
  [ 60  65  59]]]"
1726693219.381641,0.89687,-1.8495,1.828607,-2.011749,-1.26395,-0.484653,-0.140975,-0.392797,0.477306,-2.596955,0.025811,3.035546,-5e-06,2.8e-05,7.4e-05,0.000129,-7.5e-05,1.1e-05,52.129413,0.0,2.823502,6.33125,0.0,moving back to original position with water bottle,"[[[ 13  19   7]
  [ 13  19   7]
  [ 13  19   7]
  ...
  [105 105  97]
  [103 104  96]
  [106 107  99]]

 [[ 13  19   9]
  [ 12  18   8]
  [ 13  19   9]
  ...
  [101 101  93]
  [103 104  96]
  [107 108 100]]

 [[ 15  18  11]
  [ 15  18  11]
  [ 15  18  11]
  ...
  [ 96  96  88]
  [100 100  92]
  [103 103  95]]

 ...

 [[169 153 138]
  [170 157 141]
  [175 161 148]
  ...
  [143 135 114]
  [143 135 114]
  [144 136 115]]

 [[164 147 131]
  [165 148 132]
  [168 150 136]
  ...
  [144 136 115]
  [144 136 115]
  [145 137 116]]

 [[166 147 130]
  [166 147 130]
  [164 147 131]
  ...
  [144 136 115]
  [145 137 116]
  [146 138 117]]]","[[[ 51  60  59]
  [ 52  61  60]
  [ 50  59  58]
  ...
  [130 129 124]
  [130 129 124]
  [132 131 126]]

 [[ 50  59  58]
  [ 51  60  59]
  [ 50  59  58]
  ...
  [130 129 124]
  [129 128 123]
  [131 130 125]]

 [[ 51  60  59]
  [ 53  62  61]
  [ 51  60  59]
  ...
  [131 130 126]
  [130 129 125]
  [131 130 126]]

 ...

 [[ 49  60  64]
  [ 50  61  65]
  [ 47  58  60]
  ...
  [ 65  66  60]
  [ 67  68  62]
  [ 68  69  63]]

 [[ 48  59  63]
  [ 49  60  64]
  [ 47  58  60]
  ...
  [ 61  62  56]
  [ 62  63  57]
  [ 62  63  57]]

 [[ 49  60  64]
  [ 50  61  65]
  [ 48  59  61]
  ...
  [ 59  60  54]
  [ 59  60  54]
  [ 59  60  54]]]"
