correlllab/MAGPIE/datasets/csv/yellow block_trajectory.csv
timestamp,q0,q1,q2,q3,q4,q5,x,y,z,rx,ry,rz,dx,dy,dz,drx,dry,drz,aperture,d_aperture,contact_force,applied_force,d_applied_force,task,img,wrist_img
1726689856.949442,0.925456,-1.672004,1.798767,-2.039325,-1.281097,-0.548923,-0.170822,-0.449208,0.419228,-2.703346,0.049303,3.110471,6e-06,-2e-06,1e-05,-5.1e-05,-3.7e-05,1.2e-05,51.68621,0.0,0.0,0.0,0.0,moving to grasp yellow block,"[[[ 86  68  56]
  [ 92  74  62]
  [ 97  79  67]
  ...
  [108  98  88]
  [112  99  90]
  [116 103  94]]

 [[ 86  68  56]
  [ 91  73  61]
  [ 95  77  65]
  ...
  [104  94  84]
  [109  96  87]
  [112  99  90]]

 [[ 87  69  59]
  [ 92  74  64]
  [ 96  78  68]
  ...
  [103  93  83]
  [109  96  87]
  [113 100  91]]

 ...

 [[169 144 114]
  [168 142 115]
  [165 141 115]
  ...
  [145 134 114]
  [146 135 115]
  [146 135 115]]

 [[172 142 106]
  [171 142 108]
  [169 143 110]
  ...
  [145 134 114]
  [145 134 114]
  [146 135 115]]

 [[175 143 104]
  [171 141 103]
  [167 139 102]
  ...
  [144 133 113]
  [146 135 115]
  [147 136 116]]]","[[[ 47  51  52]
  [ 48  52  53]
  [ 48  52  53]
  ...
  [  8  14  14]
  [ 10  16  16]
  [ 12  18  18]]

 [[ 47  51  52]
  [ 48  52  53]
  [ 49  53  54]
  ...
  [  9  15  15]
  [ 10  16  16]
  [ 11  17  17]]

 [[ 47  51  52]
  [ 48  52  53]
  [ 49  53  54]
  ...
  [ 10  16  16]
  [ 10  16  16]
  [ 10  16  16]]

 ...

 [[ 46  50  51]
  [ 47  51  52]
  [ 48  52  53]
  ...
  [110 111 106]
  [110 111 106]
  [110 111 106]]

 [[ 46  50  51]
  [ 47  51  52]
  [ 48  52  53]
  ...
  [111 112 107]
  [110 111 106]
  [110 111 106]]

 [[ 46  50  51]
  [ 47  51  52]
  [ 49  53  54]
  ...
  [111 112 107]
  [109 110 105]
  [108 109 104]]]"
1726689857.045442,0.925492,-1.671332,1.799186,-2.04055,-1.281144,-0.548935,-0.170949,-0.4494,0.418847,-2.70326,0.049186,3.110513,-7e-06,-4.6e-05,-0.000137,-0.000137,8e-05,-3e-05,51.68621,0.0,0.0,0.0,0.0,moving to grasp yellow block,"[[[ 97  63  53]
  [101  69  58]
  [104  74  64]
  ...
  [108  99  94]
  [109 100  95]
  [111 102  97]]

 [[ 96  64  53]
  [102  70  59]
  [102  74  63]
  ...
  [104  95  90]
  [106  97  92]
  [109 100  95]]

 [[ 94  64  53]
  [100  72  60]
  [102  74  63]
  ...
  [100  91  84]
  [103  94  87]
  [106  97  90]]

 ...

 [[175 145 117]
  [170 143 114]
  [165 139 112]
  ...
  [145 134 114]
  [145 134 114]
  [145 134 114]]

 [[175 140 108]
  [173 140 107]
  [169 140 110]
  ...
  [145 134 114]
  [145 134 114]
  [144 133 113]]

 [[177 141 105]
  [174 140 105]
  [173 140 107]
  ...
  [145 134 114]
  [145 134 114]
  [143 132 112]]]","[[[ 45  50  53]
  [ 47  52  55]
  [ 48  53  56]
  ...
  [ 11  15  18]
  [ 10  14  17]
  [ 11  15  18]]

 [[ 45  50  53]
  [ 48  53  56]
  [ 49  54  57]
  ...
  [ 11  15  18]
  [ 10  14  17]
  [ 10  14  17]]

 [[ 45  50  53]
  [ 47  52  55]
  [ 48  53  56]
  ...
  [ 11  15  18]
  [  9  13  16]
  [ 10  14  17]]

 ...

 [[ 41  51  50]
  [ 42  52  51]
  [ 46  55  54]
  ...
  [109 110 105]
  [108 109 104]
  [108 109 104]]

 [[ 40  52  50]
  [ 40  52  50]
  [ 44  54  53]
  ...
  [109 110 105]
  [108 109 104]
  [108 109 104]]

 [[ 41  53  51]
  [ 40  52  50]
  [ 43  53  52]
  ...
  [109 110 105]
  [108 109 104]
  [108 109 104]]]"
1726689857.141442,0.925756,-1.666463,1.802706,-2.049313,-1.281336,-0.548539,-0.17182,-0.450749,0.415829,-2.703063,0.049008,3.11042,3.3e-05,-9.8e-05,-0.000253,-0.000332,0.000257,6.2e-05,51.68621,0.0,0.0,0.0,0.0,moving to grasp yellow block,"[[[ 87  69  57]
  [ 93  75  63]
  [ 97  80  70]
  ...
  [111  97  94]
  [113  98  95]
  [119 104 101]]

 [[ 88  70  58]
  [ 93  75  63]
  [ 97  80  70]
  ...
  [106  92  89]
  [110  95  92]
  [116 101  98]]

 [[ 86  69  59]
  [ 91  74  64]
  [ 96  79  71]
  ...
  [102  88  85]
  [105  91  90]
  [111  97  96]]

 ...

 [[169 143 110]
  [166 141 110]
  [165 142 111]
  ...
  [144 132 110]
  [144 133 111]
  [145 134 112]]

 [[177 145 106]
  [171 141 103]
  [167 141 106]
  ...
  [145 133 109]
  [146 134 110]
  [146 134 110]]

 [[172 139  96]
  [174 142 101]
  [172 142 104]
  ...
  [147 135 111]
  [146 134 110]
  [145 133 109]]]","[[[ 48  52  53]
  [ 49  53  54]
  [ 48  52  53]
  ...
  [  9  18  17]
  [  8  17  16]
  [  7  16  15]]

 [[ 48  52  53]
  [ 49  53  54]
  [ 49  53  54]
  ...
  [ 11  20  19]
  [ 10  19  18]
  [  9  18  17]]

 [[ 48  52  53]
  [ 48  52  53]
  [ 49  53  54]
  ...
  [ 13  19  19]
  [ 10  19  18]
  [  9  18  17]]

 ...

 [[ 41  52  48]
  [ 43  54  50]
  [ 44  53  50]
  ...
  [108 109 103]
  [108 109 103]
  [108 109 103]]

 [[ 40  52  48]
  [ 41  52  48]
  [ 42  51  48]
  ...
  [109 110 104]
  [109 110 104]
  [109 110 104]]

 [[ 40  52  48]
  [ 39  51  47]
  [ 41  50  47]
  ...
  [110 111 105]
  [110 111 105]
  [110 111 105]]]"
1726689857.237442,0.926786,-1.65428,1.811148,-2.070165,-1.281671,-0.547844,-0.173746,-0.454098,0.408312,-2.703059,0.048958,3.110842,-2.3e-05,-8.7e-05,-0.000204,-0.000331,0.000308,-0.000358,51.68621,0.0,0.0,0.0,0.0,moving to grasp yellow block,"[[[ 89  71  61]
  [ 92  75  65]
  [ 96  79  69]
  ...
  [111 102  93]
  [111 104  94]
  [112 105  95]]

 [[ 89  71  61]
  [ 93  76  66]
  [ 97  80  70]
  ...
  [106  97  88]
  [109 102  92]
  [112 105  95]]

 [[ 88  70  60]
  [ 92  75  65]
  [ 98  81  71]
  ...
  [104  95  86]
  [106  99  89]
  [108 101  91]]

 ...

 [[172 143 113]
  [170 143 113]
  [168 143 113]
  ...
  [146 134 112]
  [145 134 112]
  [145 134 112]]

 [[173 140 105]
  [173 143 109]
  [172 143 111]
  ...
  [146 134 112]
  [146 135 113]
  [146 135 113]]

 [[177 143 106]
  [175 142 107]
  [171 141 107]
  ...
  [147 135 113]
  [147 136 114]
  [147 136 114]]]","[[[ 48  47  52]
  [ 49  48  53]
  [ 51  50  55]
  ...
  [ 12  18  18]
  [ 11  17  17]
  [ 14  20  20]]

 [[ 50  49  54]
  [ 50  49  54]
  [ 50  49  54]
  ...
  [ 13  19  19]
  [ 12  18  18]
  [ 13  19  19]]

 [[ 50  51  55]
  [ 49  50  54]
  [ 49  50  54]
  ...
  [ 14  20  20]
  [ 12  18  18]
  [ 12  18  18]]

 ...

 [[ 45  45  43]
  [ 46  48  45]
  [ 46  50  49]
  ...
  [110 111 106]
  [109 110 105]
  [109 110 105]]

 [[ 45  47  44]
  [ 47  49  46]
  [ 47  51  50]
  ...
  [110 111 106]
  [109 110 105]
  [108 109 104]]

 [[ 45  47  44]
  [ 46  48  45]
  [ 46  50  49]
  ...
  [109 110 105]
  [110 111 106]
  [107 108 103]]]"
1726689857.333442,0.928199,-1.634433,1.82323,-2.102264,-1.282186,-0.546236,-0.176853,-0.459336,0.396613,-2.703218,0.049215,3.110825,1e-05,-2.7e-05,-9e-05,-0.000164,5e-05,-0.000339,51.68621,0.0,0.0,0.0,0.0,moving to grasp yellow block,"[[[ 87  73  60]
  [ 91  77  64]
  [ 91  79  67]
  ...
  [112 101  97]
  [115 100  97]
  [114  99  96]]

 [[ 84  70  57]
  [ 90  76  63]
  [ 92  80  68]
  ...
  [106  95  91]
  [110  96  93]
  [113  98  95]]

 [[ 82  68  57]
  [ 88  74  63]
  [ 92  79  70]
  ...
  [103  92  88]
  [109  95  92]
  [113  99  96]]

 ...

 [[171 141 115]
  [169 142 115]
  [167 141 116]
  ...
  [145 132 115]
  [145 134 116]
  [146 135 117]]

 [[174 142 103]
  [173 143 105]
  [172 144 107]
  ...
  [145 132 115]
  [145 134 116]
  [146 135 117]]

 [[175 142  97]
  [174 143  99]
  [170 141  99]
  ...
  [146 133 116]
  [145 134 116]
  [146 135 117]]]","[[[ 42  47  53]
  [ 44  49  55]
  [ 45  50  54]
  ...
  [ 13  19  15]
  [ 14  20  16]
  [ 13  19  15]]

 [[ 44  49  55]
  [ 44  49  55]
  [ 44  49  53]
  ...
  [ 12  18  14]
  [ 14  20  16]
  [ 15  21  17]]

 [[ 47  52  58]
  [ 45  50  56]
  [ 44  49  53]
  ...
  [ 10  16  14]
  [ 13  19  17]
  [ 16  22  20]]

 ...

 [[ 40  47  53]
  [ 43  51  54]
  [ 44  52  55]
  ...
  [109 110 105]
  [109 109 107]
  [108 108 106]]

 [[ 40  50  52]
  [ 42  52  54]
  [ 42  52  54]
  ...
  [109 110 105]
  [110 110 108]
  [108 108 106]]

 [[ 41  51  53]
  [ 42  52  54]
  [ 43  53  54]
  ...
  [110 111 106]
  [110 110 108]
  [108 108 106]]]"
1726689857.429442,0.930103,-1.606494,1.83779,-2.145428,-1.283001,-0.543981,-0.181007,-0.466381,0.380972,-2.703139,0.049265,3.110691,5e-06,1.3e-05,-0.000122,-0.000233,-2e-06,-0.000202,51.68621,0.0,0.0,0.0,0.0,moving to grasp yellow block,"[[[ 86  68  64]
  [ 95  77  73]
  [ 96  81  76]
  ...
  [112 101  97]
  [112 101  97]
  [111 100  96]]

 [[ 84  66  62]
  [ 92  74  70]
  [ 93  78  73]
  ...
  [104  93  89]
  [106  95  91]
  [109  98  94]]

 [[ 84  66  62]
  [ 90  72  68]
  [ 91  76  69]
  ...
  [101  90  86]
  [104  93  89]
  [109  98  94]]

 ...

 [[172 141 113]
  [171 141 113]
  [168 140 116]
  ...
  [143 135 114]
  [144 136 115]
  [142 134 113]]

 [[179 138 110]
  [179 140 111]
  [177 141 115]
  ...
  [143 135 114]
  [144 138 116]
  [142 136 114]]

 [[180 135 106]
  [178 134 105]
  [177 135 110]
  ...
  [141 133 112]
  [142 136 114]
  [140 134 112]]]","[[[ 42  49  42]
  [ 43  50  43]
  [ 43  49  45]
  ...
  [ 17  23  23]
  [ 18  24  24]
  [ 19  25  25]]

 [[ 42  49  42]
  [ 43  50  43]
  [ 43  49  45]
  ...
  [ 18  24  24]
  [ 19  25  25]
  [ 20  26  26]]

 [[ 42  49  42]
  [ 42  49  42]
  [ 43  49  45]
  ...
  [ 19  25  25]
  [ 19  25  25]
  [ 19  25  25]]

 ...

 [[ 43  50  43]
  [ 44  51  44]
  [ 45  51  47]
  ...
  [108 109 103]
  [108 109 103]
  [108 109 103]]

 [[ 43  48  41]
  [ 43  48  42]
  [ 43  48  44]
  ...
  [106 107 101]
  [107 108 102]
  [108 109 103]]

 [[ 42  47  40]
  [ 39  44  37]
  [ 38  43  39]
  ...
  [106 107 101]
  [107 108 102]
  [109 110 104]]]"
1726689857.525442,0.932367,-1.569381,1.853669,-2.198959,-1.284006,-0.541414,-0.186205,-0.475175,0.361204,-2.70325,0.04941,3.110621,-3.2e-05,-1.2e-05,-8.5e-05,-0.000109,-0.000147,-0.000129,51.68621,0.0,0.0,0.0,0.0,moving to grasp yellow block,"[[[ 91  70  49]
  [ 93  75  53]
  [ 97  79  59]
  ...
  [113 103  94]
  [113 102  96]
  [113 102  96]]

 [[ 90  69  48]
  [ 92  74  54]
  [ 95  77  57]
  ...
  [105  95  86]
  [106  95  89]
  [109  98  92]]

 [[ 89  68  49]
  [ 91  73  53]
  [ 95  76  59]
  ...
  [ 99  89  80]
  [102  91  85]
  [106  95  89]]

 ...

 [[172 145 115]
  [168 143 113]
  [167 143 117]
  ...
  [145 134 112]
  [144 133 111]
  [144 133 111]]

 [[171 141 105]
  [170 141 107]
  [171 144 114]
  ...
  [144 133 111]
  [144 133 111]
  [144 133 111]]

 [[174 142 104]
  [171 141 105]
  [171 142 108]
  ...
  [144 133 111]
  [145 134 112]
  [145 134 112]]]","[[[ 45  47  46]
  [ 47  49  48]
  [ 47  47  47]
  ...
  [ 18  23  26]
  [ 18  24  24]
  [ 20  26  26]]

 [[ 44  46  45]
  [ 46  48  47]
  [ 46  46  46]
  ...
  [ 19  24  27]
  [ 19  25  25]
  [ 20  26  26]]

 [[ 44  46  45]
  [ 46  48  47]
  [ 46  46  46]
  ...
  [ 20  25  28]
  [ 20  25  28]
  [ 20  25  28]]

 ...

 [[ 44  48  47]
  [ 43  47  46]
  [ 43  47  46]
  ...
  [105 107 102]
  [109 111 108]
  [109 111 108]]

 [[ 42  48  46]
  [ 43  49  47]
  [ 43  49  47]
  ...
  [105 107 102]
  [109 111 108]
  [106 108 105]]

 [[ 41  47  45]
  [ 42  48  46]
  [ 43  49  47]
  ...
  [105 107 102]
  [108 110 107]
  [106 108 105]]]"
1726689857.621442,0.93469,-1.526863,1.867321,-2.256072,-1.285,-0.538907,-0.191829,-0.484685,0.339941,-2.702997,0.049335,3.110701,-5.9e-05,-2e-05,-0.000116,-0.000347,-7.3e-05,-0.000206,51.68621,0.0,0.0,0.0,0.0,moving to grasp yellow block,"[[[ 83  74  65]
  [ 85  76  67]
  [ 87  81  69]
  ...
  [106  98  95]
  [107 100  94]
  [110 103  97]]

 [[ 81  71  62]
  [ 84  74  65]
  [ 86  78  67]
  ...
  [101  93  90]
  [105  98  92]
  [108 101  95]]

 [[ 81  66  59]
  [ 86  71  64]
  [ 89  76  67]
  ...
  [102  92  90]
  [106  97  92]
  [109 100  95]]

 ...

 [[172 142 114]
  [168 141 114]
  [165 139 114]
  ...
  [147 137 112]
  [147 137 112]
  [146 136 111]]

 [[173 138 106]
  [172 139 106]
  [169 140 110]
  ...
  [146 136 111]
  [146 136 109]
  [145 135 108]]

 [[176 140 104]
  [175 141 106]
  [173 140 107]
  ...
  [146 136 111]
  [146 136 109]
  [145 135 108]]]","[[[ 41  47  47]
  [ 43  49  49]
  [ 43  49  49]
  ...
  [ 91  93 105]
  [ 46  48  63]
  [ 28  29  47]]

 [[ 42  48  48]
  [ 43  49  49]
  [ 44  50  50]
  ...
  [ 93  95 107]
  [ 49  51  66]
  [ 29  30  48]]

 [[ 42  48  48]
  [ 44  50  50]
  [ 43  49  49]
  ...
  [ 96  98 111]
  [ 53  54  72]
  [ 30  31  51]]

 ...

 [[ 45  47  44]
  [ 46  48  45]
  [ 44  46  43]
  ...
  [112 121 118]
  [108 117 114]
  [110 119 116]]

 [[ 46  47  42]
  [ 46  47  42]
  [ 44  45  40]
  ...
  [112 121 118]
  [108 119 115]
  [110 121 117]]

 [[ 45  46  41]
  [ 46  47  42]
  [ 43  44  39]
  ...
  [111 120 117]
  [108 119 115]
  [109 120 116]]]"
1726689857.717442,0.936869,-1.481901,1.877343,-2.311632,-1.28621,-0.536449,-0.197494,-0.494187,0.318616,-2.70315,0.049294,3.11057,-1e-05,2.2e-05,4.4e-05,-0.00018,-3.4e-05,-7.2e-05,51.68621,0.0,0.0,0.0,0.0,moving to grasp yellow block,"[[[ 79  69  57]
  [ 87  77  65]
  [ 92  83  68]
  ...
  [109 100  95]
  [110 101  94]
  [112 103  96]]

 [[ 78  68  56]
  [ 84  74  62]
  [ 89  80  65]
  ...
  [104  95  90]
  [106  97  90]
  [109 100  93]]

 [[ 78  68  56]
  [ 83  73  61]
  [ 89  77  65]
  ...
  [101  92  87]
  [105  96  89]
  [107  98  91]]

 ...

 [[170 143 116]
  [171 145 118]
  [169 143 120]
  ...
  [145 134 112]
  [146 135 117]
  [147 136 118]]

 [[168 137 108]
  [171 142 112]
  [172 142 116]
  ...
  [145 134 112]
  [146 135 117]
  [146 135 117]]

 [[173 140 109]
  [169 138 107]
  [169 138 110]
  ...
  [144 133 111]
  [145 134 116]
  [145 134 116]]]","[[[ 46  49  40]
  [ 48  51  42]
  [ 44  49  42]
  ...
  [157 161 172]
  [156 160 169]
  [154 158 167]]

 [[ 46  49  40]
  [ 46  49  40]
  [ 43  48  41]
  ...
  [158 162 173]
  [157 161 170]
  [156 160 169]]

 [[ 44  49  42]
  [ 44  49  42]
  [ 43  48  42]
  ...
  [158 162 173]
  [157 161 172]
  [156 160 171]]

 ...

 [[ 40  46  46]
  [ 41  47  47]
  [ 39  45  43]
  ...
  [104 108 109]
  [103 107 108]
  [103 107 108]]

 [[ 39  48  47]
  [ 40  49  48]
  [ 36  45  42]
  ...
  [105 109 110]
  [104 108 109]
  [104 108 109]]

 [[ 39  48  47]
  [ 40  49  48]
  [ 35  44  41]
  ...
  [104 108 109]
  [103 107 108]
  [104 108 109]]]"
1726689857.813442,0.93863,-1.441616,1.883079,-2.357778,-1.286988,-0.534517,-0.202341,-0.502324,0.30028,-2.703432,0.0496,3.110574,3e-06,1.5e-05,0.00016,0.000114,-0.00034,-7.2e-05,51.68621,0.0,0.0,0.0,0.0,moving to grasp yellow block,"[[[ 89  63  62]
  [ 91  67  65]
  [ 93  74  68]
  ...
  [111 100  96]
  [110 100  99]
  [109  99  98]]

 [[ 90  64  63]
  [ 91  67  65]
  [ 93  74  68]
  ...
  [107  96  92]
  [108  98  97]
  [110 100  99]]

 [[ 88  62  61]
  [ 89  65  63]
  [ 92  73  67]
  ...
  [102  91  87]
  [103  93  92]
  [105  95  94]]

 ...

 [[174 143 112]
  [173 144 114]
  [168 141 112]
  ...
  [146 135 115]
  [146 135 115]
  [146 135 115]]

 [[177 141 105]
  [178 142 106]
  [174 141 108]
  ...
  [145 134 114]
  [144 133 113]
  [144 133 113]]

 [[180 141 102]
  [176 138 101]
  [172 136 100]
  ...
  [145 134 114]
  [144 133 113]
  [145 134 114]]]","[[[ 45  46  48]
  [ 47  48  50]
  [ 47  48  50]
  ...
  [159 163 174]
  [158 162 173]
  [156 160 171]]

 [[ 47  48  50]
  [ 47  48  50]
  [ 47  48  50]
  ...
  [159 163 174]
  [158 162 173]
  [156 160 171]]

 [[ 45  49  50]
  [ 45  49  50]
  [ 45  49  50]
  ...
  [158 162 173]
  [158 162 173]
  [157 161 172]]

 ...

 [[ 44  45  47]
  [ 44  45  47]
  [ 44  45  47]
  ...
  [120 124 123]
  [119 123 122]
  [116 120 119]]

 [[ 44  45  47]
  [ 44  45  47]
  [ 44  45  47]
  ...
  [118 122 121]
  [119 123 122]
  [117 121 120]]

 [[ 46  47  49]
  [ 45  46  48]
  [ 43  44  46]
  ...
  [116 120 119]
  [118 122 121]
  [118 122 121]]]"
1726689857.909442,0.940043,-1.409558,1.885582,-2.393051,-1.287671,-0.533114,-0.206059,-0.50865,0.286239,-2.703176,0.049394,3.1107,-2.9e-05,2.5e-05,6.9e-05,-0.000132,-0.000135,-0.000196,51.68621,0.0,0.0,0.0,0.0,moving to grasp yellow block,"[[[ 82  66  51]
  [ 90  74  59]
  [ 94  78  65]
  ...
  [109 100  91]
  [109 102  92]
  [111 104  94]]

 [[ 81  65  50]
  [ 89  73  58]
  [ 93  77  64]
  ...
  [104  95  86]
  [106  99  89]
  [110 103  93]]

 [[ 80  64  51]
  [ 87  71  58]
  [ 91  75  62]
  ...
  [100  91  82]
  [104  95  86]
  [107  98  89]]

 ...

 [[172 142 118]
  [171 143 119]
  [168 142 119]
  ...
  [148 137 117]
  [146 135 115]
  [142 131 111]]

 [[174 137 110]
  [175 140 112]
  [175 141 114]
  ...
  [147 136 116]
  [146 135 115]
  [142 131 111]]

 [[181 140 110]
  [179 140 109]
  [174 137 110]
  ...
  [147 136 116]
  [147 136 116]
  [144 133 113]]]","[[[ 47  46  51]
  [ 47  46  51]
  [ 47  48  50]
  ...
  [163 167 178]
  [163 167 178]
  [163 167 178]]

 [[ 48  47  52]
  [ 46  45  50]
  [ 46  47  49]
  ...
  [163 167 178]
  [163 167 178]
  [163 167 178]]

 [[ 50  49  54]
  [ 49  48  53]
  [ 49  49  51]
  ...
  [163 167 178]
  [163 167 178]
  [163 167 178]]

 ...

 [[ 42  43  45]
  [ 42  44  43]
  [ 43  45  44]
  ...
  [118 120 119]
  [125 127 124]
  [129 131 128]]

 [[ 40  44  47]
  [ 40  44  45]
  [ 41  45  46]
  ...
  [123 125 122]
  [127 129 126]
  [129 131 128]]

 [[ 39  43  46]
  [ 39  43  46]
  [ 40  44  45]
  ...
  [127 129 126]
  [127 129 126]
  [127 129 126]]]"
1726689858.005442,0.940965,-1.386108,1.886252,-2.417393,-1.288305,-0.532154,-0.208776,-0.513174,0.276192,-2.703305,0.049279,3.110668,2.3e-05,6e-05,7.3e-05,3e-06,-1.9e-05,-0.000162,51.68621,0.0,0.0,0.0,0.0,moving to grasp yellow block,"[[[ 85  68  58]
  [ 89  72  62]
  [ 91  75  62]
  ...
  [109  98  92]
  [112  99  93]
  [115 102  94]]

 [[ 84  67  57]
  [ 88  71  61]
  [ 92  76  63]
  ...
  [105  94  88]
  [109  96  88]
  [113 100  92]]

 [[ 83  66  56]
  [ 86  69  59]
  [ 93  77  64]
  ...
  [102  91  85]
  [106  93  85]
  [109  96  87]]

 ...

 [[175 144 113]
  [171 142 112]
  [166 139 110]
  ...
  [144 136 115]
  [145 137 116]
  [144 136 115]]

 [[173 139 101]
  [173 141 103]
  [171 141 105]
  ...
  [144 136 115]
  [144 136 115]
  [144 136 115]]

 [[175 140  98]
  [177 144 103]
  [175 143 104]
  ...
  [142 134 113]
  [143 135 114]
  [143 135 114]]]","[[[ 48  50  49]
  [ 46  48  47]
  [ 46  48  47]
  ...
  [160 164 176]
  [162 166 178]
  [163 167 179]]

 [[ 47  49  48]
  [ 46  48  47]
  [ 45  47  46]
  ...
  [160 164 176]
  [160 164 176]
  [160 164 176]]

 [[ 47  49  48]
  [ 46  48  47]
  [ 46  48  47]
  ...
  [161 165 177]
  [160 164 176]
  [157 161 173]]

 ...

 [[ 43  44  46]
  [ 44  45  47]
  [ 45  46  48]
  ...
  [117 121 124]
  [120 124 127]
  [120 124 127]]

 [[ 43  43  45]
  [ 44  44  46]
  [ 44  45  47]
  ...
  [116 120 123]
  [119 123 126]
  [120 124 127]]

 [[ 46  46  48]
  [ 46  46  48]
  [ 46  47  49]
  ...
  [116 120 123]
  [120 124 127]
  [122 126 129]]]"
1726689858.101442,0.941373,-1.372238,1.886312,-2.431872,-1.288544,-0.531614,-0.210422,-0.515804,0.27036,-2.70296,0.049069,3.110603,8.9e-05,2.8e-05,-4.9e-05,-0.000338,0.00019,-9.6e-05,51.68621,0.0,0.0,0.0,0.0,moving to grasp yellow block,"[[[ 91  67  57]
  [ 94  70  58]
  [ 97  75  62]
  ...
  [107  96  94]
  [111  99  99]
  [114 102 102]]

 [[ 89  65  55]
  [ 92  68  56]
  [ 95  73  60]
  ...
  [104  93  91]
  [108  96  96]
  [112 100 100]]

 [[ 88  64  54]
  [ 92  68  56]
  [ 95  73  60]
  ...
  [101  90  86]
  [103  92  90]
  [105  94  92]]

 ...

 [[173 144 110]
  [172 146 113]
  [170 145 114]
  ...
  [147 137 110]
  [146 137 108]
  [146 137 108]]

 [[176 142 104]
  [175 143 104]
  [173 143 107]
  ...
  [145 135 108]
  [145 136 107]
  [145 136 107]]

 [[178 143 101]
  [175 142 101]
  [173 141 102]
  ...
  [143 133 106]
  [143 134 105]
  [145 136 107]]]","[[[ 41  50  49]
  [ 42  51  50]
  [ 42  51  50]
  ...
  [165 169 178]
  [165 170 176]
  [165 170 176]]

 [[ 41  50  49]
  [ 42  51  50]
  [ 42  51  50]
  ...
  [164 168 177]
  [162 167 173]
  [163 168 174]]

 [[ 43  49  49]
  [ 43  49  49]
  [ 44  50  50]
  ...
  [162 166 175]
  [162 167 173]
  [167 172 178]]

 ...

 [[ 37  48  44]
  [ 37  48  44]
  [ 37  48  44]
  ...
  [123 127 130]
  [115 119 122]
  [114 118 121]]

 [[ 36  48  44]
  [ 36  48  44]
  [ 37  48  44]
  ...
  [121 125 128]
  [115 120 123]
  [116 121 124]]

 [[ 35  47  43]
  [ 36  48  44]
  [ 38  49  45]
  ...
  [120 124 127]
  [114 119 122]
  [116 121 124]]]"
1726689858.197441,0.941528,-1.36779,1.886384,-2.436179,-1.288808,-0.531374,-0.210924,-0.516609,0.268413,-2.703273,0.049103,3.11046,9.5e-05,-2e-06,2.9e-05,-2.3e-05,0.000156,4.7e-05,51.68621,0.0,0.0,0.0,0.0,moving to grasp yellow block,"[[[ 81  67  64]
  [ 88  75  69]
  [ 91  76  71]
  ...
  [115  95  94]
  [117  96  95]
  [121  97  97]]

 [[ 83  69  66]
  [ 89  76  70]
  [ 93  78  71]
  ...
  [111  93  91]
  [116  95  94]
  [119  98  97]]

 [[ 80  67  61]
  [ 85  72  66]
  [ 92  77  70]
  ...
  [108  90  88]
  [113  93  92]
  [115  95  94]]

 ...

 [[177 144 113]
  [175 144 113]
  [170 143 113]
  ...
  [145 134 114]
  [144 133 113]
  [145 134 114]]

 [[177 139 103]
  [176 140 104]
  [174 141 108]
  ...
  [144 133 113]
  [143 132 112]
  [145 134 114]]

 [[180 141 102]
  [177 139 102]
  [172 136 100]
  ...
  [143 132 112]
  [142 131 111]
  [144 133 113]]]","[[[ 46  50  51]
  [ 44  48  49]
  [ 44  48  49]
  ...
  [164 168 177]
  [164 168 177]
  [163 167 176]]

 [[ 45  49  50]
  [ 44  48  49]
  [ 44  48  49]
  ...
  [162 166 175]
  [162 166 175]
  [163 167 176]]

 [[ 44  48  49]
  [ 43  47  48]
  [ 44  48  49]
  ...
  [161 165 174]
  [162 166 175]
  [166 170 179]]

 ...

 [[ 40  50  42]
  [ 39  49  41]
  [ 39  49  41]
  ...
  [121 125 128]
  [117 121 124]
  [115 119 122]]

 [[ 40  50  42]
  [ 39  49  41]
  [ 39  49  41]
  ...
  [122 126 129]
  [117 121 124]
  [114 118 121]]

 [[ 39  49  41]
  [ 38  48  40]
  [ 38  48  40]
  ...
  [123 127 130]
  [117 121 124]
  [114 118 121]]]"
1726689858.293441,0.94154,-1.36791,1.886408,-2.435975,-1.288736,-0.531386,-0.210892,-0.516586,0.268445,-2.703325,0.049213,3.110504,6.3e-05,-2.5e-05,-3e-06,2.9e-05,4.5e-05,3e-06,51.68621,0.0,0.0,0.0,0.0,moving to grasp yellow block,"[[[ 85  64  59]
  [ 91  71  64]
  [ 99  79  68]
  ...
  [108  97  93]
  [111 101  99]
  [113 103 101]]

 [[ 84  63  58]
  [ 90  70  63]
  [ 98  78  67]
  ...
  [104  93  89]
  [107  97  95]
  [110 100  98]]

 [[ 84  63  58]
  [ 89  69  62]
  [ 95  75  66]
  ...
  [103  92  88]
  [108  97  95]
  [109  98  96]]

 ...

 [[169 142 113]
  [172 145 116]
  [169 143 116]
  ...
  [145 134 112]
  [145 134 112]
  [145 134 112]]

 [[171 138 105]
  [173 143 109]
  [172 143 113]
  ...
  [147 136 114]
  [148 137 115]
  [148 137 115]]

 [[176 142 105]
  [173 140 105]
  [171 138 105]
  ...
  [145 134 112]
  [146 135 113]
  [146 135 113]]]","[[[ 45  49  50]
  [ 43  47  48]
  [ 42  46  47]
  ...
  [163 166 181]
  [162 165 180]
  [162 165 180]]

 [[ 44  48  49]
  [ 43  47  48]
  [ 43  47  48]
  ...
  [163 166 181]
  [163 166 181]
  [163 166 181]]

 [[ 43  47  48]
  [ 43  47  48]
  [ 43  47  48]
  ...
  [160 164 176]
  [161 165 177]
  [163 167 179]]

 ...

 [[ 41  46  40]
  [ 40  45  41]
  [ 40  44  43]
  ...
  [121 125 128]
  [116 121 124]
  [114 119 122]]

 [[ 40  46  42]
  [ 38  44  40]
  [ 40  44  43]
  ...
  [121 125 128]
  [119 124 127]
  [118 123 126]]

 [[ 40  46  42]
  [ 36  42  38]
  [ 40  44  43]
  ...
  [122 126 129]
  [116 121 124]
  [113 118 121]]]"
1726689858.389441,0.941564,-1.367838,1.886396,-2.435939,-1.288736,-0.531267,-0.210888,-0.516602,0.268407,-2.70341,0.049318,3.110415,5.9e-05,-9e-06,3.5e-05,0.000113,-6e-05,9.1e-05,51.68621,0.0,0.0,0.0,0.0,moving to grasp yellow block,"[[[ 90  72  60]
  [ 91  73  61]
  [ 95  77  65]
  ...
  [109 100  95]
  [109 102  96]
  [110 103  97]]

 [[ 87  69  57]
  [ 89  71  59]
  [ 93  75  63]
  ...
  [103  94  89]
  [106  97  92]
  [109 102  96]]

 [[ 86  68  54]
  [ 87  69  55]
  [ 91  73  59]
  ...
  [101  90  86]
  [107  96  92]
  [109 100  95]]

 ...

 [[170 146 108]
  [168 146 109]
  [169 146 112]
  ...
  [145 135 110]
  [145 135 110]
  [145 135 110]]

 [[171 144  99]
  [167 143  99]
  [171 146 106]
  ...
  [145 135 110]
  [144 134 109]
  [144 134 109]]

 [[175 147  99]
  [168 141  94]
  [169 142  99]
  ...
  [145 135 110]
  [144 134 109]
  [145 135 110]]]","[[[ 49  51  50]
  [ 48  50  49]
  [ 48  50  49]
  ...
  [163 168 172]
  [162 167 171]
  [162 167 171]]

 [[ 46  48  47]
  [ 47  49  48]
  [ 48  50  49]
  ...
  [162 167 171]
  [162 167 171]
  [164 169 173]]

 [[ 45  47  46]
  [ 46  48  47]
  [ 48  50  49]
  ...
  [161 166 172]
  [162 167 173]
  [165 170 176]]

 ...

 [[ 43  45  40]
  [ 42  47  41]
  [ 44  46  43]
  ...
  [119 123 126]
  [114 118 121]
  [117 121 124]]

 [[ 40  45  38]
  [ 40  47  39]
  [ 41  46  40]
  ...
  [122 126 129]
  [116 120 123]
  [113 117 120]]

 [[ 39  46  38]
  [ 40  47  39]
  [ 41  48  41]
  ...
  [121 125 128]
  [117 121 124]
  [114 118 121]]]"
1726689864.179314,0.941564,-1.367838,1.886396,-2.435939,-1.288736,-0.531267,-0.210888,-0.516602,0.268407,-2.70341,0.049318,3.110415,0.0,0.0,0.0,0.0,0.0,0.0,51.68621,-0.444762,0.0,2.943,0.0,grasping yellow block,"[[[ 82  72  60]
  [ 85  75  63]
  [ 90  78  64]
  ...
  [111  97  94]
  [113  99  96]
  [116 102  99]]

 [[ 80  70  58]
  [ 84  74  62]
  [ 88  76  62]
  ...
  [107  93  90]
  [109  95  92]
  [112  98  95]]

 [[ 81  69  57]
  [ 85  73  61]
  [ 89  77  63]
  ...
  [102  91  87]
  [106  92  89]
  [108  94  91]]

 ...

 [[173 141 118]
  [172 140 117]
  [168 140 116]
  ...
  [143 135 112]
  [143 135 112]
  [142 134 111]]

 [[173 136 109]
  [173 138 110]
  [175 141 114]
  ...
  [143 135 112]
  [143 135 112]
  [142 134 111]]

 [[178 139 108]
  [174 138 106]
  [175 138 111]
  ...
  [140 132 109]
  [142 134 111]
  [143 135 112]]]","[[[ 37  43  41]
  [ 36  42  40]
  [ 37  42  45]
  ...
  [161 165 174]
  [160 164 173]
  [160 164 173]]

 [[ 39  45  43]
  [ 37  43  41]
  [ 37  43  43]
  ...
  [162 166 175]
  [162 166 175]
  [163 167 176]]

 [[ 37  43  39]
  [ 35  41  39]
  [ 34  40  40]
  ...
  [163 167 176]
  [163 167 176]
  [165 169 178]]

 ...

 [[ 30  42  38]
  [ 33  45  41]
  [ 35  46  42]
  ...
  [122 123 127]
  [120 121 125]
  [120 121 125]]

 [[ 34  46  42]
  [ 33  45  41]
  [ 34  45  41]
  ...
  [121 122 124]
  [118 119 121]
  [117 118 120]]

 [[ 31  43  39]
  [ 28  40  36]
  [ 32  43  39]
  ...
  [122 124 123]
  [119 121 120]
  [118 120 119]]]"
1726689864.285282,0.941564,-1.367838,1.886396,-2.435939,-1.288736,-0.531267,-0.210888,-0.516602,0.268407,-2.70341,0.049318,3.110415,0.0,0.0,0.0,0.0,0.0,0.0,51.241447,-1.338652,0.046645,2.943,0.0,grasping yellow block,"[[[ 88  63  59]
  [ 93  70  64]
  [ 98  75  67]
  ...
  [112 101  99]
  [114 103 101]
  [113 102 100]]

 [[ 88  63  59]
  [ 91  68  62]
  [ 94  74  65]
  ...
  [106  95  93]
  [110  99  97]
  [112 101  99]]

 [[ 88  64  60]
  [ 90  67  61]
  [ 93  73  64]
  ...
  [103  92  88]
  [107  96  92]
  [112 101  97]]

 ...

 [[173 144 112]
  [168 141 111]
  [167 142 112]
  ...
  [144 134 109]
  [144 134 109]
  [144 134 109]]

 [[174 141 100]
  [173 139 101]
  [173 140 105]
  ...
  [145 135 108]
  [145 135 110]
  [145 135 110]]

 [[181 144 100]
  [176 141  99]
  [174 139 101]
  ...
  [145 135 108]
  [145 135 110]
  [146 136 111]]]","[[[ 39  40  42]
  [ 38  39  41]
  [ 39  40  42]
  ...
  [164 168 179]
  [165 169 180]
  [161 165 176]]

 [[ 39  40  42]
  [ 39  40  42]
  [ 40  41  43]
  ...
  [162 166 177]
  [163 167 178]
  [164 168 179]]

 [[ 37  41  42]
  [ 38  42  43]
  [ 39  43  44]
  ...
  [161 165 177]
  [160 164 176]
  [165 169 181]]

 ...

 [[ 31  41  42]
  [ 32  42  43]
  [ 32  42  43]
  ...
  [121 125 126]
  [118 122 123]
  [117 121 122]]

 [[ 33  43  45]
  [ 32  42  43]
  [ 32  42  43]
  ...
  [121 125 126]
  [117 121 122]
  [115 119 120]]

 [[ 33  43  45]
  [ 31  41  43]
  [ 32  42  43]
  ...
  [121 125 126]
  [117 121 122]
  [115 119 120]]]"
1726689864.419742,0.941564,-1.367838,1.886396,-2.435939,-1.288736,-0.531267,-0.210888,-0.516602,0.268407,-2.70341,0.049318,3.110415,0.0,0.0,0.0,0.0,0.0,0.0,49.902795,-1.340182,0.090807,2.943,0.0,grasping yellow block,"[[[ 84  70  61]
  [ 88  74  65]
  [ 91  77  66]
  ...
  [108  97  95]
  [110 100  98]
  [114 104 102]]

 [[ 81  67  58]
  [ 87  73  64]
  [ 92  78  67]
  ...
  [105  94  90]
  [108  99  94]
  [112 103  98]]

 [[ 80  65  58]
  [ 86  72  63]
  [ 93  79  68]
  ...
  [102  91  85]
  [104  95  88]
  [106  97  90]]

 ...

 [[171 144 115]
  [167 142 112]
  [166 142 114]
  ...
  [145 134 114]
  [145 134 114]
  [142 131 111]]

 [[173 140 107]
  [171 141 107]
  [170 144 111]
  ...
  [144 133 113]
  [143 132 112]
  [142 131 111]]

 [[173 139 102]
  [173 140 105]
  [170 141 107]
  ...
  [141 130 110]
  [143 132 112]
  [147 136 116]]]","[[[ 37  44  37]
  [ 37  44  37]
  [ 34  41  34]
  ...
  [161 162 167]
  [165 166 170]
  [167 168 172]]

 [[ 37  44  37]
  [ 39  46  39]
  [ 38  45  38]
  ...
  [161 162 167]
  [164 165 169]
  [166 167 171]]

 [[ 36  43  36]
  [ 39  46  39]
  [ 40  47  40]
  ...
  [161 162 167]
  [163 164 169]
  [164 165 170]]

 ...

 [[ 37  43  33]
  [ 37  43  33]
  [ 37  42  35]
  ...
  [120 124 125]
  [117 121 122]
  [117 121 122]]

 [[ 38  44  32]
  [ 37  43  33]
  [ 36  41  34]
  ...
  [122 126 127]
  [120 124 125]
  [120 124 125]]

 [[ 38  44  32]
  [ 37  43  31]
  [ 36  41  34]
  ...
  [120 124 125]
  [116 120 121]
  [114 118 119]]]"
1726689864.569614,0.941564,-1.367838,1.886396,-2.435939,-1.288736,-0.531267,-0.210888,-0.516602,0.268407,-2.70341,0.049318,3.110415,0.0,0.0,0.0,0.0,0.0,0.0,48.562613,-0.222821,0.058774,2.943,0.0,grasping yellow block,"[[[ 93  68  64]
  [ 96  71  67]
  [ 97  74  68]
  ...
  [107  96  92]
  [109  98  94]
  [113 102  98]]

 [[ 93  68  64]
  [ 95  72  66]
  [ 97  74  68]
  ...
  [103  92  88]
  [106  95  91]
  [111 100  96]]

 [[ 89  66  60]
  [ 93  70  64]
  [ 97  74  68]
  ...
  [103  92  88]
  [106  95  89]
  [110  99  93]]

 ...

 [[172 145 115]
  [170 143 113]
  [166 141 111]
  ...
  [147 136 116]
  [146 135 115]
  [146 135 115]]

 [[173 140 105]
  [172 142 106]
  [172 143 111]
  ...
  [146 135 115]
  [145 134 114]
  [144 133 113]]

 [[175 141 103]
  [173 141 103]
  [172 142 106]
  ...
  [145 134 114]
  [143 132 112]
  [141 130 110]]]","[[[ 42  42  42]
  [ 44  44  44]
  [ 42  42  42]
  ...
  [162 166 175]
  [163 168 174]
  [162 167 173]]

 [[ 43  43  43]
  [ 44  44  44]
  [ 42  42  42]
  ...
  [162 166 175]
  [163 168 174]
  [164 169 175]]

 [[ 40  42  41]
  [ 42  44  43]
  [ 40  42  41]
  ...
  [161 165 174]
  [162 167 173]
  [165 170 176]]

 ...

 [[ 35  44  41]
  [ 35  44  41]
  [ 34  43  40]
  ...
  [117 121 122]
  [118 119 121]
  [118 119 121]]

 [[ 34  45  39]
  [ 34  45  39]
  [ 34  43  40]
  ...
  [123 124 126]
  [120 120 122]
  [116 116 118]]

 [[ 33  44  38]
  [ 33  44  38]
  [ 34  43  40]
  ...
  [122 123 125]
  [121 121 123]
  [118 118 120]]]"
1726689864.703032,0.941564,-1.367838,1.886396,-2.435939,-1.288736,-0.531267,-0.210888,-0.516602,0.268407,-2.70341,0.049318,3.110415,0.0,0.0,0.0,0.0,0.0,0.0,48.339792,-1.12236,0.04326,2.943,0.0,grasping yellow block,"[[[ 91  76  53]
  [ 93  78  55]
  [ 93  78  59]
  ...
  [111 101  91]
  [113 103  91]
  [115 105  93]]

 [[ 87  72  49]
  [ 90  75  54]
  [ 92  77  58]
  ...
  [106  96  86]
  [109  99  87]
  [112 102  90]]

 [[ 84  72  50]
  [ 87  75  53]
  [ 92  77  58]
  ...
  [102  92  82]
  [106  96  84]
  [109  99  87]]

 ...

 [[176 143 112]
  [172 141 112]
  [172 142 116]
  ...
  [145 134 114]
  [146 135 115]
  [145 134 114]]

 [[180 140 105]
  [178 140 104]
  [177 142 110]
  ...
  [144 133 113]
  [145 134 114]
  [144 133 113]]

 [[183 139 102]
  [179 136 101]
  [177 139 103]
  ...
  [143 132 112]
  [144 133 113]
  [143 132 112]]]","[[[ 41  43  42]
  [ 40  42  41]
  [ 37  41  40]
  ...
  [161 165 174]
  [161 165 176]
  [163 167 178]]

 [[ 41  43  42]
  [ 41  43  42]
  [ 37  41  40]
  ...
  [162 166 175]
  [163 167 178]
  [165 169 180]]

 [[ 41  43  42]
  [ 40  42  41]
  [ 37  41  40]
  ...
  [163 167 176]
  [164 168 177]
  [166 170 179]]

 ...

 [[ 33  39  39]
  [ 35  41  41]
  [ 34  40  40]
  ...
  [119 123 122]
  [116 120 119]
  [117 121 120]]

 [[ 33  39  39]
  [ 35  41  41]
  [ 34  40  40]
  ...
  [120 124 123]
  [116 120 119]
  [116 121 117]]

 [[ 34  40  40]
  [ 34  40  40]
  [ 33  39  39]
  ...
  [121 125 124]
  [116 121 117]
  [116 121 117]]]"
1726689864.850652,0.941564,-1.367838,1.886396,-2.435939,-1.288736,-0.531267,-0.210888,-0.516602,0.268407,-2.70341,0.049318,3.110415,0.0,0.0,0.0,0.0,0.0,0.0,47.217431,-1.352057,0.090139,2.943,0.0,grasping yellow block,"[[[ 92  70  56]
  [ 94  75  60]
  [ 95  76  61]
  ...
  [109 101  90]
  [111 103  92]
  [113 105  94]]

 [[ 92  70  56]
  [ 93  74  59]
  [ 94  77  61]
  ...
  [104  96  85]
  [106  98  87]
  [108 100  89]]

 [[ 90  71  57]
  [ 94  75  61]
  [ 95  77  63]
  ...
  [102  93  84]
  [105  96  87]
  [107  98  89]]

 ...

 [[169 142 113]
  [167 142 112]
  [166 142 116]
  ...
  [145 134 112]
  [145 133 111]
  [144 132 110]]

 [[172 139 106]
  [174 141 108]
  [174 143 114]
  ...
  [146 134 112]
  [145 133 111]
  [145 133 111]]

 [[174 138 102]
  [174 140 105]
  [175 140 108]
  ...
  [146 134 112]
  [145 133 111]
  [145 133 111]]]","[[[ 30  41  37]
  [ 33  44  40]
  [ 36  45  42]
  ...
  [162 167 173]
  [161 166 172]
  [163 168 174]]

 [[ 32  43  39]
  [ 33  44  40]
  [ 35  44  41]
  ...
  [163 168 174]
  [162 167 173]
  [162 167 173]]

 [[ 33  43  42]
  [ 32  42  41]
  [ 32  42  41]
  ...
  [163 167 176]
  [163 167 176]
  [163 167 176]]

 ...

 [[ 31  42  38]
  [ 32  43  39]
  [ 34  43  40]
  ...
  [121 125 126]
  [117 121 122]
  [115 119 120]]

 [[ 30  42  38]
  [ 31  43  39]
  [ 33  44  40]
  ...
  [121 125 126]
  [116 120 121]
  [114 118 119]]

 [[ 30  42  38]
  [ 32  44  40]
  [ 34  45  41]
  ...
  [120 124 125]
  [116 120 121]
  [115 119 120]]]"
1726689865.015125,0.941564,-1.367838,1.886396,-2.435939,-1.288736,-0.531267,-0.210888,-0.516602,0.268407,-2.70341,0.049318,3.110415,0.0,0.0,0.0,0.0,0.0,0.0,45.865374,-1.125179,0.094968,2.943,0.0,grasping yellow block,"[[[ 84  71  62]
  [ 86  74  62]
  [ 88  74  63]
  ...
  [110  99  95]
  [111 100  96]
  [110  99  95]]

 [[ 85  72  63]
  [ 88  75  66]
  [ 91  77  66]
  ...
  [105  94  90]
  [109  98  94]
  [112 101  97]]

 [[ 84  70  61]
  [ 89  75  66]
  [ 94  77  67]
  ...
  [102  91  87]
  [106  95  91]
  [110  99  95]]

 ...

 [[171 141 113]
  [169 142 115]
  [168 142 117]
  ...
  [146 135 113]
  [146 135 115]
  [147 136 116]]

 [[173 140 107]
  [171 141 107]
  [171 142 112]
  ...
  [144 133 111]
  [144 133 113]
  [144 133 115]]

 [[176 142 105]
  [173 140 105]
  [169 139 105]
  ...
  [145 134 112]
  [144 133 115]
  [144 133 115]]]","[[[ 31  43  41]
  [ 31  43  41]
  [ 31  43  41]
  ...
  [163 167 178]
  [163 167 178]
  [164 168 179]]

 [[ 32  44  42]
  [ 31  43  41]
  [ 31  43  41]
  ...
  [163 167 178]
  [162 166 177]
  [165 169 180]]

 [[ 32  44  42]
  [ 31  43  41]
  [ 31  41  40]
  ...
  [163 167 178]
  [163 167 178]
  [168 172 183]]

 ...

 [[ 33  42  41]
  [ 33  42  41]
  [ 34  40  40]
  ...
  [118 119 121]
  [120 121 123]
  [118 119 121]]

 [[ 32  40  42]
  [ 33  41  43]
  [ 32  40  42]
  ...
  [120 121 123]
  [122 123 125]
  [120 121 123]]

 [[ 32  40  42]
  [ 33  41  43]
  [ 32  40  42]
  ...
  [119 120 122]
  [121 122 124]
  [118 119 121]]]"
1726689865.164386,0.941564,-1.367838,1.886396,-2.435939,-1.288736,-0.531267,-0.210888,-0.516602,0.268407,-2.70341,0.049318,3.110415,0.0,0.0,0.0,0.0,0.0,0.0,44.740196,-0.681157,0.132812,2.943,0.1,grasping yellow block,"[[[ 89  67  54]
  [ 93  71  58]
  [ 95  76  61]
  ...
  [113  99  96]
  [115 101  98]
  [112  98  95]]

 [[ 89  67  54]
  [ 93  71  58]
  [ 95  76  62]
  ...
  [105  91  88]
  [110  96  93]
  [113  99  96]]

 [[ 90  68  57]
  [ 94  72  59]
  [ 96  77  63]
  ...
  [101  88  82]
  [106  92  89]
  [113  99  96]]

 ...

 [[173 141 116]
  [172 142 116]
  [168 140 116]
  ...
  [145 134 114]
  [144 133 113]
  [144 133 113]]

 [[175 138 109]
  [177 140 111]
  [175 141 113]
  ...
  [145 134 114]
  [145 134 114]
  [144 133 113]]

 [[177 136 106]
  [178 139 108]
  [176 139 110]
  ...
  [145 134 114]
  [145 134 114]
  [145 134 114]]]","[[[ 30  39  38]
  [ 31  40  39]
  [ 32  41  40]
  ...
  [162 167 173]
  [162 167 173]
  [162 167 171]]

 [[ 30  39  38]
  [ 30  39  38]
  [ 30  39  38]
  ...
  [164 169 175]
  [164 169 175]
  [165 170 174]]

 [[ 32  41  40]
  [ 32  41  40]
  [ 33  42  41]
  ...
  [163 168 174]
  [164 169 175]
  [167 172 176]]

 ...

 [[ 22  41  37]
  [ 23  42  38]
  [ 26  42  39]
  ...
  [121 125 124]
  [118 123 119]
  [115 120 116]]

 [[ 26  45  43]
  [ 25  44  42]
  [ 27  43  40]
  ...
  [121 125 124]
  [114 119 115]
  [114 119 115]]

 [[ 25  44  42]
  [ 24  43  41]
  [ 26  42  39]
  ...
  [118 122 121]
  [112 117 113]
  [114 119 115]]]"
1726689865.283716,0.941564,-1.367838,1.886396,-2.435939,-1.288736,-0.531267,-0.210888,-0.516602,0.268407,-2.70341,0.049318,3.110415,0.0,0.0,0.0,0.0,0.0,0.0,44.059039,-1.129946,0.033608,3.043,0.0,grasping yellow block,"[[[ 83  72  70]
  [ 85  74  72]
  [ 90  76  73]
  ...
  [107  97  87]
  [110 100  90]
  [111 101  91]]

 [[ 82  71  69]
  [ 85  74  70]
  [ 90  76  73]
  ...
  [104  94  84]
  [109  99  89]
  [112 102  92]]

 [[ 82  71  67]
  [ 85  74  70]
  [ 91  78  72]
  ...
  [103  93  83]
  [107  97  87]
  [109  99  89]]

 ...

 [[166 142 108]
  [167 142 111]
  [164 140 112]
  ...
  [145 135 108]
  [146 136 109]
  [146 136 109]]

 [[175 145 107]
  [171 143 106]
  [165 139 106]
  ...
  [147 135 109]
  [147 135 109]
  [146 134 108]]

 [[171 139  98]
  [172 143 103]
  [171 141 105]
  ...
  [148 136 110]
  [147 135 109]
  [144 132 106]]]","[[[ 32  40  42]
  [ 33  41  43]
  [ 33  41  43]
  ...
  [161 165 174]
  [164 168 177]
  [162 166 175]]

 [[ 32  40  42]
  [ 32  40  42]
  [ 33  41  43]
  ...
  [162 166 175]
  [164 168 177]
  [160 164 173]]

 [[ 34  42  44]
  [ 34  42  44]
  [ 34  42  44]
  ...
  [160 164 173]
  [163 167 176]
  [162 166 175]]

 ...

 [[ 35  42  35]
  [ 33  43  35]
  [ 33  43  35]
  ...
  [117 125 127]
  [114 122 124]
  [113 123 124]]

 [[ 32  42  33]
  [ 33  43  34]
  [ 32  42  34]
  ...
  [117 125 127]
  [115 123 125]
  [112 122 123]]

 [[ 30  40  31]
  [ 32  42  33]
  [ 30  41  33]
  ...
  [118 126 128]
  [115 123 125]
  [113 123 124]]]"
1726689865.43199,0.941564,-1.367838,1.886396,-2.435939,-1.288736,-0.531267,-0.210888,-0.516602,0.268407,-2.70341,0.049318,3.110415,0.0,0.0,0.0,0.0,0.0,0.0,42.929093,-0.453825,0.128791,3.043,0.1,grasping yellow block,"[[[ 78  69  62]
  [ 86  77  70]
  [ 91  81  72]
  ...
  [114  99  96]
  [117  99  97]
  [116  98  96]]

 [[ 78  69  62]
  [ 85  76  69]
  [ 89  79  70]
  ...
  [109  94  89]
  [114  96  94]
  [117  99  95]]

 [[ 80  70  61]
  [ 85  75  66]
  [ 90  77  69]
  ...
  [104  91  83]
  [108  93  88]
  [113  98  91]]

 ...

 [[169 143 120]
  [170 144 121]
  [170 145 123]
  ...
  [145 138 110]
  [143 136 108]
  [142 135 107]]

 [[172 142 106]
  [171 142 108]
  [171 145 112]
  ...
  [144 137 108]
  [143 136 107]
  [141 134 105]]

 [[174 142 101]
  [169 140  98]
  [168 140 101]
  ...
  [142 135 106]
  [141 134 105]
  [139 132 103]]]","[[[ 34  41  34]
  [ 34  41  34]
  [ 34  40  36]
  ...
  [162 166 175]
  [163 167 176]
  [163 167 176]]

 [[ 33  40  33]
  [ 33  40  33]
  [ 32  38  34]
  ...
  [162 166 175]
  [162 166 175]
  [162 166 175]]

 [[ 33  40  33]
  [ 32  39  32]
  [ 31  37  33]
  ...
  [162 166 175]
  [161 165 174]
  [162 166 175]]

 ...

 [[ 27  43  40]
  [ 26  42  39]
  [ 23  39  36]
  ...
  [118 122 123]
  [117 121 122]
  [116 120 121]]

 [[ 23  42  38]
  [ 23  42  38]
  [ 23  39  36]
  ...
  [118 122 123]
  [116 120 121]
  [114 118 119]]

 [[ 18  37  33]
  [ 20  39  35]
  [ 22  38  35]
  ...
  [119 123 124]
  [118 122 123]
  [115 119 120]]]"
1726689865.579871,0.941564,-1.367838,1.886396,-2.435939,-1.288736,-0.531267,-0.210888,-0.516602,0.268407,-2.70341,0.049318,3.110415,0.0,0.0,0.0,0.0,0.0,0.0,42.475268,-1.138617,0.012221,3.143,0.0,grasping yellow block,"[[[ 83  65  45]
  [ 89  72  52]
  [ 95  78  62]
  ...
  [111 101  92]
  [111 101  92]
  [110 100  91]]

 [[ 83  64  47]
  [ 89  70  53]
  [ 93  76  60]
  ...
  [106  96  87]
  [107  97  88]
  [109  99  90]]

 [[ 88  66  52]
  [ 91  72  57]
  [ 94  77  61]
  ...
  [100  91  82]
  [104  94  84]
  [109  99  89]]

 ...

 [[173 143 115]
  [168 141 112]
  [165 139 112]
  ...
  [145 135 110]
  [145 135 110]
  [146 136 109]]

 [[176 141 109]
  [172 139 106]
  [169 140 108]
  ...
  [144 134 109]
  [142 135 109]
  [143 136 108]]

 [[178 142 106]
  [174 140 103]
  [174 141 108]
  ...
  [142 132 107]
  [142 135 109]
  [143 136 108]]]","[[[ 34  39  43]
  [ 33  38  42]
  [ 34  39  43]
  ...
  [162 165 174]
  [160 162 174]
  [162 164 176]]

 [[ 34  39  42]
  [ 34  39  42]
  [ 34  39  42]
  ...
  [162 165 174]
  [162 164 176]
  [166 168 180]]

 [[ 34  40  40]
  [ 35  41  41]
  [ 34  40  40]
  ...
  [162 165 174]
  [163 165 177]
  [167 169 181]]

 ...

 [[ 31  41  33]
  [ 31  41  33]
  [ 31  40  35]
  ...
  [122 123 125]
  [118 119 121]
  [118 119 121]]

 [[ 31  41  33]
  [ 31  41  33]
  [ 31  40  35]
  ...
  [121 122 124]
  [118 117 122]
  [120 119 124]]

 [[ 30  40  32]
  [ 30  40  32]
  [ 31  40  35]
  ...
  [124 125 127]
  [119 118 123]
  [119 118 123]]]"
1726689865.742683,0.941564,-1.367838,1.886396,-2.435939,-1.288736,-0.531267,-0.210888,-0.516602,0.268407,-2.70341,0.049318,3.110415,0.0,0.0,0.0,0.0,0.0,0.0,41.33665,-1.592231,0.04148,3.143,0.0,grasping yellow block,"[[[ 89  69  62]
  [ 90  70  63]
  [ 95  75  66]
  ...
  [110  99  95]
  [112 101  97]
  [114 103  99]]

 [[ 87  67  60]
  [ 89  69  62]
  [ 95  75  66]
  ...
  [104  93  89]
  [108  97  93]
  [112 101  97]]

 [[ 85  66  59]
  [ 89  70  63]
  [ 97  79  69]
  ...
  [102  91  87]
  [105  94  90]
  [111 100  96]]

 ...

 [[171 142 110]
  [169 142 112]
  [168 142 115]
  ...
  [145 134 114]
  [144 133 113]
  [143 132 112]]

 [[172 138 101]
  [173 141 103]
  [172 142 108]
  ...
  [144 133 113]
  [145 134 114]
  [145 134 114]]

 [[176 141 101]
  [174 140 102]
  [172 140 102]
  ...
  [143 132 112]
  [145 134 114]
  [146 135 115]]]","[[[ 31  43  39]
  [ 30  42  38]
  [ 31  42  38]
  ...
  [163 167 179]
  [164 168 180]
  [168 172 184]]

 [[ 32  44  40]
  [ 31  43  39]
  [ 32  43  39]
  ...
  [163 167 179]
  [164 168 180]
  [167 171 183]]

 [[ 32  44  40]
  [ 33  45  41]
  [ 33  44  40]
  ...
  [164 168 180]
  [164 168 180]
  [168 172 184]]

 ...

 [[ 35  41  39]
  [ 34  40  38]
  [ 33  39  37]
  ...
  [119 123 124]
  [118 124 124]
  [119 125 125]]

 [[ 33  42  41]
  [ 32  41  40]
  [ 31  40  39]
  ...
  [119 123 124]
  [117 123 123]
  [117 123 123]]

 [[ 33  42  41]
  [ 32  41  40]
  [ 31  40  39]
  ...
  [121 125 126]
  [117 123 123]
  [117 123 123]]]"
1726689865.90573,0.941564,-1.367838,1.886396,-2.435939,-1.288736,-0.531267,-0.210888,-0.516602,0.268407,-2.70341,0.049318,3.110415,0.0,0.0,0.0,0.0,0.0,0.0,39.744419,-0.913006,0.083604,3.143,0.0,grasping yellow block,"[[[ 91  71  60]
  [ 96  76  65]
  [ 95  75  66]
  ...
  [109  98  94]
  [112 101  97]
  [114 103  99]]

 [[ 92  72  61]
  [ 96  76  65]
  [ 95  75  66]
  ...
  [106  95  91]
  [108  97  93]
  [111 100  96]]

 [[ 89  71  61]
  [ 94  76  66]
  [ 94  75  68]
  ...
  [102  91  87]
  [105  94  90]
  [108  97  93]]

 ...

 [[174 144 110]
  [170 141 109]
  [169 142 112]
  ...
  [146 134 108]
  [147 135 109]
  [147 135 109]]

 [[177 142 102]
  [177 142 104]
  [176 144 106]
  ...
  [148 136 110]
  [150 136 110]
  [149 135 109]]

 [[179 140  97]
  [179 142 100]
  [174 139  99]
  ...
  [147 135 109]
  [148 134 108]
  [146 132 106]]]","[[[ 34  43  42]
  [ 36  45  44]
  [ 39  48  47]
  ...
  [165 167 182]
  [163 165 180]
  [164 166 181]]

 [[ 33  42  41]
  [ 33  42  41]
  [ 36  45  44]
  ...
  [165 167 182]
  [165 167 182]
  [167 169 184]]

 [[ 33  39  39]
  [ 32  38  38]
  [ 35  41  41]
  ...
  [165 167 180]
  [167 169 184]
  [170 172 187]]

 ...

 [[ 32  44  40]
  [ 29  41  37]
  [ 31  42  38]
  ...
  [122 126 129]
  [118 122 125]
  [119 123 126]]

 [[ 30  45  38]
  [ 25  40  33]
  [ 28  40  36]
  ...
  [122 126 129]
  [116 120 123]
  [118 122 125]]

 [[ 29  44  37]
  [ 24  39  32]
  [ 27  39  35]
  ...
  [123 127 130]
  [118 122 125]
  [121 125 128]]]"
1726689866.039,0.941564,-1.367838,1.886396,-2.435939,-1.288736,-0.531267,-0.210888,-0.516602,0.268407,-2.70341,0.049318,3.110415,0.0,0.0,0.0,0.0,0.0,0.0,38.831413,-0.914208,0.08448,3.143,0.0,grasping yellow block,"[[[ 91  68  62]
  [ 95  72  66]
  [ 94  74  65]
  ...
  [109  98  96]
  [112 101  99]
  [114 103 101]]

 [[ 90  67  61]
  [ 94  71  63]
  [ 94  74  65]
  ...
  [105  94  92]
  [109  98  96]
  [114 103 101]]

 [[ 87  67  58]
  [ 92  72  63]
  [ 95  75  66]
  ...
  [102  93  88]
  [107  96  92]
  [113 102  98]]

 ...

 [[172 141 112]
  [171 141 113]
  [168 142 115]
  ...
  [146 135 115]
  [145 134 114]
  [145 134 114]]

 [[172 136 100]
  [172 138 103]
  [172 142 108]
  ...
  [147 136 116]
  [146 135 117]
  [146 135 117]]

 [[179 141 102]
  [176 141 103]
  [175 141 104]
  ...
  [146 135 115]
  [146 135 117]
  [147 136 118]]]","[[[ 32  41  40]
  [ 31  40  39]
  [ 34  43  42]
  ...
  [166 169 184]
  [164 167 182]
  [163 166 181]]

 [[ 32  41  40]
  [ 30  39  38]
  [ 35  44  43]
  ...
  [164 167 182]
  [164 167 182]
  [166 169 184]]

 [[ 32  41  40]
  [ 29  38  37]
  [ 35  44  43]
  ...
  [163 167 179]
  [164 168 180]
  [168 172 184]]

 ...

 [[ 35  40  44]
  [ 35  40  43]
  [ 35  40  43]
  ...
  [124 128 129]
  [119 123 124]
  [119 123 124]]

 [[ 34  39  45]
  [ 33  38  42]
  [ 33  38  42]
  ...
  [122 126 127]
  [118 122 123]
  [120 124 125]]

 [[ 32  37  43]
  [ 31  36  42]
  [ 31  36  40]
  ...
  [122 126 127]
  [119 123 124]
  [121 125 126]]]"
1726689866.173114,0.941564,-1.367838,1.886396,-2.435939,-1.288736,-0.531267,-0.210888,-0.516602,0.268407,-2.70341,0.049318,3.110415,0.0,0.0,0.0,0.0,0.0,0.0,37.917205,-0.686875,0.083446,3.143,0.0,grasping yellow block,"[[[ 86  68  68]
  [ 93  75  73]
  [ 92  77  74]
  ...
  [108 100  89]
  [109 101  90]
  [110 102  91]]

 [[ 87  69  69]
  [ 92  74  72]
  [ 93  75  71]
  ...
  [104  96  85]
  [106  98  87]
  [109 101  90]]

 [[ 86  66  65]
  [ 90  72  70]
  [ 91  73  69]
  ...
  [100  91  82]
  [103  94  85]
  [107  98  89]]

 ...

 [[175 145 117]
  [171 144 117]
  [171 145 120]
  ...
  [146 134 112]
  [146 134 112]
  [145 133 111]]

 [[176 142 107]
  [176 141 109]
  [177 144 113]
  ...
  [146 134 112]
  [148 136 112]
  [148 136 112]]

 [[182 144 107]
  [176 140 104]
  [176 140 106]
  ...
  [143 131 109]
  [146 134 110]
  [147 135 111]]]","[[[ 36  44  46]
  [ 35  43  45]
  [ 34  42  44]
  ...
  [169 173 185]
  [167 171 182]
  [167 171 182]]

 [[ 31  39  41]
  [ 30  38  40]
  [ 30  38  40]
  ...
  [166 170 182]
  [164 168 180]
  [165 169 180]]

 [[ 34  43  42]
  [ 33  42  41]
  [ 31  40  39]
  ...
  [167 171 183]
  [167 171 183]
  [169 173 185]]

 ...

 [[ 32  40  42]
  [ 32  40  42]
  [ 32  40  42]
  ...
  [122 126 129]
  [117 121 124]
  [113 118 121]]

 [[ 30  38  41]
  [ 31  39  42]
  [ 31  39  42]
  ...
  [121 125 128]
  [117 121 124]
  [113 117 120]]

 [[ 29  37  40]
  [ 30  38  41]
  [ 30  38  41]
  ...
  [123 124 128]
  [119 123 126]
  [117 121 124]]]"
1726689866.314702,0.941564,-1.367838,1.886396,-2.435939,-1.288736,-0.531267,-0.210888,-0.516602,0.268407,-2.70341,0.049318,3.110415,0.0,0.0,0.0,0.0,0.0,0.0,37.23033,-1.374411,0.082405,3.143,0.0,grasping yellow block,"[[[ 95  65  57]
  [ 97  68  60]
  [ 97  70  63]
  ...
  [111 100  98]
  [112 102 100]
  [112 102 100]]

 [[ 95  65  57]
  [ 97  68  60]
  [ 96  71  64]
  ...
  [108  97  95]
  [109  99  97]
  [110 100  98]]

 [[ 93  64  56]
  [ 96  69  60]
  [ 96  73  65]
  ...
  [104  93  91]
  [105  95  93]
  [108  98  96]]

 ...

 [[171 144 114]
  [170 145 115]
  [168 144 116]
  ...
  [144 133 111]
  [145 134 114]
  [146 135 117]]

 [[173 140 105]
  [172 142 106]
  [170 144 111]
  ...
  [143 132 110]
  [144 133 113]
  [145 134 114]]

 [[177 143 105]
  [176 144 106]
  [173 143 107]
  ...
  [145 134 112]
  [146 135 115]
  [147 136 116]]]","[[[ 41  40  45]
  [ 40  39  44]
  [ 38  39  44]
  ...
  [163 166 181]
  [163 166 181]
  [166 169 184]]

 [[ 40  39  44]
  [ 39  40  44]
  [ 40  41  46]
  ...
  [165 168 183]
  [165 168 183]
  [167 170 185]]

 [[ 38  39  43]
  [ 38  39  43]
  [ 38  39  43]
  ...
  [166 169 184]
  [166 169 184]
  [168 171 186]]

 ...

 [[ 34  40  38]
  [ 33  39  37]
  [ 35  41  39]
  ...
  [122 126 125]
  [118 122 121]
  [116 120 119]]

 [[ 35  41  39]
  [ 34  40  38]
  [ 35  41  39]
  ...
  [121 125 124]
  [119 123 122]
  [117 121 120]]

 [[ 34  40  38]
  [ 33  39  37]
  [ 33  39  37]
  ...
  [122 126 125]
  [119 123 122]
  [117 121 120]]]"
1726689866.479337,0.941564,-1.367838,1.886396,-2.435939,-1.288736,-0.531267,-0.210888,-0.516602,0.268407,-2.70341,0.049318,3.110415,0.0,0.0,0.0,0.0,0.0,0.0,35.855919,-0.917407,0.040807,3.143,0.0,grasping yellow block,"[[[ 93  71  60]
  [ 96  74  63]
  [ 94  74  63]
  ...
  [108  98  89]
  [110 100  91]
  [112 102  93]]

 [[ 91  69  58]
  [ 93  73  62]
  [ 94  74  63]
  ...
  [107  97  88]
  [109  99  90]
  [112 102  93]]

 [[ 88  68  57]
  [ 92  72  61]
  [ 94  74  65]
  ...
  [102  92  83]
  [106  96  87]
  [109  99  90]]

 ...

 [[171 144 117]
  [167 141 114]
  [167 143 117]
  ...
  [145 133 111]
  [146 134 112]
  [150 138 116]]

 [[173 140 107]
  [173 143 109]
  [172 146 113]
  ...
  [147 132 111]
  [146 131 110]
  [147 132 111]]

 [[173 139 102]
  [173 141 103]
  [172 142 108]
  ...
  [148 133 112]
  [145 130 109]
  [143 128 107]]]","[[[ 36  41  35]
  [ 36  41  35]
  [ 34  39  33]
  ...
  [167 170 179]
  [168 171 180]
  [168 171 180]]

 [[ 37  42  36]
  [ 36  41  35]
  [ 35  40  34]
  ...
  [168 171 180]
  [172 175 184]
  [171 174 183]]

 [[ 38  43  37]
  [ 36  41  35]
  [ 36  41  35]
  ...
  [166 169 178]
  [173 176 185]
  [173 176 185]]

 ...

 [[ 35  40  43]
  [ 33  38  41]
  [ 33  38  41]
  ...
  [122 126 129]
  [120 124 127]
  [119 123 126]]

 [[ 35  40  44]
  [ 33  38  42]
  [ 33  38  41]
  ...
  [123 127 130]
  [120 124 127]
  [119 123 126]]

 [[ 36  41  45]
  [ 34  39  43]
  [ 33  38  41]
  ...
  [121 125 128]
  [119 123 126]
  [119 123 126]]]"
1726689866.631098,0.941564,-1.367838,1.886396,-2.435939,-1.288736,-0.531267,-0.210888,-0.516602,0.268407,-2.70341,0.049318,3.110415,0.0,0.0,0.0,0.0,0.0,0.0,34.938512,-0.459007,0.065018,3.143,0.0,grasping yellow block,"[[[ 89  69  62]
  [ 93  73  64]
  [ 96  78  66]
  ...
  [111 101  91]
  [113 103  93]
  [112 102  92]]

 [[ 88  68  61]
  [ 92  72  63]
  [ 95  77  65]
  ...
  [104  94  84]
  [107  97  87]
  [110 100  90]]

 [[ 86  66  59]
  [ 90  70  61]
  [ 93  75  63]
  ...
  [102  92  82]
  [106  96  86]
  [111 101  91]]

 ...

 [[169 142 115]
  [170 144 117]
  [168 144 118]
  ...
  [145 134 114]
  [145 134 114]
  [146 135 115]]

 [[173 143 109]
  [174 145 113]
  [171 144 114]
  ...
  [144 133 113]
  [145 134 114]
  [146 135 115]]

 [[178 146 108]
  [175 145 109]
  [170 141 107]
  ...
  [143 132 112]
  [143 132 112]
  [144 133 113]]]","[[[ 35  41  39]
  [ 33  42  39]
  [ 33  42  39]
  ...
  [162 166 178]
  [163 167 179]
  [167 171 183]]

 [[ 36  42  40]
  [ 36  42  40]
  [ 34  43  40]
  ...
  [167 171 183]
  [167 171 183]
  [168 172 184]]

 [[ 36  42  38]
  [ 36  42  38]
  [ 34  43  38]
  ...
  [168 172 184]
  [168 172 184]
  [170 174 186]]

 ...

 [[ 31  40  37]
  [ 30  39  36]
  [ 30  39  36]
  ...
  [123 127 128]
  [121 125 126]
  [119 123 124]]

 [[ 31  40  35]
  [ 30  39  34]
  [ 31  40  35]
  ...
  [121 125 126]
  [120 124 125]
  [119 123 124]]

 [[ 31  40  35]
  [ 31  40  35]
  [ 31  40  35]
  ...
  [123 127 128]
  [120 124 125]
  [117 121 122]]]"
1726689866.779988,0.941564,-1.367838,1.886396,-2.435939,-1.288736,-0.531267,-0.210888,-0.516602,0.268407,-2.70341,0.049318,3.110415,0.0,0.0,0.0,0.0,0.0,0.0,34.479505,-0.917989,0.31199,3.143,0.1,grasping yellow block,"[[[ 87  70  63]
  [ 93  76  69]
  [ 95  81  72]
  ...
  [111 102  93]
  [115 102  94]
  [116 103  95]]

 [[ 87  70  63]
  [ 91  74  67]
  [ 93  79  70]
  ...
  [104  95  86]
  [112  99  91]
  [117 104  96]]

 [[ 87  70  62]
  [ 89  72  64]
  [ 91  77  68]
  ...
  [ 99  90  81]
  [107  94  86]
  [114 101  93]]

 ...

 [[169 143 110]
  [168 144 110]
  [169 146 114]
  ...
  [146 133 114]
  [146 135 115]
  [146 135 115]]

 [[173 141 103]
  [168 138 100]
  [164 138 103]
  ...
  [146 133 114]
  [146 133 114]
  [145 132 113]]

 [[174 141 100]
  [174 142 103]
  [173 143 105]
  ...
  [146 133 114]
  [146 133 114]
  [145 132 113]]]","[[[ 34  41  34]
  [ 33  40  33]
  [ 35  41  37]
  ...
  [163 167 179]
  [166 170 182]
  [169 173 185]]

 [[ 34  41  34]
  [ 33  40  33]
  [ 34  40  36]
  ...
  [163 167 179]
  [167 171 183]
  [169 173 185]]

 [[ 33  40  33]
  [ 33  40  33]
  [ 34  40  36]
  ...
  [164 168 180]
  [169 173 185]
  [170 174 186]]

 ...

 [[ 29  40  36]
  [ 29  40  36]
  [ 30  41  37]
  ...
  [121 125 128]
  [119 123 126]
  [119 123 126]]

 [[ 28  40  36]
  [ 28  40  36]
  [ 30  42  38]
  ...
  [123 127 130]
  [120 124 127]
  [118 122 125]]

 [[ 27  39  35]
  [ 28  40  36]
  [ 29  41  37]
  ...
  [121 125 128]
  [119 123 126]
  [119 123 126]]]"
1726689866.942094,0.941564,-1.367838,1.886396,-2.435939,-1.288736,-0.531267,-0.210888,-0.516602,0.268407,-2.70341,0.049318,3.110415,0.0,0.0,0.0,0.0,0.0,0.0,33.561516,-0.459573,0.087549,3.243,0.0,grasping yellow block,"[[[ 85  67  63]
  [ 89  72  65]
  [ 95  78  71]
  ...
  [113  99  90]
  [112 100  88]
  [113 101  89]]

 [[ 84  66  62]
  [ 88  71  64]
  [ 95  78  70]
  ...
  [108  94  85]
  [111  99  87]
  [114 102  90]]

 [[ 83  66  59]
  [ 88  71  63]
  [ 93  79  70]
  ...
  [103  90  81]
  [107  94  85]
  [112  99  90]]

 ...

 [[168 143 112]
  [169 144 113]
  [167 143 115]
  ...
  [147 135 113]
  [145 133 111]
  [143 131 109]]

 [[170 142 105]
  [170 141 107]
  [168 141 111]
  ...
  [148 133 112]
  [149 134 113]
  [147 132 111]]

 [[172 142 104]
  [171 141 105]
  [170 141 107]
  ...
  [148 133 112]
  [150 135 114]
  [148 133 112]]]","[[[ 30  41  43]
  [ 32  44  44]
  [ 32  44  44]
  ...
  [167 171 183]
  [167 171 182]
  [169 173 184]]

 [[ 30  41  43]
  [ 32  44  44]
  [ 31  43  43]
  ...
  [165 169 181]
  [167 171 182]
  [170 174 185]]

 [[ 31  42  44]
  [ 31  43  43]
  [ 31  43  43]
  ...
  [166 170 182]
  [169 173 185]
  [174 178 190]]

 ...

 [[ 32  37  41]
  [ 34  39  42]
  [ 33  41  43]
  ...
  [121 125 128]
  [118 123 127]
  [122 127 131]]

 [[ 29  36  42]
  [ 32  40  43]
  [ 32  40  43]
  ...
  [122 125 130]
  [118 123 129]
  [117 122 128]]

 [[ 29  36  42]
  [ 32  39  45]
  [ 32  40  43]
  ...
  [122 125 130]
  [119 124 130]
  [119 124 130]]]"
1726689867.089955,0.941564,-1.367838,1.886396,-2.435939,-1.288736,-0.531267,-0.210888,-0.516602,0.268407,-2.70341,0.049318,3.110415,0.0,0.0,0.0,0.0,0.0,0.0,33.101943,-0.459724,0.127935,3.243,0.1,grasping yellow block,"[[[ 87  71  58]
  [ 90  74  61]
  [ 93  77  64]
  ...
  [112 103  98]
  [114 105 100]
  [110 101  96]]

 [[ 85  69  56]
  [ 88  72  59]
  [ 92  76  63]
  ...
  [104  95  90]
  [109 100  95]
  [111 102  97]]

 [[ 80  66  53]
  [ 85  71  58]
  [ 91  75  62]
  ...
  [ 99  90  85]
  [103  94  89]
  [109 100  95]]

 ...

 [[170 141 111]
  [169 142 113]
  [166 140 113]
  ...
  [144 133 113]
  [145 134 114]
  [147 136 116]]

 [[173 139 104]
  [174 141 106]
  [172 143 111]
  ...
  [144 133 113]
  [145 134 114]
  [146 135 115]]

 [[175 140 102]
  [174 140 103]
  [171 141 105]
  ...
  [145 134 114]
  [145 134 114]
  [145 134 114]]]","[[[ 33  41  43]
  [ 33  41  43]
  [ 33  41  43]
  ...
  [164 169 173]
  [166 171 175]
  [167 172 176]]

 [[ 33  41  43]
  [ 33  41  43]
  [ 33  41  43]
  ...
  [166 171 175]
  [168 173 177]
  [169 174 178]]

 [[ 32  40  42]
  [ 33  41  43]
  [ 33  41  43]
  ...
  [166 171 177]
  [170 175 179]
  [173 178 182]]

 ...

 [[ 33  39  39]
  [ 34  40  38]
  [ 33  39  37]
  ...
  [122 126 129]
  [118 123 126]
  [118 123 126]]

 [[ 35  39  38]
  [ 36  40  39]
  [ 34  38  37]
  ...
  [121 126 129]
  [118 123 126]
  [117 122 125]]

 [[ 36  40  39]
  [ 36  40  39]
  [ 33  38  34]
  ...
  [120 125 128]
  [118 123 126]
  [118 123 126]]]"
1726689867.253158,0.941564,-1.367838,1.886396,-2.435939,-1.288736,-0.531267,-0.210888,-0.516602,0.268407,-2.70341,0.049318,3.110415,0.0,0.0,0.0,0.0,0.0,0.0,32.642219,-0.229731,0.092952,3.343,0.0,grasping yellow block,"[[[ 87  69  59]
  [ 92  74  62]
  [ 94  76  64]
  ...
  [110 101  96]
  [114 103  99]
  [117 106 102]]

 [[ 87  69  59]
  [ 92  74  62]
  [ 94  76  64]
  ...
  [104  95  90]
  [110  99  95]
  [116 105 101]]

 [[ 88  70  60]
  [ 93  75  63]
  [ 93  77  64]
  ...
  [ 99  90  85]
  [104  93  89]
  [112 101  97]]

 ...

 [[172 142 108]
  [172 143 111]
  [170 143 113]
  ...
  [144 133 113]
  [146 135 115]
  [143 135 114]]

 [[174 139  99]
  [175 141 103]
  [177 144 109]
  ...
  [146 135 115]
  [147 136 116]
  [144 133 113]]

 [[178 141  97]
  [175 140  98]
  [175 140 102]
  ...
  [147 134 115]
  [146 135 115]
  [142 131 111]]]","[[[ 29  38  45]
  [ 29  38  45]
  [ 31  40  47]
  ...
  [168 172 183]
  [168 172 183]
  [170 174 185]]

 [[ 34  41  49]
  [ 32  41  46]
  [ 32  41  48]
  ...
  [166 170 181]
  [166 170 181]
  [168 172 183]]

 [[ 39  44  50]
  [ 35  43  46]
  [ 34  41  47]
  ...
  [166 170 181]
  [167 171 182]
  [170 174 185]]

 ...

 [[ 34  40  40]
  [ 35  41  41]
  [ 34  40  40]
  ...
  [120 124 125]
  [120 124 127]
  [118 122 125]]

 [[ 35  41  41]
  [ 35  41  41]
  [ 34  40  40]
  ...
  [122 126 127]
  [120 124 125]
  [118 122 123]]

 [[ 33  39  39]
  [ 34  40  40]
  [ 32  38  38]
  ...
  [124 128 129]
  [121 125 126]
  [119 123 124]]]"
1726689867.44561,0.941564,-1.367838,1.886396,-2.435939,-1.288736,-0.531267,-0.210888,-0.516602,0.268407,-2.70341,0.049318,3.110415,0.0,0.0,0.0,0.0,0.0,0.0,32.412489,0.0,0.083979,3.343,0.0,grasping yellow block,"[[[ 87  69  57]
  [ 92  74  62]
  [ 94  78  65]
  ...
  [109 101  90]
  [110 102  91]
  [110 102  91]]

 [[ 85  67  55]
  [ 89  73  60]
  [ 92  76  63]
  ...
  [104  96  85]
  [107  99  88]
  [110 102  91]]

 [[ 82  65  55]
  [ 87  70  60]
  [ 91  74  64]
  ...
  [101  93  82]
  [104  96  85]
  [108 100  89]]

 ...

 [[173 142 111]
  [171 142 112]
  [168 143 113]
  ...
  [145 134 114]
  [146 133 114]
  [147 134 115]]

 [[173 138 100]
  [174 140 103]
  [172 142 108]
  ...
  [146 133 114]
  [146 133 114]
  [147 134 115]]

 [[178 141  99]
  [174 139  99]
  [173 139 102]
  ...
  [145 132 113]
  [145 132 113]
  [146 133 114]]]","[[[ 30  41  43]
  [ 29  40  42]
  [ 33  43  45]
  ...
  [162 165 180]
  [166 170 182]
  [169 173 185]]

 [[ 32  44  44]
  [ 31  43  43]
  [ 34  44  45]
  ...
  [163 166 181]
  [165 169 181]
  [168 172 184]]

 [[ 35  45  44]
  [ 35  45  44]
  [ 36  46  45]
  ...
  [163 166 181]
  [165 169 181]
  [169 173 185]]

 ...

 [[ 34  40  40]
  [ 33  39  39]
  [ 32  38  38]
  ...
  [120 124 127]
  [119 120 124]
  [118 119 123]]

 [[ 34  40  40]
  [ 33  39  39]
  [ 32  38  38]
  ...
  [123 124 128]
  [121 120 125]
  [122 121 126]]

 [[ 33  39  39]
  [ 32  38  38]
  [ 32  38  38]
  ...
  [125 126 130]
  [123 122 127]
  [122 121 126]]]"
1726689872.870507,0.941708,-1.367886,1.886372,-2.436119,-1.288784,-0.531231,-0.210819,-0.516634,0.268464,-2.703228,0.049155,3.110519,-1e-05,2.3e-05,-2.2e-05,-6.9e-05,0.000104,-1.3e-05,32.412489,0.0,0.083979,3.343,0.0,moving back to original position with yellow block,"[[[ 82  66  66]
  [ 87  72  69]
  [ 92  78  75]
  ...
  [110 100  91]
  [111 101  92]
  [114 104  95]]

 [[ 83  67  67]
  [ 87  72  69]
  [ 92  79  73]
  ...
  [105  95  86]
  [107  97  88]
  [111 101  92]]

 [[ 83  68  65]
  [ 87  72  69]
  [ 91  78  72]
  ...
  [101  91  82]
  [103  93  84]
  [109  99  90]]

 ...

 [[167 144 112]
  [165 144 113]
  [166 145 116]
  ...
  [146 135 115]
  [144 133 113]
  [145 134 114]]

 [[170 142 105]
  [169 143 106]
  [170 144 111]
  ...
  [145 134 114]
  [143 132 112]
  [144 133 113]]

 [[175 146 106]
  [173 143 105]
  [169 141 104]
  ...
  [143 132 112]
  [142 131 111]
  [144 133 113]]]","[[[ 31  45  45]
  [ 30  44  44]
  [ 32  44  44]
  ...
  [169 174 177]
  [170 175 178]
  [166 171 174]]

 [[ 31  45  45]
  [ 30  44  44]
  [ 31  43  43]
  ...
  [168 173 177]
  [169 174 178]
  [168 173 177]]

 [[ 33  45  45]
  [ 32  44  44]
  [ 31  43  43]
  ...
  [166 171 177]
  [169 173 182]
  [170 174 183]]

 ...

 [[ 34  40  38]
  [ 35  41  39]
  [ 34  40  38]
  ...
  [121 126 129]
  [117 125 127]
  [117 125 127]]

 [[ 33  39  35]
  [ 35  41  37]
  [ 34  40  36]
  ...
  [118 123 126]
  [113 121 123]
  [114 122 124]]

 [[ 32  38  34]
  [ 35  41  37]
  [ 34  40  36]
  ...
  [121 126 129]
  [118 126 128]
  [119 127 129]]]"
1726689872.966507,0.94166,-1.367886,1.88642,-2.436119,-1.288772,-0.531206,-0.210836,-0.516616,0.268442,-2.703262,0.049202,3.110453,7e-06,5e-06,0.0,-3.4e-05,5.7e-05,5.4e-05,32.412489,0.0,0.083979,3.343,0.0,moving back to original position with yellow block,"[[[ 91  69  58]
  [ 92  72  61]
  [ 95  75  64]
  ...
  [109  98  94]
  [109  98  96]
  [110  99  97]]

 [[ 90  68  57]
  [ 91  71  60]
  [ 93  75  63]
  ...
  [106  95  91]
  [108  97  95]
  [111 100  98]]

 [[ 88  68  57]
  [ 90  70  59]
  [ 93  75  63]
  ...
  [101  92  85]
  [105  94  90]
  [109  98  94]]

 ...

 [[172 142 114]
  [169 142 115]
  [168 142 117]
  ...
  [143 136 108]
  [144 137 109]
  [143 136 108]]

 [[173 139 102]
  [174 140 103]
  [174 141 108]
  ...
  [141 134 106]
  [142 135 106]
  [142 135 106]]

 [[177 140  98]
  [174 139  99]
  [174 139 101]
  ...
  [141 134 106]
  [142 135 106]
  [141 134 105]]]","[[[ 31  39  41]
  [ 32  40  42]
  [ 33  41  43]
  ...
  [165 169 180]
  [171 175 187]
  [169 173 185]]

 [[ 32  40  42]
  [ 33  41  43]
  [ 33  41  43]
  ...
  [167 171 182]
  [170 174 186]
  [169 173 185]]

 [[ 34  42  44]
  [ 33  41  43]
  [ 32  40  42]
  ...
  [169 173 184]
  [168 172 183]
  [167 171 182]]

 ...

 [[ 30  42  40]
  [ 30  42  40]
  [ 30  42  40]
  ...
  [121 125 128]
  [118 121 126]
  [118 121 126]]

 [[ 30  42  40]
  [ 30  42  40]
  [ 31  43  41]
  ...
  [121 125 126]
  [119 123 126]
  [117 121 124]]

 [[ 29  41  39]
  [ 29  41  39]
  [ 30  42  40]
  ...
  [120 124 125]
  [121 125 128]
  [119 123 126]]]"
1726689873.062507,0.941432,-1.37587,1.886432,-2.428081,-1.288593,-0.531542,-0.209899,-0.515126,0.271827,-2.703229,0.049203,3.110546,-2e-05,4.7e-05,4.3e-05,-7e-05,5.6e-05,-4e-05,32.412489,0.0,0.083979,3.343,0.0,moving back to original position with yellow block,"[[[ 85  72  56]
  [ 87  74  58]
  [ 90  76  63]
  ...
  [112  99  91]
  [115 100  93]
  [116 101  94]]

 [[ 83  70  54]
  [ 87  74  58]
  [ 90  76  63]
  ...
  [110  97  89]
  [114  99  92]
  [116 101  94]]

 [[ 79  65  52]
  [ 84  70  57]
  [ 89  75  62]
  ...
  [107  94  86]
  [109  96  88]
  [110  97  89]]

 ...

 [[168 141 112]
  [167 142 112]
  [166 142 114]
  ...
  [148 137 117]
  [145 134 114]
  [146 135 115]]

 [[171 138 105]
  [171 140 109]
  [172 143 113]
  ...
  [147 136 116]
  [145 134 114]
  [145 134 114]]

 [[176 142 107]
  [175 142 107]
  [174 141 110]
  ...
  [146 135 115]
  [144 133 113]
  [144 133 113]]]","[[[ 35  44  39]
  [ 35  44  39]
  [ 33  42  39]
  ...
  [168 167 175]
  [169 168 176]
  [170 169 177]]

 [[ 33  42  37]
  [ 33  42  37]
  [ 32  41  38]
  ...
  [169 168 176]
  [169 168 176]
  [169 168 176]]

 [[ 31  40  37]
  [ 32  41  38]
  [ 32  41  38]
  ...
  [170 170 180]
  [168 168 178]
  [167 167 177]]

 ...

 [[ 38  39  34]
  [ 36  38  33]
  [ 37  39  36]
  ...
  [123 127 128]
  [123 127 128]
  [119 125 125]]

 [[ 37  38  33]
  [ 36  38  33]
  [ 38  40  37]
  ...
  [122 126 127]
  [123 127 128]
  [120 124 125]]

 [[ 36  37  32]
  [ 35  37  32]
  [ 37  39  36]
  ...
  [125 126 128]
  [123 127 128]
  [120 124 125]]]"
1726689873.158507,0.940702,-1.392966,1.886324,-2.410674,-1.288377,-0.532226,-0.207985,-0.511826,0.279061,-2.703301,0.049126,3.110408,1e-06,6e-06,0.000101,-2e-06,0.000133,9.7e-05,32.412489,0.0,0.083979,3.343,0.0,moving back to original position with yellow block,"[[[ 88  67  48]
  [ 92  74  54]
  [ 97  78  63]
  ...
  [106 103  88]
  [108 105  90]
  [109 106  89]]

 [[ 87  66  49]
  [ 90  71  54]
  [ 93  76  60]
  ...
  [100  96  84]
  [104 101  86]
  [108 105  88]]

 [[ 84  65  51]
  [ 88  69  55]
  [ 91  73  59]
  ...
  [ 95  91  79]
  [ 99  95  83]
  [106 103  88]]

 ...

 [[171 144 117]
  [170 144 119]
  [168 144 120]
  ...
  [144 136 113]
  [144 136 113]
  [145 137 114]]

 [[172 139 108]
  [170 139 108]
  [170 141 111]
  ...
  [142 136 112]
  [142 136 112]
  [143 137 113]]

 [[175 141 106]
  [170 137 102]
  [167 136 105]
  ...
  [141 135 111]
  [142 136 112]
  [142 136 112]]]","[[[ 32  41  40]
  [ 32  41  40]
  [ 30  39  38]
  ...
  [164 168 177]
  [164 168 177]
  [167 171 180]]

 [[ 34  43  42]
  [ 34  43  42]
  [ 33  42  41]
  ...
  [166 170 179]
  [165 169 178]
  [167 171 180]]

 [[ 33  42  39]
  [ 35  44  41]
  [ 34  43  40]
  ...
  [168 172 183]
  [167 171 182]
  [166 170 181]]

 ...

 [[ 33  39  39]
  [ 33  39  39]
  [ 33  39  39]
  ...
  [128 137 134]
  [127 136 133]
  [125 134 131]]

 [[ 33  39  39]
  [ 34  40  40]
  [ 34  40  40]
  ...
  [125 134 131]
  [123 132 129]
  [119 128 125]]

 [[ 33  39  39]
  [ 36  42  42]
  [ 35  41  41]
  ...
  [121 130 127]
  [120 129 126]
  [118 127 124]]]"
1726689873.254506,0.939612,-1.419269,1.885115,-2.382602,-1.287826,-0.533294,-0.20496,-0.506715,0.2904,-2.703501,0.04931,3.110304,2e-06,-6e-06,0.000169,0.00019,-5e-05,0.000199,32.412489,0.0,0.083979,3.343,0.0,moving back to original position with yellow block,"[[[ 91  68  60]
  [ 97  74  66]
  [ 96  76  69]
  ...
  [108 100  89]
  [111 103  92]
  [114 106  95]]

 [[ 88  65  57]
  [ 92  72  63]
  [ 96  76  69]
  ...
  [104  96  85]
  [108 100  89]
  [114 106  95]]

 [[ 85  65  58]
  [ 91  71  64]
  [ 96  76  69]
  ...
  [103  93  83]
  [107  97  87]
  [113 103  93]]

 ...

 [[172 142 114]
  [170 143 114]
  [169 143 118]
  ...
  [144 133 113]
  [144 133 113]
  [145 134 114]]

 [[174 141 100]
  [173 141 102]
  [173 143 107]
  ...
  [145 134 114]
  [144 133 113]
  [145 134 114]]

 [[178 144  98]
  [173 140  95]
  [172 140  99]
  ...
  [145 134 114]
  [144 133 113]
  [144 133 113]]]","[[[ 34  40  40]
  [ 34  40  40]
  [ 36  42  42]
  ...
  [157 161 172]
  [162 166 178]
  [158 162 174]]

 [[ 36  42  42]
  [ 34  40  40]
  [ 32  38  38]
  ...
  [160 164 175]
  [162 166 178]
  [160 164 176]]

 [[ 32  41  40]
  [ 30  39  38]
  [ 30  39  38]
  ...
  [163 167 178]
  [163 167 179]
  [163 167 179]]

 ...

 [[ 33  39  37]
  [ 32  38  36]
  [ 31  37  33]
  ...
  [121 122 124]
  [121 122 124]
  [121 122 124]]

 [[ 33  39  37]
  [ 32  38  36]
  [ 31  37  33]
  ...
  [119 123 124]
  [118 122 123]
  [119 123 124]]

 [[ 35  41  39]
  [ 34  40  38]
  [ 33  39  35]
  ...
  [118 122 123]
  [118 122 123]
  [118 122 123]]]"
1726689873.350506,0.938127,-1.454109,1.881642,-2.344052,-1.287107,-0.534853,-0.20087,-0.499828,0.305901,-2.703345,0.0492,3.11026,2.4e-05,3.3e-05,0.000164,2.4e-05,6.1e-05,0.000241,32.412489,0.0,0.083979,3.343,0.0,moving back to original position with yellow block,"[[[ 87  65  54]
  [ 94  72  61]
  [ 96  76  65]
  ...
  [110 100  90]
  [112 102  92]
  [115 105  95]]

 [[ 90  68  57]
  [ 90  70  59]
  [ 94  74  63]
  ...
  [108  98  88]
  [110 100  90]
  [113 103  93]]

 [[ 90  70  61]
  [ 89  69  60]
  [ 93  73  64]
  ...
  [103  93  83]
  [105  95  85]
  [108  98  88]]

 ...

 [[172 148 114]
  [168 144 110]
  [167 144 112]
  ...
  [145 134 114]
  [145 134 114]
  [144 133 113]]

 [[170 142 103]
  [169 141 102]
  [171 145 110]
  ...
  [145 134 114]
  [145 134 114]
  [144 133 113]]

 [[173 144 102]
  [170 141 101]
  [169 141 102]
  ...
  [144 133 113]
  [142 131 111]
  [141 130 110]]]","[[[ 34  43  38]
  [ 31  40  35]
  [ 30  39  36]
  ...
  [156 160 171]
  [156 160 172]
  [159 163 175]]

 [[ 34  43  38]
  [ 31  40  35]
  [ 30  39  36]
  ...
  [160 164 175]
  [159 163 175]
  [162 166 178]]

 [[ 32  41  38]
  [ 31  40  37]
  [ 30  39  36]
  ...
  [161 165 176]
  [159 163 175]
  [162 166 178]]

 ...

 [[ 35  42  35]
  [ 35  42  35]
  [ 34  41  34]
  ...
  [103 107 108]
  [103 107 108]
  [103 107 108]]

 [[ 35  42  34]
  [ 37  44  36]
  [ 37  44  36]
  ...
  [105 109 110]
  [104 108 109]
  [104 108 109]]

 [[ 33  40  32]
  [ 36  43  35]
  [ 37  44  36]
  ...
  [106 110 111]
  [105 109 110]
  [106 110 111]]]"
1726689873.446506,0.936127,-1.496744,1.874553,-2.293596,-1.286258,-0.537156,-0.195696,-0.491061,0.325479,-2.703518,0.049124,3.110327,4.3e-05,1.4e-05,0.000157,0.000183,0.000137,0.00017,32.412489,0.0,0.083979,3.343,0.0,moving back to original position with yellow block,"[[[ 85  71  70]
  [ 88  74  71]
  [ 93  78  73]
  ...
  [112 102  92]
  [112 104  91]
  [110 102  89]]

 [[ 84  70  69]
  [ 87  73  70]
  [ 92  77  72]
  ...
  [108  98  88]
  [110 102  89]
  [111 103  90]]

 [[ 85  70  67]
  [ 88  73  70]
  [ 93  78  73]
  ...
  [102  92  82]
  [105  95  83]
  [108  98  86]]

 ...

 [[172 142 116]
  [172 144 120]
  [170 144 121]
  ...
  [146 136 111]
  [145 135 108]
  [142 132 105]]

 [[169 138 107]
  [172 141 110]
  [173 144 114]
  ...
  [147 137 110]
  [146 136 109]
  [142 132 105]]

 [[173 140 105]
  [171 141 105]
  [170 139 108]
  ...
  [149 139 112]
  [148 138 111]
  [144 134 107]]]","[[[ 33  42  39]
  [ 33  42  39]
  [ 33  42  39]
  ...
  [ 25  28  33]
  [ 18  23  27]
  [ 18  23  26]]

 [[ 32  41  38]
  [ 32  41  38]
  [ 32  41  38]
  ...
  [ 24  27  32]
  [ 19  24  28]
  [ 18  23  26]]

 [[ 31  40  37]
  [ 31  40  37]
  [ 31  40  37]
  ...
  [ 22  25  30]
  [ 18  23  27]
  [ 16  24  26]]

 ...

 [[ 35  37  36]
  [ 34  36  35]
  [ 34  38  37]
  ...
  [112 116 115]
  [105 109 108]
  [103 107 106]]

 [[ 36  36  38]
  [ 34  35  37]
  [ 33  37  36]
  ...
  [112 116 115]
  [106 110 109]
  [103 107 106]]

 [[ 37  37  39]
  [ 34  35  37]
  [ 35  37  36]
  ...
  [113 117 116]
  [107 111 110]
  [104 108 107]]]"
1726689873.542506,0.933924,-1.540987,1.863381,-2.237543,-1.285348,-0.539651,-0.19004,-0.481538,0.346794,-2.70357,0.048956,3.11035,3.8e-05,9e-06,0.000137,0.000221,0.000306,0.000145,32.412489,0.0,0.083979,3.343,0.0,moving back to original position with yellow block,"[[[ 85  70  65]
  [ 92  77  74]
  [ 92  78  77]
  ...
  [110  99  93]
  [110 100  91]
  [110 100  91]]

 [[ 85  70  65]
  [ 91  76  71]
  [ 92  76  76]
  ...
  [107  96  90]
  [110 100  91]
  [112 102  93]]

 [[ 86  69  62]
  [ 92  75  68]
  [ 94  76  72]
  ...
  [102  91  85]
  [105  95  86]
  [108  98  89]]

 ...

 [[172 143 109]
  [168 142 107]
  [167 142 111]
  ...
  [143 135 114]
  [144 136 115]
  [145 137 116]]

 [[171 138  95]
  [173 140  99]
  [173 143 105]
  ...
  [142 134 113]
  [142 134 113]
  [143 135 114]]

 [[176 139  94]
  [175 141  96]
  [174 141 100]
  ...
  [142 134 113]
  [142 134 113]
  [142 134 113]]]","[[[ 37  41  42]
  [ 35  39  40]
  [ 36  40  41]
  ...
  [ 18  24  24]
  [ 20  26  26]
  [ 20  26  26]]

 [[ 37  41  42]
  [ 36  40  41]
  [ 36  40  41]
  ...
  [ 18  24  24]
  [ 20  26  26]
  [ 19  25  25]]

 [[ 36  40  41]
  [ 36  40  41]
  [ 36  40  41]
  ...
  [ 20  26  26]
  [ 21  27  27]
  [ 19  25  25]]

 ...

 [[ 34  40  38]
  [ 36  42  40]
  [ 37  43  41]
  ...
  [112 113 107]
  [108 109 103]
  [110 111 105]]

 [[ 31  37  35]
  [ 34  40  38]
  [ 36  42  40]
  ...
  [113 114 108]
  [110 111 105]
  [114 115 109]]

 [[ 30  36  34]
  [ 33  39  37]
  [ 35  41  39]
  ...
  [109 110 104]
  [106 107 101]
  [111 112 106]]]"
1726689873.638506,0.931564,-1.582608,1.848688,-2.180559,-1.28433,-0.542266,-0.184432,-0.472052,0.368013,-2.703576,0.048855,3.11035,5.7e-05,2e-06,0.000125,0.000213,0.000408,0.000141,32.412489,0.0,0.083979,3.343,0.0,moving back to original position with yellow block,"[[[ 90  70  61]
  [ 94  76  66]
  [ 97  78  72]
  ...
  [111  97  94]
  [112  98  95]
  [113  99  96]]

 [[ 92  72  63]
  [ 96  76  69]
  [ 96  77  71]
  ...
  [107  93  90]
  [110  96  93]
  [113  99  96]]

 [[ 92  72  63]
  [ 95  75  68]
  [ 95  76  70]
  ...
  [104  90  87]
  [106  92  89]
  [110  96  93]]

 ...

 [[171 144 115]
  [168 141 112]
  [167 141 114]
  ...
  [144 134 107]
  [144 134 107]
  [144 134 107]]

 [[174 141 108]
  [173 142 111]
  [173 144 114]
  ...
  [143 133 106]
  [144 134 107]
  [144 134 107]]

 [[173 139 104]
  [174 141 106]
  [175 142 111]
  ...
  [143 133 106]
  [144 134 107]
  [144 134 107]]]","[[[ 33  39  35]
  [ 34  40  36]
  [ 36  42  40]
  ...
  [ 20  26  26]
  [ 21  27  27]
  [ 21  27  27]]

 [[ 35  41  37]
  [ 34  40  36]
  [ 34  40  38]
  ...
  [ 21  27  27]
  [ 22  28  28]
  [ 22  28  28]]

 [[ 37  43  41]
  [ 35  41  39]
  [ 33  39  37]
  ...
  [ 19  25  25]
  [ 20  26  26]
  [ 19  25  25]]

 ...

 [[ 36  40  41]
  [ 36  40  41]
  [ 37  43  43]
  ...
  [111 110 105]
  [111 110 105]
  [113 112 107]]

 [[ 35  39  42]
  [ 36  40  43]
  [ 37  43  43]
  ...
  [111 108 103]
  [111 108 103]
  [113 110 105]]

 [[ 38  42  45]
  [ 38  42  45]
  [ 38  44  44]
  ...
  [112 109 104]
  [112 109 104]
  [112 109 104]]]"
1726689873.734506,0.929468,-1.616758,1.833133,-2.129932,-1.283192,-0.544581,-0.179491,-0.463787,0.386425,-2.703713,0.049152,3.110409,-2e-06,-4e-05,0.00011,0.000337,0.000112,7.9e-05,32.412489,0.0,0.083979,3.343,0.0,moving back to original position with yellow block,"[[[ 91  71  60]
  [ 96  76  65]
  [ 98  80  66]
  ...
  [112  99  90]
  [115 102  93]
  [117 104  95]]

 [[ 89  69  58]
  [ 94  74  63]
  [ 97  79  67]
  ...
  [105  92  83]
  [109  96  87]
  [113 100  91]]

 [[ 90  70  61]
  [ 95  75  64]
  [ 98  78  67]
  ...
  [103  90  82]
  [107  94  86]
  [112  99  91]]

 ...

 [[170 143 116]
  [170 144 117]
  [168 144 118]
  ...
  [146 135 113]
  [143 135 112]
  [143 135 112]]

 [[174 141 110]
  [174 143 114]
  [174 144 116]
  ...
  [144 133 111]
  [141 133 110]
  [141 133 110]]

 [[177 142 110]
  [176 143 110]
  [172 141 112]
  ...
  [144 133 111]
  [140 132 109]
  [140 132 109]]]","[[[ 38  47  46]
  [ 38  47  46]
  [ 36  46  45]
  ...
  [ 16  21  24]
  [ 16  21  24]
  [ 16  21  24]]

 [[ 37  46  45]
  [ 36  45  44]
  [ 36  46  45]
  ...
  [ 16  21  24]
  [ 15  20  23]
  [ 15  20  23]]

 [[ 35  44  43]
  [ 36  45  44]
  [ 35  45  44]
  ...
  [ 18  23  26]
  [ 17  22  25]
  [ 17  22  25]]

 ...

 [[ 43  44  46]
  [ 42  43  45]
  [ 42  46  45]
  ...
  [111 112 106]
  [110 111 105]
  [110 111 105]]

 [[ 41  42  44]
  [ 39  40  42]
  [ 38  42  41]
  ...
  [110 111 105]
  [110 111 105]
  [112 113 107]]

 [[ 40  41  43]
  [ 37  38  40]
  [ 36  40  39]
  ...
  [110 111 105]
  [110 111 105]
  [114 115 109]]]"
1726689873.830506,0.927732,-1.641772,1.819075,-2.090344,-1.282462,-0.546344,-0.175716,-0.457394,0.400778,-2.70373,0.049173,3.110263,2e-05,-3.8e-05,6.6e-05,0.000344,9.1e-05,0.000223,32.412489,0.0,0.083979,3.343,0.0,moving back to original position with yellow block,"[[[ 98  76  65]
  [102  80  69]
  [102  80  69]
  ...
  [110  99  95]
  [110  99  95]
  [113 102  98]]

 [[ 97  75  64]
  [100  78  67]
  [100  78  67]
  ...
  [104  93  89]
  [109  98  94]
  [115 104 100]]

 [[ 95  75  64]
  [ 99  79  68]
  [ 99  79  68]
  ...
  [ 99  88  84]
  [104  93  89]
  [110  99  95]]

 ...

 [[172 141 112]
  [172 142 114]
  [170 144 117]
  ...
  [145 134 112]
  [145 134 112]
  [145 134 112]]

 [[174 138 106]
  [175 140 110]
  [174 143 114]
  ...
  [146 135 113]
  [146 135 113]
  [145 134 112]]

 [[180 141 108]
  [174 138 106]
  [173 138 108]
  ...
  [147 136 114]
  [147 136 114]
  [146 135 113]]]","[[[ 41  50  49]
  [ 40  49  48]
  [ 39  48  47]
  ...
  [ 13  17  18]
  [ 12  16  17]
  [ 12  16  17]]

 [[ 44  50  50]
  [ 41  50  49]
  [ 42  48  48]
  ...
  [ 14  18  19]
  [ 13  17  18]
  [ 12  16  17]]

 [[ 44  48  49]
  [ 42  48  48]
  [ 42  46  47]
  ...
  [ 15  19  20]
  [ 14  18  19]
  [ 14  18  19]]

 ...

 [[ 41  47  45]
  [ 41  47  45]
  [ 41  47  45]
  ...
  [112 113 108]
  [112 112 110]
  [111 111 109]]

 [[ 38  47  44]
  [ 38  47  44]
  [ 38  47  44]
  ...
  [112 113 108]
  [112 112 110]
  [112 112 110]]

 [[ 38  47  44]
  [ 38  47  44]
  [ 38  47  44]
  ...
  [111 112 107]
  [111 111 109]
  [112 112 110]]]"
1726689873.926506,0.926474,-1.658981,1.808011,-2.06199,-1.281827,-0.547784,-0.172985,-0.452809,0.411136,-2.703433,0.049039,3.110354,0.0,-5.5e-05,-7.2e-05,4.1e-05,0.000226,0.000131,32.412489,0.0,0.083979,3.343,0.0,moving back to original position with yellow block,"[[[ 90  77  69]
  [ 91  78  70]
  [ 92  78  69]
  ...
  [111 101  91]
  [115 102  93]
  [115 103  91]]

 [[ 89  76  68]
  [ 91  78  70]
  [ 94  80  71]
  ...
  [106  96  86]
  [111  98  89]
  [113 101  89]]

 [[ 86  76  67]
  [ 89  79  70]
  [ 94  81  72]
  ...
  [104  94  84]
  [110  97  88]
  [113 101  89]]

 ...

 [[171 140 119]
  [170 142 120]
  [168 141 122]
  ...
  [147 136 114]
  [147 136 114]
  [146 135 113]]

 [[175 139 115]
  [175 141 116]
  [174 142 121]
  ...
  [146 135 113]
  [145 134 112]
  [144 133 111]]

 [[178 141 115]
  [176 140 114]
  [175 139 117]
  ...
  [145 134 112]
  [143 132 110]
  [141 130 108]]]","[[[ 42  48  44]
  [ 42  48  44]
  [ 42  48  44]
  ...
  [ 10  16  16]
  [ 11  17  15]
  [ 12  18  16]]

 [[ 41  47  43]
  [ 42  48  44]
  [ 43  49  45]
  ...
  [ 11  17  17]
  [ 11  17  15]
  [ 11  17  15]]

 [[ 42  46  45]
  [ 43  47  46]
  [ 43  49  47]
  ...
  [ 13  19  19]
  [ 12  18  18]
  [ 10  16  16]]

 ...

 [[ 38  47  42]
  [ 40  49  44]
  [ 41  50  45]
  ...
  [114 115 109]
  [114 115 109]
  [112 113 107]]

 [[ 38  47  44]
  [ 39  48  45]
  [ 40  49  46]
  ...
  [113 114 108]
  [114 115 109]
  [113 114 108]]

 [[ 36  45  42]
  [ 36  45  42]
  [ 37  46  43]
  ...
  [112 113 107]
  [114 115 109]
  [114 115 109]]]"
1726689874.022506,0.92584,-1.668886,1.801029,-2.044691,-1.28136,-0.54842,-0.171289,-0.450098,0.417261,-2.703515,0.049332,3.110337,-6.9e-05,-2.5e-05,-6.6e-05,0.000119,-6.7e-05,0.000146,32.412489,0.0,0.083979,3.343,0.0,moving back to original position with yellow block,"[[[ 91  72  57]
  [ 96  77  62]
  [ 97  80  62]
  ...
  [108 100  97]
  [109 101  98]
  [109 101  98]]

 [[ 91  72  58]
  [ 95  76  61]
  [ 96  79  63]
  ...
  [104  96  93]
  [108 100  97]
  [112 104 101]]

 [[ 90  70  59]
  [ 93  73  62]
  [ 95  77  65]
  ...
  [ 98  90  87]
  [102  94  91]
  [108 100  97]]

 ...

 [[172 142 114]
  [170 143 114]
  [167 141 116]
  ...
  [148 136 112]
  [147 135 109]
  [146 134 108]]

 [[174 139 107]
  [175 142 109]
  [172 143 113]
  ...
  [148 136 112]
  [148 134 108]
  [147 133 107]]

 [[178 142 106]
  [176 142 107]
  [172 139 106]
  ...
  [147 135 111]
  [148 134 108]
  [148 134 108]]]","[[[ 47  48  50]
  [ 45  46  48]
  [ 43  47  48]
  ...
  [ 11  15  16]
  [ 11  15  16]
  [ 11  15  16]]

 [[ 49  50  52]
  [ 46  47  49]
  [ 43  47  48]
  ...
  [ 11  15  16]
  [ 11  15  16]
  [ 11  15  16]]

 [[ 45  49  50]
  [ 43  47  48]
  [ 43  47  48]
  ...
  [ 12  16  17]
  [ 12  16  17]
  [ 12  16  17]]

 ...

 [[ 44  46  41]
  [ 41  46  40]
  [ 42  47  41]
  ...
  [112 113 107]
  [111 112 107]
  [111 112 107]]

 [[ 43  48  44]
  [ 40  46  42]
  [ 41  47  43]
  ...
  [110 111 106]
  [110 111 106]
  [110 111 106]]

 [[ 46  52  48]
  [ 43  49  45]
  [ 43  49  45]
  ...
  [111 112 107]
  [110 111 106]
  [111 112 107]]]"
1726689874.118506,0.925636,-1.672171,1.798731,-2.039169,-1.281252,-0.548719,-0.170717,-0.449185,0.419302,-2.703401,0.049242,3.11041,-9.9e-05,-2.5e-05,-6.4e-05,3e-06,2.4e-05,7.3e-05,32.412489,0.0,0.083979,3.343,0.0,moving back to original position with yellow block,"[[[ 86  73  54]
  [ 90  77  58]
  [ 94  81  64]
  ...
  [110 100  91]
  [111 101  92]
  [113 103  94]]

 [[ 84  71  52]
  [ 88  75  56]
  [ 93  80  63]
  ...
  [106  96  87]
  [110 100  91]
  [113 103  94]]

 [[ 83  70  51]
  [ 87  74  55]
  [ 92  79  62]
  ...
  [101  91  82]
  [104  94  85]
  [108  98  89]]

 ...

 [[169 142 112]
  [171 144 115]
  [169 143 116]
  ...
  [145 134 114]
  [144 133 113]
  [145 134 114]]

 [[171 138 103]
  [171 141 105]
  [174 145 113]
  ...
  [144 133 113]
  [144 133 113]
  [144 133 113]]

 [[175 141 103]
  [170 138 100]
  [171 141 105]
  ...
  [143 132 112]
  [143 132 112]
  [143 132 112]]]","[[[ 45  47  44]
  [ 45  47  44]
  [ 44  49  45]
  ...
  [  9  18  17]
  [  7  17  16]
  [  7  17  16]]

 [[ 45  47  44]
  [ 45  47  44]
  [ 43  48  44]
  ...
  [ 11  20  19]
  [  9  19  18]
  [  7  17  16]]

 [[ 45  47  46]
  [ 45  47  46]
  [ 44  48  47]
  ...
  [ 11  20  19]
  [  8  18  17]
  [  5  15  14]]

 ...

 [[ 41  47  47]
  [ 41  47  47]
  [ 41  47  47]
  ...
  [112 113 107]
  [112 113 107]
  [112 113 107]]

 [[ 41  47  47]
  [ 40  46  46]
  [ 40  46  46]
  ...
  [113 114 108]
  [112 113 107]
  [111 112 106]]

 [[ 40  46  46]
  [ 38  44  44]
  [ 38  44  44]
  ...
  [114 115 109]
  [112 113 107]
  [109 110 104]]]"
1726689874.214506,0.9256,-1.671992,1.798851,-2.039349,-1.281097,-0.548791,-0.170756,-0.44923,0.419183,-2.703412,0.049401,3.110492,-6e-05,2e-05,5.5e-05,1.4e-05,-0.000135,-9e-06,32.412489,0.0,0.083979,3.343,0.0,moving back to original position with yellow block,"[[[ 91  67  55]
  [ 95  71  61]
  [100  75  68]
  ...
  [110 100  88]
  [110 100  88]
  [110 101  86]]

 [[ 92  68  56]
  [ 96  72  62]
  [101  76  69]
  ...
  [108  98  88]
  [110 100  88]
  [112 103  88]]

 [[ 89  67  56]
  [ 94  72  61]
  [ 99  76  68]
  ...
  [104  94  84]
  [107  97  85]
  [110 100  88]]

 ...

 [[165 140 109]
  [165 142 110]
  [168 144 116]
  ...
  [144 133 111]
  [145 134 112]
  [147 136 114]]

 [[172 142 108]
  [170 141 107]
  [171 144 114]
  ...
  [145 135 110]
  [146 136 111]
  [145 135 110]]

 [[176 143 108]
  [168 138 102]
  [169 138 107]
  ...
  [146 136 111]
  [146 136 111]
  [144 134 109]]]","[[[ 43  47  50]
  [ 42  46  49]
  [ 40  44  47]
  ...
  [ 11  15  14]
  [ 12  16  15]
  [ 13  17  16]]

 [[ 41  45  48]
  [ 42  46  49]
  [ 42  46  49]
  ...
  [ 10  14  13]
  [ 10  14  13]
  [ 10  14  13]]

 [[ 40  44  47]
  [ 42  46  49]
  [ 44  48  51]
  ...
  [ 11  15  16]
  [ 12  16  15]
  [ 12  16  15]]

 ...

 [[ 39  44  47]
  [ 40  45  48]
  [ 41  46  49]
  ...
  [112 113 107]
  [112 113 107]
  [112 113 107]]

 [[ 40  45  48]
  [ 41  46  49]
  [ 42  47  50]
  ...
  [113 114 108]
  [112 113 107]
  [112 113 107]]

 [[ 42  47  50]
  [ 42  47  50]
  [ 42  47  50]
  ...
  [113 114 108]
  [112 113 107]
  [112 113 107]]]"
1726689874.310506,0.925492,-1.671956,1.798815,-2.039325,-1.281097,-0.548983,-0.170813,-0.449223,0.419181,-2.703422,0.049333,3.110557,-3e-06,1.3e-05,5.7e-05,2.5e-05,-6.7e-05,-7.4e-05,32.412489,0.0,0.083979,3.343,0.0,moving back to original position with yellow block,"[[[ 85  68  52]
  [ 92  75  59]
  [ 96  80  64]
  ...
  [109 100  93]
  [110 100  91]
  [113 103  94]]

 [[ 85  68  52]
  [ 91  74  58]
  [ 94  78  62]
  ...
  [105  96  89]
  [110 100  91]
  [114 104  95]]

 [[ 86  69  53]
  [ 90  73  57]
  [ 93  77  62]
  ...
  [100  91  84]
  [105  95  86]
  [109  99  90]]

 ...

 [[173 141 116]
  [172 142 116]
  [168 142 119]
  ...
  [146 135 113]
  [143 135 112]
  [144 136 113]]

 [[174 137 108]
  [175 140 110]
  [173 142 114]
  ...
  [146 135 113]
  [143 135 112]
  [141 133 110]]

 [[179 138 106]
  [178 139 108]
  [174 139 109]
  ...
  [145 134 112]
  [142 134 111]
  [139 131 108]]]","[[[ 48  47  52]
  [ 46  47  51]
  [ 45  46  50]
  ...
  [ 13  14  16]
  [ 14  14  16]
  [ 14  14  16]]

 [[ 47  46  51]
  [ 45  46  50]
  [ 46  47  51]
  ...
  [ 13  14  16]
  [ 14  14  16]
  [ 14  14  16]]

 [[ 45  45  47]
  [ 44  45  47]
  [ 46  47  51]
  ...
  [ 14  15  17]
  [ 14  15  17]
  [ 14  15  17]]

 ...

 [[ 39  50  46]
  [ 40  51  47]
  [ 42  51  48]
  ...
  [112 113 107]
  [112 113 107]
  [112 113 107]]

 [[ 39  50  46]
  [ 40  51  47]
  [ 41  50  47]
  ...
  [111 112 106]
  [111 112 106]
  [112 113 107]]

 [[ 37  48  44]
  [ 38  49  45]
  [ 39  48  45]
  ...
  [111 112 106]
  [111 112 106]
  [112 113 107]]]"
1726689874.406506,0.925528,-1.671896,1.798815,-2.039349,-1.281049,-0.549067,-0.170806,-0.449248,0.419157,-2.703423,0.049355,3.110685,-1e-05,3.8e-05,8.1e-05,2.5e-05,-8.9e-05,-0.000203,32.412489,0.0,0.083979,3.343,0.0,moving back to original position with yellow block,"[[[ 90  73  55]
  [ 95  78  60]
  [ 98  81  61]
  ...
  [109  98  92]
  [110  99  93]
  [112 101  95]]

 [[ 88  71  55]
  [ 94  77  59]
  [ 98  81  63]
  ...
  [104  93  87]
  [105  94  88]
  [107  96  90]]

 [[ 86  68  54]
  [ 92  74  60]
  [ 98  80  66]
  ...
  [101  91  82]
  [104  94  85]
  [108  98  89]]

 ...

 [[169 145 111]
  [167 144 112]
  [164 143 112]
  ...
  [145 134 114]
  [144 133 113]
  [144 133 113]]

 [[170 141 101]
  [171 141 103]
  [171 143 106]
  ...
  [146 135 115]
  [145 134 114]
  [144 133 113]]

 [[175 142  99]
  [172 140  99]
  [173 141 102]
  ...
  [147 136 116]
  [146 135 115]
  [145 134 114]]]","[[[ 41  50  49]
  [ 41  50  49]
  [ 43  49  49]
  ...
  [ 12  18  18]
  [ 12  16  17]
  [  9  13  14]]

 [[ 43  49  49]
  [ 43  49  49]
  [ 43  49  49]
  ...
  [ 11  17  17]
  [ 11  15  16]
  [ 11  15  16]]

 [[ 46  47  49]
  [ 46  47  49]
  [ 46  47  49]
  ...
  [ 10  16  16]
  [ 10  16  16]
  [ 11  17  17]]

 ...

 [[ 46  46  46]
  [ 46  46  46]
  [ 46  46  46]
  ...
  [112 113 107]
  [113 114 108]
  [113 114 108]]

 [[ 45  45  45]
  [ 46  46  46]
  [ 47  47  47]
  ...
  [113 114 108]
  [112 113 107]
  [113 114 108]]

 [[ 44  44  44]
  [ 47  47  47]
  [ 49  49  49]
  ...
  [113 114 108]
  [112 113 107]
  [114 115 109]]]"
