correlllab/MAGPIE/datasets/csv/yellow ducky FAIL_trajectory.csv
timestamp,q0,q1,q2,q3,q4,q5,x,y,z,rx,ry,rz,dx,dy,dz,drx,dry,drz,aperture,d_aperture,contact_force,applied_force,d_applied_force,task,img,wrist_img
1726692876.991075,0.896798,-1.849584,1.828499,-2.011737,-1.263914,-0.48469,-0.140982,-0.392765,0.477394,-2.596786,0.025723,3.035525,-1.2e-05,1.5e-05,3.6e-05,-1e-05,-1.5e-05,-0.000135,51.019867,0.0,0.0,0.0,0.0,moving to grasp yellow ducky FAIL,"[[[ 13  11   0]
  [ 12  10   0]
  [  9   9   0]
  ...
  [113 106  77]
  [115 108  79]
  [118 111  82]]

 [[ 13  11   0]
  [ 10  10   0]
  [  9   9   0]
  ...
  [107 100  71]
  [110 103  74]
  [115 108  79]]

 [[ 10  10   0]
  [  8  10   0]
  [  7   9   0]
  ...
  [105  98  69]
  [109 102  73]
  [114 107  78]]

 ...

 [[172 151 106]
  [171 153 107]
  [172 158 113]
  ...
  [148 142  94]
  [149 143  95]
  [151 145  97]]

 [[173 152  99]
  [171 151 100]
  [169 151 101]
  ...
  [149 142  96]
  [149 143  95]
  [151 145  97]]

 [[174 153  96]
  [171 152  96]
  [170 150  97]
  ...
  [149 142  96]
  [149 143  95]
  [149 143  95]]]","[[[ 54  65  69]
  [ 54  65  69]
  [ 54  65  67]
  ...
  [134 132 135]
  [135 133 136]
  [136 134 137]]

 [[ 54  65  69]
  [ 53  64  68]
  [ 54  65  67]
  ...
  [133 131 134]
  [134 132 135]
  [134 132 135]]

 [[ 55  66  68]
  [ 54  65  67]
  [ 55  66  68]
  ...
  [133 131 134]
  [134 132 135]
  [135 133 136]]

 ...

 [[ 49  63  63]
  [ 49  63  63]
  [ 51  63  61]
  ...
  [ 68  69  64]
  [ 69  70  65]
  [ 67  68  63]]

 [[ 52  64  64]
  [ 51  63  63]
  [ 51  63  61]
  ...
  [ 65  67  62]
  [ 67  69  64]
  [ 66  68  63]]

 [[ 51  63  63]
  [ 51  63  63]
  [ 50  62  60]
  ...
  [ 61  63  58]
  [ 63  65  60]
  [ 62  64  59]]]"
1726692877.087075,0.896965,-1.849068,1.82899,-2.013021,-1.26407,-0.484462,-0.141067,-0.392959,0.477089,-2.596631,0.025576,3.035441,-4.9e-05,-7.7e-05,-0.000144,-0.000166,0.000133,-5e-05,51.019867,0.0,0.0,0.0,0.0,moving to grasp yellow ducky FAIL,"[[[ 13  11   0]
  [ 12  10   0]
  [  9   9   0]
  ...
  [113 106  77]
  [115 108  79]
  [118 111  82]]

 [[ 13  11   0]
  [ 10  10   0]
  [  9   9   0]
  ...
  [107 100  71]
  [110 103  74]
  [115 108  79]]

 [[ 10  10   0]
  [  8  10   0]
  [  7   9   0]
  ...
  [105  98  69]
  [109 102  73]
  [114 107  78]]

 ...

 [[172 151 106]
  [171 153 107]
  [172 158 113]
  ...
  [148 142  94]
  [149 143  95]
  [151 145  97]]

 [[173 152  99]
  [171 151 100]
  [169 151 101]
  ...
  [149 142  96]
  [149 143  95]
  [151 145  97]]

 [[174 153  96]
  [171 152  96]
  [170 150  97]
  ...
  [149 142  96]
  [149 143  95]
  [149 143  95]]]","[[[ 53  65  63]
  [ 53  65  63]
  [ 53  65  63]
  ...
  [131 131 133]
  [133 133 135]
  [136 136 138]]

 [[ 54  66  64]
  [ 54  66  64]
  [ 54  66  64]
  ...
  [133 133 135]
  [135 135 137]
  [136 136 138]]

 [[ 56  66  67]
  [ 56  66  67]
  [ 56  66  67]
  ...
  [134 134 136]
  [135 135 137]
  [135 135 137]]

 ...

 [[ 55  61  59]
  [ 55  61  59]
  [ 55  61  59]
  ...
  [ 68  70  69]
  [ 69  71  70]
  [ 70  72  71]]

 [[ 56  62  60]
  [ 55  61  59]
  [ 55  61  59]
  ...
  [ 64  64  64]
  [ 64  64  64]
  [ 65  65  65]]

 [[ 56  62  60]
  [ 55  61  59]
  [ 54  60  58]
  ...
  [ 61  61  61]
  [ 62  60  61]
  [ 62  60  61]]]"
1726692877.183075,0.89863,-1.842831,1.834414,-2.025482,-1.264705,-0.482986,-0.142084,-0.395232,0.473319,-2.59628,0.025445,3.035653,-7e-06,-9.6e-05,-0.000251,-0.000516,0.000263,-0.00026,51.019867,0.0,0.0,0.0,0.0,moving to grasp yellow ducky FAIL,"[[[  8  11   0]
  [  7  10   0]
  [  7  10   3]
  ...
  [114 107  78]
  [114 107  78]
  [117 110  81]]

 [[  8  11   2]
  [  7  10   1]
  [  7  10   3]
  ...
  [108 101  72]
  [111 104  75]
  [114 107  78]]

 [[  9  10   4]
  [  8   9   3]
  [  6   9   2]
  ...
  [106 101  72]
  [109 104  75]
  [111 106  77]]

 ...

 [[168 154 109]
  [168 153 110]
  [169 156 114]
  ...
  [152 144  97]
  [151 145  97]
  [149 143  95]]

 [[176 158 112]
  [171 153 107]
  [167 150 106]
  ...
  [151 143  96]
  [150 143  97]
  [148 141  95]]

 [[172 151 104]
  [169 151 103]
  [171 153 107]
  ...
  [150 142  95]
  [149 142  96]
  [148 141  95]]]","[[[ 56  66  67]
  [ 56  66  67]
  [ 55  66  68]
  ...
  [138 133 137]
  [137 132 136]
  [136 131 135]]

 [[ 54  64  65]
  [ 54  64  65]
  [ 54  65  67]
  ...
  [137 132 136]
  [136 131 135]
  [134 129 133]]

 [[ 52  64  64]
  [ 52  64  64]
  [ 53  65  65]
  ...
  [137 132 136]
  [136 131 135]
  [135 130 134]]

 ...

 [[ 52  61  60]
  [ 51  60  59]
  [ 52  61  60]
  ...
  [ 67  70  63]
  [ 70  73  66]
  [ 69  72  65]]

 [[ 52  61  60]
  [ 51  60  59]
  [ 52  61  60]
  ...
  [ 62  65  58]
  [ 65  68  61]
  [ 64  67  60]]

 [[ 51  60  59]
  [ 50  59  58]
  [ 52  61  60]
  ...
  [ 61  64  57]
  [ 62  65  58]
  [ 61  64  57]]]"
1726692877.279075,0.902223,-1.82977,1.845323,-2.050082,-1.266309,-0.479435,-0.144054,-0.399864,0.465418,-2.596568,0.025765,3.035649,1.3e-05,-4.7e-05,-0.000104,-0.000228,-5.7e-05,-0.000251,51.019867,0.0,0.0,0.0,0.0,moving to grasp yellow ducky FAIL,"[[[  6  11   4]
  [  6  11   4]
  [  6  11   5]
  ...
  [112 107  78]
  [113 108  79]
  [116 111  82]]

 [[  8  11   4]
  [  6  11   4]
  [  8  10   5]
  ...
  [109 104  75]
  [111 106  77]
  [116 111  82]]

 [[  9  10   4]
  [  8  11   4]
  [ 10  11   6]
  ...
  [104  98  72]
  [107 102  73]
  [112 107  78]]

 ...

 [[172 154 116]
  [168 153 114]
  [170 154 118]
  ...
  [150 144  96]
  [150 144  96]
  [150 144  94]]

 [[177 154 112]
  [172 151 108]
  [167 148 106]
  ...
  [150 144  94]
  [150 144  94]
  [150 144  92]]

 [[171 147 103]
  [173 150 106]
  [173 150 108]
  ...
  [150 144  94]
  [150 144  92]
  [150 144  92]]]","[[[ 54  65  71]
  [ 52  63  69]
  [ 51  65  68]
  ...
  [133 131 136]
  [133 131 136]
  [133 131 136]]

 [[ 53  64  70]
  [ 53  64  70]
  [ 51  65  68]
  ...
  [135 133 138]
  [135 133 138]
  [135 133 138]]

 [[ 53  64  68]
  [ 53  64  68]
  [ 53  64  68]
  ...
  [134 132 137]
  [134 132 137]
  [134 132 137]]

 ...

 [[ 53  61  63]
  [ 52  60  62]
  [ 54  63  62]
  ...
  [ 67  70  59]
  [ 69  72  61]
  [ 72  75  64]]

 [[ 53  61  63]
  [ 52  60  62]
  [ 54  62  64]
  ...
  [ 63  67  53]
  [ 64  68  54]
  [ 66  70  56]]

 [[ 52  60  62]
  [ 51  59  61]
  [ 53  61  63]
  ...
  [ 61  65  51]
  [ 61  65  51]
  [ 62  66  52]]]"
1726692877.375075,0.90754,-1.809729,1.860579,-2.087019,-1.269063,-0.474134,-0.146899,-0.406691,0.453823,-2.596556,0.025604,3.035445,-6.8e-05,-9.4e-05,-0.00014,-0.000239,0.000105,-4e-05,51.019867,0.0,0.0,0.0,0.0,moving to grasp yellow ducky FAIL,"[[[  7  10   0]
  [  8  11   0]
  [ 10  11   3]
  ...
  [117 106  86]
  [117 106  86]
  [119 108  88]]

 [[  9  12   1]
  [ 10  13   2]
  [ 11  12   4]
  ...
  [112 101  81]
  [115 104  84]
  [119 108  88]]

 [[  6   9   0]
  [  7  10   0]
  [  9  10   2]
  ...
  [105  97  76]
  [110  99  79]
  [115 104  84]]

 ...

 [[175 152 108]
  [175 154 111]
  [175 156 114]
  ...
  [151 142 101]
  [151 142 101]
  [150 141 100]]

 [[181 153 103]
  [178 152 103]
  [173 151 102]
  ...
  [151 142 101]
  [151 142 101]
  [150 141 100]]

 [[177 147  93]
  [176 149  96]
  [177 151 100]
  ...
  [151 142 101]
  [150 141 100]
  [150 141 100]]]","[[[ 54  63  62]
  [ 52  61  60]
  [ 54  63  62]
  ...
  [135 129 131]
  [136 130 132]
  [137 131 133]]

 [[ 57  66  65]
  [ 56  65  64]
  [ 56  65  64]
  ...
  [136 130 132]
  [137 131 133]
  [138 132 134]]

 [[ 58  66  68]
  [ 57  65  67]
  [ 57  66  65]
  ...
  [134 130 131]
  [134 130 131]
  [135 131 132]]

 ...

 [[ 55  61  61]
  [ 56  62  62]
  [ 54  63  62]
  ...
  [ 62  65  56]
  [ 65  68  57]
  [ 69  72  61]]

 [[ 56  62  62]
  [ 56  62  62]
  [ 54  63  62]
  ...
  [ 62  65  56]
  [ 63  66  57]
  [ 64  67  58]]

 [[ 57  63  63]
  [ 56  62  62]
  [ 53  62  61]
  ...
  [ 62  65  56]
  [ 60  63  54]
  [ 58  61  52]]]"
1726692877.471075,0.914031,-1.781245,1.879031,-2.135658,-1.272356,-0.467573,-0.150823,-0.415804,0.438305,-2.596733,0.025684,3.035162,-4.4e-05,-0.000147,-0.00013,-6.1e-05,2.6e-05,0.000252,51.019867,0.0,0.0,0.0,0.0,moving to grasp yellow ducky FAIL,"[[[  6  12   2]
  [  6  12   2]
  [  6  11   5]
  ...
  [117 109  88]
  [119 108  88]
  [118 107  87]]

 [[  6  12   2]
  [  6  11   4]
  [  6  11   4]
  ...
  [112 104  83]
  [117 106  86]
  [119 108  88]]

 [[  5  10   3]
  [  5  10   3]
  [  5  10   3]
  ...
  [104  98  76]
  [109 101  80]
  [114 106  85]]

 ...

 [[169 151 101]
  [170 152 104]
  [173 156 112]
  ...
  [151 142 103]
  [149 140  99]
  [148 139  98]]

 [[178 155 101]
  [175 154 101]
  [172 152 102]
  ...
  [150 141 102]
  [150 141 100]
  [149 140  97]]

 [[174 149  93]
  [174 151  97]
  [176 153 103]
  ...
  [150 141 100]
  [150 141 100]
  [149 140  97]]]","[[[ 53  65  65]
  [ 55  67  67]
  [ 56  67  69]
  ...
  [134 132 137]
  [132 130 135]
  [132 130 135]]

 [[ 53  65  65]
  [ 54  66  66]
  [ 55  66  68]
  ...
  [135 133 138]
  [132 130 135]
  [132 130 135]]

 [[ 53  65  65]
  [ 53  65  65]
  [ 54  66  66]
  ...
  [136 134 139]
  [133 131 136]
  [132 130 135]]

 ...

 [[ 52  65  58]
  [ 52  65  58]
  [ 52  65  58]
  ...
  [ 52  53  48]
  [ 52  53  48]
  [ 53  54  49]]

 [[ 48  65  59]
  [ 48  65  59]
  [ 49  66  60]
  ...
  [ 54  53  51]
  [ 54  53  51]
  [ 55  54  52]]

 [[ 45  64  58]
  [ 46  65  59]
  [ 46  65  61]
  ...
  [ 59  58  56]
  [ 59  58  56]
  [ 58  57  55]]]"
1726692877.567075,0.921756,-1.743167,1.898802,-2.195659,-1.27608,-0.460244,-0.155697,-0.427229,0.419072,-2.596693,0.025637,3.035333,-4e-06,-8.3e-05,-0.000119,-0.0001,7.5e-05,9.3e-05,51.019867,0.0,0.0,0.0,0.0,moving to grasp yellow ducky FAIL,"[[[  7   9   6]
  [  8  10   7]
  [  8  10   5]
  ...
  [114 108  86]
  [115 107  86]
  [114 106  85]]

 [[  8  10   7]
  [  9  11   6]
  [  8  10   5]
  ...
  [109 103  81]
  [115 107  86]
  [119 111  90]]

 [[  8  10   5]
  [  9  11   6]
  [  9  11   6]
  ...
  [105  99  77]
  [113 105  84]
  [120 112  91]]

 ...

 [[181 153 114]
  [177 152 112]
  [177 153 115]
  ...
  [153 141 101]
  [153 141 101]
  [153 141 101]]

 [[184 151 108]
  [180 148 107]
  [174 146 106]
  ...
  [151 139  99]
  [151 139  99]
  [152 140 100]]

 [[181 147 102]
  [181 148 105]
  [178 149 107]
  ...
  [151 139  99]
  [150 138  98]
  [151 139  99]]]","[[[ 57  67  56]
  [ 57  67  58]
  [ 57  67  59]
  ...
  [135 135 137]
  [134 133 138]
  [135 134 139]]

 [[ 57  67  58]
  [ 57  67  59]
  [ 57  66  61]
  ...
  [135 135 137]
  [135 134 139]
  [135 134 139]]

 [[ 58  67  62]
  [ 58  67  64]
  [ 56  66  65]
  ...
  [136 136 138]
  [135 135 137]
  [135 135 137]]

 ...

 [[ 51  63  63]
  [ 51  63  63]
  [ 51  63  63]
  ...
  [ 54  55  49]
  [ 57  58  52]
  [ 58  59  53]]

 [[ 49  63  64]
  [ 49  63  64]
  [ 51  62  64]
  ...
  [ 56  57  49]
  [ 57  58  50]
  [ 56  57  49]]

 [[ 49  63  64]
  [ 49  63  64]
  [ 50  61  63]
  ...
  [ 58  59  51]
  [ 57  58  50]
  [ 55  56  48]]]"
1726692877.663075,0.929397,-1.700509,1.916297,-2.257848,-1.279888,-0.452998,-0.160766,-0.439172,0.398797,-2.59674,0.02557,3.035454,-1.4e-05,-7.5e-05,-3.7e-05,-5.2e-05,0.000144,-1.6e-05,51.019867,0.0,0.0,0.0,0.0,moving to grasp yellow ducky FAIL,"[[[  9   9   1]
  [  8   8   0]
  [ 10  10   2]
  ...
  [114 107  89]
  [116 109  93]
  [117 110  94]]

 [[  9   9   1]
  [  8   8   0]
  [ 10  10   2]
  ...
  [108 101  83]
  [113 106  90]
  [116 109  93]]

 [[  8   8   0]
  [  7   7   0]
  [  9   9   1]
  ...
  [105  98  80]
  [110 103  85]
  [114 107  89]]

 ...

 [[167 153 108]
  [167 154 110]
  [169 156 114]
  ...
  [151 142 101]
  [152 143 100]
  [151 142  99]]

 [[169 153 104]
  [168 154 107]
  [169 155 110]
  ...
  [151 142  99]
  [151 142  99]
  [150 141  98]]

 [[170 154 103]
  [170 154 103]
  [168 154 107]
  ...
  [150 141  98]
  [150 141  98]
  [149 140  97]]]","[[[ 50  67  61]
  [ 51  68  62]
  [ 52  67  64]
  ...
  [140 135 132]
  [140 135 131]
  [141 136 132]]

 [[ 51  68  62]
  [ 52  69  63]
  [ 53  68  65]
  ...
  [140 135 132]
  [140 135 132]
  [141 136 132]]

 [[ 52  67  62]
  [ 53  68  63]
  [ 53  68  65]
  ...
  [138 134 131]
  [138 134 131]
  [140 136 133]]

 ...

 [[ 57  64  57]
  [ 57  64  57]
  [ 56  62  58]
  ...
  [ 59  60  54]
  [ 59  60  52]
  [ 59  60  52]]

 [[ 55  62  54]
  [ 55  62  55]
  [ 55  61  57]
  ...
  [ 57  58  50]
  [ 56  57  49]
  [ 57  58  50]]

 [[ 51  58  50]
  [ 52  59  51]
  [ 54  60  56]
  ...
  [ 55  56  48]
  [ 54  55  47]
  [ 56  57  49]]]"
1726692877.759075,0.936534,-1.655539,1.929853,-2.318783,-1.283456,-0.446018,-0.165799,-0.451045,0.378811,-2.596313,0.025385,3.035398,-6e-05,-0.000137,-0.000244,-0.000479,0.00033,5.3e-05,51.019867,0.0,0.0,0.0,0.0,moving to grasp yellow ducky FAIL,"[[[  9  10   2]
  [  8   9   1]
  [  8   9   3]
  ...
  [117 109  90]
  [119 110  93]
  [117 108  91]]

 [[  9  10   2]
  [  7   8   0]
  [  7   8   2]
  ...
  [113 105  86]
  [116 107  90]
  [117 108  91]]

 [[  9  10   2]
  [  8   9   1]
  [  7   8   2]
  ...
  [108 100  81]
  [111 103  84]
  [116 108  89]]

 ...

 [[177 152 112]
  [177 154 113]
  [179 157 120]
  ...
  [152 143 104]
  [151 142 103]
  [151 142 103]]

 [[177 150 107]
  [173 149 105]
  [172 149 108]
  ...
  [150 140 104]
  [150 141 102]
  [152 143 104]]

 [[176 147 103]
  [175 148 103]
  [175 150 109]
  ...
  [149 139 103]
  [150 141 102]
  [153 144 105]]]","[[[ 59  64  57]
  [ 59  64  57]
  [ 58  65  58]
  ...
  [132 132 132]
  [132 132 132]
  [132 132 132]]

 [[ 58  63  56]
  [ 58  63  56]
  [ 57  64  57]
  ...
  [132 132 132]
  [133 133 133]
  [133 133 133]]

 [[ 56  63  56]
  [ 56  63  56]
  [ 56  62  58]
  ...
  [132 132 132]
  [132 132 132]
  [132 132 132]]

 ...

 [[ 54  59  62]
  [ 55  60  63]
  [ 53  58  61]
  ...
  [ 55  56  50]
  [ 56  57  51]
  [ 57  58  52]]

 [[ 54  59  63]
  [ 55  60  64]
  [ 55  60  64]
  ...
  [ 49  52  45]
  [ 50  51  45]
  [ 53  54  48]]

 [[ 53  58  62]
  [ 55  60  64]
  [ 55  60  64]
  ...
  [ 50  53  46]
  [ 51  52  46]
  [ 54  55  49]]]"
1726692877.855075,0.9433,-1.607765,1.939841,-2.378282,-1.286868,-0.439481,-0.170861,-0.462996,0.358588,-2.596348,0.025449,3.035386,-7.6e-05,-0.00012,-0.000213,-0.000442,0.000267,7.7e-05,51.019867,0.0,0.0,0.0,0.0,moving to grasp yellow ducky FAIL,"[[[ 10  11   6]
  [ 10  11   6]
  [  7   9   6]
  ...
  [117 109  86]
  [117 110  84]
  [117 110  84]]

 [[  8   9   4]
  [  8   9   4]
  [  6   8   5]
  ...
  [110 102  79]
  [112 105  79]
  [118 111  85]]

 [[  6   7   2]
  [  6   7   2]
  [  6   8   3]
  ...
  [107  99  76]
  [110 102  79]
  [116 108  85]]

 ...

 [[175 150 110]
  [176 152 114]
  [178 158 121]
  ...
  [152 142 106]
  [151 141 105]
  [150 140 104]]

 [[176 144 103]
  [174 145 105]
  [173 148 108]
  ...
  [153 140 105]
  [153 140 105]
  [152 139 104]]

 [[180 147 104]
  [178 146 105]
  [177 148 108]
  ...
  [153 140 105]
  [153 140 105]
  [153 140 105]]]","[[[ 54  62  64]
  [ 56  64  66]
  [ 56  64  67]
  ...
  [130 130 130]
  [130 130 130]
  [131 131 131]]

 [[ 55  63  65]
  [ 56  64  66]
  [ 56  64  67]
  ...
  [131 131 131]
  [131 131 131]
  [132 132 132]]

 [[ 54  62  65]
  [ 55  63  66]
  [ 56  64  67]
  ...
  [131 131 131]
  [131 131 131]
  [133 133 133]]

 ...

 [[ 52  61  58]
  [ 52  61  58]
  [ 51  60  57]
  ...
  [ 56  58  53]
  [ 55  60  56]
  [ 58  63  59]]

 [[ 52  61  58]
  [ 52  61  58]
  [ 50  59  56]
  ...
  [ 53  55  50]
  [ 54  56  51]
  [ 57  59  54]]

 [[ 50  59  56]
  [ 51  60  57]
  [ 50  59  56]
  ...
  [ 51  53  48]
  [ 51  53  48]
  [ 54  56  51]]]"
1726692877.951075,0.949552,-1.557942,1.946092,-2.436047,-1.290101,-0.433531,-0.175956,-0.474888,0.338425,-2.596303,0.025387,3.035422,-6e-05,-0.000163,-0.000244,-0.000486,0.000329,5.3e-05,51.019867,0.0,0.0,0.0,0.0,moving to grasp yellow ducky FAIL,"[[[  9  11   0]
  [  8  10   0]
  [  8   9   1]
  ...
  [115 108  90]
  [117 110  92]
  [116 109  91]]

 [[  8  10   0]
  [  8  10   0]
  [  8   9   1]
  ...
  [110 103  85]
  [114 107  89]
  [117 110  92]]

 [[  8   9   1]
  [  8   9   1]
  [  6   9   2]
  ...
  [104  97  79]
  [108 101  83]
  [113 106  88]]

 ...

 [[172 150 113]
  [172 152 115]
  [172 156 120]
  ...
  [150 140 104]
  [151 141 105]
  [152 142 106]]

 [[174 152 105]
  [172 151 104]
  [168 151 105]
  ...
  [149 139 103]
  [150 140 104]
  [151 141 105]]

 [[172 149  97]
  [173 151 101]
  [171 153 103]
  ...
  [148 138 102]
  [149 139 103]
  [150 140 104]]]","[[[ 56  62  60]
  [ 54  60  58]
  [ 54  62  64]
  ...
  [131 131 131]
  [130 130 130]
  [131 131 131]]

 [[ 56  62  60]
  [ 55  61  59]
  [ 54  62  64]
  ...
  [130 130 130]
  [131 131 131]
  [133 133 133]]

 [[ 57  63  61]
  [ 56  62  60]
  [ 55  63  65]
  ...
  [129 129 129]
  [131 131 131]
  [132 132 132]]

 ...

 [[ 50  59  58]
  [ 51  60  59]
  [ 52  61  60]
  ...
  [ 50  52  47]
  [ 47  49  44]
  [ 47  49  44]]

 [[ 51  60  59]
  [ 52  61  60]
  [ 55  61  61]
  ...
  [ 49  50  44]
  [ 48  49  44]
  [ 46  47  42]]

 [[ 48  57  56]
  [ 50  59  58]
  [ 54  60  60]
  ...
  [ 49  50  44]
  [ 49  50  45]
  [ 47  48  43]]]"
1726692878.047075,0.955624,-1.506012,1.948403,-2.491873,-1.293179,-0.42781,-0.181011,-0.486872,0.31826,-2.59625,0.025394,3.035521,-8.4e-05,-0.000114,-0.000272,-0.000538,0.000324,-3.5e-05,51.019867,0.0,0.0,0.0,0.0,moving to grasp yellow ducky FAIL,"[[[  5   6   0]
  [  6   7   0]
  [  9  10   4]
  ...
  [115 106  89]
  [119 107  91]
  [123 111  95]]

 [[  7   8   0]
  [  7   8   0]
  [  9  10   4]
  ...
  [110 101  84]
  [117 105  89]
  [121 109  93]]

 [[  8  11   2]
  [  7  10   1]
  [ 10  11   5]
  ...
  [106  97  80]
  [113 101  85]
  [116 104  88]]

 ...

 [[170 151 111]
  [171 152 112]
  [175 157 119]
  ...
  [150 140 104]
  [150 140 104]
  [150 140 104]]

 [[174 151 107]
  [173 150 106]
  [171 149 108]
  ...
  [150 140 104]
  [150 140 104]
  [151 141 105]]

 [[174 150 102]
  [173 151 104]
  [174 151 109]
  ...
  [149 139 103]
  [150 140 104]
  [151 141 105]]]","[[[ 55  64  69]
  [ 54  63  68]
  [ 54  61  67]
  ...
  [128 126 127]
  [129 127 128]
  [130 128 129]]

 [[ 53  62  67]
  [ 54  63  68]
  [ 54  61  67]
  ...
  [128 126 127]
  [129 127 128]
  [130 128 129]]

 [[ 54  62  65]
  [ 56  64  67]
  [ 56  64  67]
  ...
  [130 128 129]
  [129 127 128]
  [130 128 129]]

 ...

 [[ 56  61  67]
  [ 55  60  64]
  [ 54  59  63]
  ...
  [ 57  59  54]
  [ 58  60  57]
  [ 59  61  58]]

 [[ 54  58  67]
  [ 53  58  64]
  [ 53  58  64]
  ...
  [ 55  57  52]
  [ 56  58  53]
  [ 55  57  52]]

 [[ 53  57  66]
  [ 52  56  65]
  [ 52  57  63]
  ...
  [ 53  55  50]
  [ 52  54  49]
  [ 50  52  47]]]"
1726692878.143075,0.961121,-1.453594,1.947157,-2.544071,-1.295981,-0.422628,-0.185996,-0.498549,0.298418,-2.59654,0.025612,3.035592,-5e-05,-7.2e-05,-0.000114,-0.000248,0.000107,-9.2e-05,51.019867,0.0,0.0,0.0,0.0,moving to grasp yellow ducky FAIL,"[[[  8  12  11]
  [  7  11  10]
  [  9  11   8]
  ...
  [117 110  92]
  [112 105  87]
  [115 108  90]]

 [[  6  10   9]
  [  6  11   7]
  [  8  10   7]
  ...
  [112 105  87]
  [112 105  87]
  [117 110  92]]

 [[  9  11   8]
  [  9  11   8]
  [  9  11   8]
  ...
  [105  98  80]
  [108 101  83]
  [111 104  86]]

 ...

 [[176 153 121]
  [172 152 119]
  [171 152 120]
  ...
  [153 143 108]
  [153 143 108]
  [153 143 108]]

 [[174 148 111]
  [174 150 112]
  [174 152 115]
  ...
  [151 141 106]
  [153 143 108]
  [153 143 108]]

 [[177 149 110]
  [175 150 110]
  [174 150 112]
  ...
  [150 140 105]
  [152 142 107]
  [153 143 108]]]","[[[ 55  63  66]
  [ 56  64  67]
  [ 57  65  68]
  ...
  [134 128 130]
  [133 127 129]
  [130 124 126]]

 [[ 55  63  66]
  [ 55  63  66]
  [ 55  63  66]
  ...
  [135 129 131]
  [135 129 131]
  [134 128 130]]

 [[ 55  63  66]
  [ 54  62  65]
  [ 53  61  64]
  ...
  [132 128 129]
  [131 127 128]
  [134 130 131]]

 ...

 [[ 52  61  60]
  [ 52  61  60]
  [ 52  61  60]
  ...
  [ 63  73  62]
  [ 59  69  60]
  [ 56  66  55]]

 [[ 52  61  60]
  [ 52  61  60]
  [ 52  61  60]
  ...
  [ 60  71  57]
  [ 60  70  59]
  [ 58  70  56]]

 [[ 51  60  59]
  [ 52  61  60]
  [ 52  61  60]
  ...
  [ 56  67  53]
  [ 56  68  54]
  [ 57  69  55]]]"
1726692878.239075,0.965456,-1.409426,1.943302,-2.585686,-1.298303,-0.418526,-0.190118,-0.508197,0.282176,-2.596365,0.02548,3.035585,-2e-05,-4e-05,-0.000142,-0.000422,0.00024,-7.6e-05,51.019867,0.0,0.0,0.0,0.0,moving to grasp yellow ducky FAIL,"[[[  4  14   3]
  [  4  14   3]
  [  5  13   2]
  ...
  [112 105  79]
  [114 108  82]
  [117 111  85]]

 [[  3  13   2]
  [  3  13   2]
  [  5  13   2]
  ...
  [110 103  77]
  [113 107  81]
  [115 109  83]]

 [[  4  11   3]
  [  5  12   4]
  [  4  11   3]
  ...
  [106  98  75]
  [108 102  78]
  [109 103  79]]

 ...

 [[173 148 118]
  [174 151 120]
  [176 155 126]
  ...
  [149 139 104]
  [148 140 104]
  [148 140 104]]

 [[176 150 115]
  [174 150 114]
  [172 149 115]
  ...
  [149 139 104]
  [148 140 104]
  [148 140 104]]

 [[175 147 110]
  [174 148 111]
  [174 150 114]
  ...
  [150 140 105]
  [148 140 104]
  [148 140 104]]]","[[[ 62  65  58]
  [ 61  64  57]
  [ 60  65  58]
  ...
  [135 132 127]
  [135 132 127]
  [131 128 123]]

 [[ 61  63  58]
  [ 61  64  57]
  [ 61  66  60]
  ...
  [134 131 126]
  [135 132 127]
  [132 129 124]]

 [[ 58  63  59]
  [ 59  64  58]
  [ 61  66  62]
  ...
  [134 130 127]
  [134 130 127]
  [133 129 126]]

 ...

 [[ 50  59  58]
  [ 49  58  57]
  [ 48  57  56]
  ...
  [ 64  66  61]
  [ 61  63  58]
  [ 58  60  55]]

 [[ 51  60  59]
  [ 50  59  58]
  [ 50  59  58]
  ...
  [ 63  66  59]
  [ 63  66  59]
  [ 66  69  62]]

 [[ 50  59  58]
  [ 50  59  58]
  [ 50  59  58]
  ...
  [ 64  67  58]
  [ 59  62  53]
  [ 60  63  54]]]"
1726692878.335075,0.968726,-1.375235,1.938799,-2.616001,-1.299848,-0.41549,-0.193193,-0.515558,0.269724,-2.59645,0.025684,3.035709,-6.1e-05,-3e-06,-8.3e-05,-0.000337,3.7e-05,-0.000193,51.019867,0.0,0.0,0.0,0.0,moving to grasp yellow ducky FAIL,"[[[  0  14   0]
  [  0  14   0]
  [  2  12   1]
  ...
  [119 103  87]
  [124 105  88]
  [125 106  89]]

 [[  1  13   0]
  [  1  13   0]
  [  2  12   1]
  ...
  [113  97  81]
  [118 101  83]
  [120 103  85]]

 [[  3  13   2]
  [  2  12   1]
  [  1  11   0]
  ...
  [110  94  78]
  [114  98  82]
  [117 101  85]]

 ...

 [[171 151 118]
  [172 153 120]
  [173 156 126]
  ...
  [150 140 104]
  [149 139 103]
  [148 138 102]]

 [[173 151 114]
  [170 150 113]
  [168 149 116]
  ...
  [150 141 102]
  [151 142 103]
  [150 141 102]]

 [[172 148 110]
  [174 152 113]
  [173 153 118]
  ...
  [151 142 103]
  [153 144 105]
  [153 144 105]]]","[[[ 59  64  67]
  [ 59  64  67]
  [ 60  65  68]
  ...
  [137 129 126]
  [137 129 126]
  [137 129 126]]

 [[ 59  64  67]
  [ 59  64  67]
  [ 60  65  68]
  ...
  [137 129 126]
  [137 129 126]
  [137 129 126]]

 [[ 58  63  66]
  [ 59  64  67]
  [ 60  65  68]
  ...
  [136 131 128]
  [136 131 128]
  [137 132 129]]

 ...

 [[ 52  56  57]
  [ 53  57  58]
  [ 53  57  58]
  ...
  [ 58  61  54]
  [ 51  56  49]
  [ 47  52  45]]

 [[ 54  58  59]
  [ 53  57  58]
  [ 54  58  59]
  ...
  [ 61  64  57]
  [ 58  64  54]
  [ 58  64  54]]

 [[ 57  61  62]
  [ 55  59  60]
  [ 55  59  60]
  ...
  [ 62  65  58]
  [ 62  68  58]
  [ 62  68  58]]]"
1726692878.431074,0.970833,-1.351391,1.934883,-2.636182,-1.300985,-0.413536,-0.195367,-0.520617,0.261091,-2.596692,0.025783,3.035723,-2.9e-05,2.2e-05,3.5e-05,-9.4e-05,-6.1e-05,-0.000201,51.019867,0.0,0.0,0.0,0.0,moving to grasp yellow ducky FAIL,"[[[  5  13   2]
  [  4  12   1]
  [  4  11   4]
  ...
  [111 104  85]
  [114 107  88]
  [115 108  89]]

 [[  1   9   0]
  [  3  11   0]
  [  4  11   3]
  ...
  [106  99  80]
  [112 105  86]
  [115 108  89]]

 [[  1   9   0]
  [  2  10   0]
  [  5  10   3]
  ...
  [103  96  78]
  [109 102  84]
  [112 105  87]]

 ...

 [[172 154 116]
  [171 153 117]
  [172 156 122]
  ...
  [150 139 107]
  [150 139 107]
  [150 139 107]]

 [[175 153 112]
  [172 150 111]
  [169 149 112]
  ...
  [151 140 108]
  [151 140 108]
  [151 140 108]]

 [[172 149 107]
  [172 150 109]
  [172 150 111]
  ...
  [151 140 108]
  [151 140 108]
  [151 140 108]]]","[[[ 56  68  68]
  [ 53  65  65]
  [ 58  68  69]
  ...
  [135 131 128]
  [134 130 127]
  [132 128 125]]

 [[ 54  66  66]
  [ 52  64  64]
  [ 56  66  67]
  ...
  [137 133 130]
  [137 133 130]
  [135 131 128]]

 [[ 54  64  65]
  [ 53  63  64]
  [ 54  64  65]
  ...
  [137 133 130]
  [137 133 130]
  [137 133 130]]

 ...

 [[ 52  61  58]
  [ 51  60  57]
  [ 53  59  57]
  ...
  [ 51  52  47]
  [ 51  52  47]
  [ 42  43  38]]

 [[ 52  61  58]
  [ 51  60  57]
  [ 49  58  53]
  ...
  [ 59  60  54]
  [ 59  60  54]
  [ 55  56  50]]

 [[ 52  61  58]
  [ 52  61  58]
  [ 49  58  53]
  ...
  [ 62  63  55]
  [ 60  61  53]
  [ 61  62  54]]]"
1726692878.527074,0.971887,-1.338468,1.93244,-2.647082,-1.301608,-0.412492,-0.196585,-0.523347,0.256488,-2.596574,0.025689,3.035657,2.2e-05,1.1e-05,-1e-06,-0.000212,3.3e-05,-0.000133,51.019867,0.0,0.0,0.0,0.0,moving to grasp yellow ducky FAIL,"[[[  1  11   2]
  [  0  10   1]
  [  3  10   2]
  ...
  [113 104  89]
  [115 106  91]
  [116 107  92]]

 [[  2  12   3]
  [  1  11   2]
  [  3  10   2]
  ...
  [107  98  83]
  [112 103  88]
  [117 108  93]]

 [[  4  11   3]
  [  3  10   2]
  [  4   9   2]
  ...
  [104  95  80]
  [110 101  86]
  [118 109  94]]

 ...

 [[168 152 119]
  [168 152 119]
  [171 156 125]
  ...
  [149 139 103]
  [151 138 103]
  [152 139 104]]

 [[174 155 115]
  [171 151 114]
  [169 151 115]
  ...
  [150 140 104]
  [150 140 104]
  [150 140 104]]

 [[173 152 109]
  [172 150 109]
  [170 151 111]
  ...
  [150 140 104]
  [150 140 104]
  [151 141 105]]]","[[[ 59  64  67]
  [ 58  63  66]
  [ 60  65  68]
  ...
  [130 126 123]
  [132 128 125]
  [134 130 127]]

 [[ 60  65  68]
  [ 59  64  67]
  [ 59  64  67]
  ...
  [132 128 125]
  [133 129 126]
  [135 131 128]]

 [[ 61  66  69]
  [ 59  64  67]
  [ 58  63  66]
  ...
  [131 127 124]
  [132 128 125]
  [133 129 126]]

 ...

 [[ 60  60  60]
  [ 59  59  59]
  [ 57  59  58]
  ...
  [116 120 121]
  [115 119 120]
  [116 120 121]]

 [[ 59  59  57]
  [ 58  58  56]
  [ 56  58  55]
  ...
  [115 119 120]
  [115 119 120]
  [115 119 120]]

 [[ 57  57  55]
  [ 56  56  54]
  [ 56  58  55]
  ...
  [116 120 121]
  [117 121 122]
  [116 120 121]]]"
1726692878.623074,0.972055,-1.335866,1.931997,-2.649048,-1.301752,-0.412336,-0.19684,-0.523867,0.255505,-2.596802,0.025758,3.035629,4.1e-05,-2.5e-05,4.2e-05,1.6e-05,-3.5e-05,-0.000104,51.019867,0.0,0.0,0.0,0.0,moving to grasp yellow ducky FAIL,"[[[  6  11   4]
  [  5  10   3]
  [  7  10   3]
  ...
  [115 108  92]
  [117 110  94]
  [118 111  95]]

 [[  5  10   3]
  [  5  10   3]
  [  7  10   3]
  ...
  [107 100  84]
  [110 103  87]
  [115 108  92]]

 [[  5   8   1]
  [  6   9   2]
  [  6   9   0]
  ...
  [103  96  80]
  [107 100  84]
  [114 107  91]]

 ...

 [[173 150 119]
  [172 151 120]
  [172 155 127]
  ...
  [151 141 106]
  [150 142 106]
  [150 142 106]]

 [[174 151 110]
  [171 149 110]
  [167 149 113]
  ...
  [151 141 105]
  [150 142 105]
  [149 141 104]]

 [[172 149 105]
  [171 150 107]
  [170 151 111]
  ...
  [150 140 104]
  [148 140 103]
  [147 139 102]]]","[[[ 59  64  67]
  [ 59  64  67]
  [ 57  62  65]
  ...
  [134 130 129]
  [135 131 130]
  [134 130 129]]

 [[ 61  66  69]
  [ 61  66  69]
  [ 58  63  66]
  ...
  [134 130 129]
  [134 130 129]
  [132 128 127]]

 [[ 61  66  69]
  [ 61  66  69]
  [ 59  64  67]
  ...
  [135 131 130]
  [134 130 129]
  [132 128 127]]

 ...

 [[ 52  56  57]
  [ 54  58  59]
  [ 55  61  61]
  ...
  [115 116 118]
  [116 117 119]
  [116 117 119]]

 [[ 51  57  57]
  [ 54  60  60]
  [ 54  60  60]
  ...
  [114 115 117]
  [116 117 119]
  [117 118 120]]

 [[ 51  57  57]
  [ 53  59  59]
  [ 52  58  58]
  ...
  [115 116 118]
  [116 117 119]
  [117 118 120]]]"
1726692893.627526,0.972055,-1.335866,1.931997,-2.649048,-1.301752,-0.412336,-0.19684,-0.523867,0.255505,-2.596802,0.025758,3.035629,0.0,0.0,0.0,0.0,0.0,0.0,51.019867,0.0,0.496563,0.981,0.0,grasping yellow ducky FAIL,"[[[  7  10   1]
  [  8  11   2]
  [  9  12   3]
  ...
  [114 104 103]
  [115 103 103]
  [117 105 105]]

 [[  8  11   2]
  [  8  11   2]
  [  8  11   2]
  ...
  [109  99  98]
  [113 101 101]
  [117 105 105]]

 [[  8  11   2]
  [  7  10   1]
  [  6   9   0]
  ...
  [107  97  96]
  [111  99  99]
  [116 104 104]]

 ...

 [[171 154 136]
  [171 154 136]
  [175 159 143]
  ...
  [150 139 119]
  [148 137 117]
  [147 136 116]]

 [[172 151 130]
  [167 149 127]
  [166 149 129]
  ...
  [152 141 121]
  [152 141 119]
  [151 140 118]]

 [[171 149 126]
  [169 149 125]
  [167 149 129]
  ...
  [149 138 118]
  [152 141 119]
  [153 142 120]]]","[[[ 58  64  62]
  [ 56  62  60]
  [ 57  63  61]
  ...
  [136 132 129]
  [135 131 128]
  [139 135 132]]

 [[ 60  66  64]
  [ 59  65  63]
  [ 57  63  61]
  ...
  [137 133 130]
  [136 132 129]
  [139 135 132]]

 [[ 61  67  65]
  [ 61  67  65]
  [ 57  63  61]
  ...
  [138 134 131]
  [135 131 128]
  [138 134 131]]

 ...

 [[ 56  56  58]
  [ 55  55  57]
  [ 55  55  55]
  ...
  [119 120 122]
  [120 121 123]
  [122 123 125]]

 [[ 55  53  56]
  [ 55  53  56]
  [ 55  55  57]
  ...
  [118 119 123]
  [119 120 124]
  [122 123 127]]

 [[ 56  54  57]
  [ 55  53  56]
  [ 55  55  57]
  ...
  [118 119 123]
  [118 119 123]
  [120 121 125]]]"
1726692900.505504,0.972199,-1.335914,1.931925,-2.649024,-1.301884,-0.412156,-0.19678,-0.523898,0.255558,-2.596776,0.025703,3.035558,-1.9e-05,6e-06,-1.1e-05,-1e-05,2e-05,-3.3e-05,51.019867,0.0,0.496563,0.981,0.0,moving back to original position with yellow ducky FAIL,"[[[  4  10   0]
  [  4  10   0]
  [  4  11   3]
  ...
  [110 105  99]
  [112 107 101]
  [113 108 102]]

 [[  4  10   0]
  [  4  10   0]
  [  4  11   3]
  ...
  [107 102  96]
  [110 105  99]
  [112 107 101]]

 [[  3   9   0]
  [  4  10   0]
  [  5  10   3]
  ...
  [103  98  92]
  [107 102  96]
  [109 104  98]]

 ...

 [[170 152 128]
  [173 155 131]
  [178 161 141]
  ...
  [152 140 116]
  [152 140 114]
  [151 139 113]]

 [[169 148 119]
  [170 149 120]
  [171 151 126]
  ...
  [155 141 115]
  [155 141 115]
  [153 139 113]]

 [[170 147 115]
  [170 149 118]
  [171 150 123]
  ...
  [155 141 115]
  [155 141 115]
  [152 138 112]]]","[[[ 56  61  55]
  [ 57  62  56]
  [ 57  62  58]
  ...
  [138 134 131]
  [138 134 133]
  [139 135 134]]

 [[ 57  62  56]
  [ 57  62  56]
  [ 57  62  58]
  ...
  [138 134 131]
  [138 134 133]
  [139 135 134]]

 [[ 58  63  57]
  [ 58  63  57]
  [ 58  63  59]
  ...
  [138 134 131]
  [138 134 131]
  [138 134 131]]

 ...

 [[ 54  58  61]
  [ 51  55  58]
  [ 54  58  59]
  ...
  [118 122 123]
  [118 122 123]
  [119 123 124]]

 [[ 53  57  60]
  [ 51  55  58]
  [ 54  58  59]
  ...
  [117 121 122]
  [118 122 121]
  [118 122 121]]

 [[ 52  56  59]
  [ 50  54  57]
  [ 54  58  59]
  ...
  [117 121 122]
  [117 121 120]
  [118 122 121]]]"
1726692900.601504,0.972139,-1.336585,1.932069,-2.648316,-1.301872,-0.412168,-0.196718,-0.52375,0.255774,-2.596932,0.025788,3.035507,4e-06,5.7e-05,0.00011,0.000145,-6.5e-05,1.8e-05,51.019867,0.0,0.496563,0.981,0.0,moving back to original position with yellow ducky FAIL,"[[[  4  10   0]
  [  4  10   0]
  [  4  11   3]
  ...
  [110 105  99]
  [112 107 101]
  [113 108 102]]

 [[  4  10   0]
  [  4  10   0]
  [  4  11   3]
  ...
  [107 102  96]
  [110 105  99]
  [112 107 101]]

 [[  3   9   0]
  [  4  10   0]
  [  5  10   3]
  ...
  [103  98  92]
  [107 102  96]
  [109 104  98]]

 ...

 [[170 152 128]
  [173 155 131]
  [178 161 141]
  ...
  [152 140 116]
  [152 140 114]
  [151 139 113]]

 [[169 148 119]
  [170 149 120]
  [171 151 126]
  ...
  [155 141 115]
  [155 141 115]
  [153 139 113]]

 [[170 147 115]
  [170 149 118]
  [171 150 123]
  ...
  [155 141 115]
  [155 141 115]
  [152 138 112]]]","[[[ 56  61  55]
  [ 57  62  56]
  [ 57  62  58]
  ...
  [138 134 131]
  [138 134 133]
  [139 135 134]]

 [[ 57  62  56]
  [ 57  62  56]
  [ 57  62  58]
  ...
  [138 134 131]
  [138 134 133]
  [139 135 134]]

 [[ 58  63  57]
  [ 58  63  57]
  [ 58  63  59]
  ...
  [138 134 131]
  [138 134 131]
  [138 134 131]]

 ...

 [[ 54  58  61]
  [ 51  55  58]
  [ 54  58  59]
  ...
  [118 122 123]
  [118 122 123]
  [119 123 124]]

 [[ 53  57  60]
  [ 51  55  58]
  [ 54  58  59]
  ...
  [117 121 122]
  [118 122 121]
  [118 122 121]]

 [[ 52  56  59]
  [ 50  54  57]
  [ 54  58  59]
  ...
  [117 121 122]
  [117 121 120]
  [118 122 121]]]"
1726692900.697504,0.971324,-1.346272,1.933937,-2.640175,-1.30156,-0.412864,-0.195831,-0.521694,0.259218,-2.597092,0.025784,3.035384,1.1e-05,0.000102,0.00022,0.000305,-6.2e-05,0.000142,51.019867,0.0,0.496563,0.981,0.0,moving back to original position with yellow ducky FAIL,"[[[  5  11   7]
  [  5  11   7]
  [  4  11   4]
  ...
  [113 104  95]
  [115 105  95]
  [118 108  98]]

 [[  5  11   7]
  [  5  12   5]
  [  4  11   4]
  ...
  [107  98  89]
  [111 101  91]
  [115 105  95]]

 [[  6  11   5]
  [  6  11   5]
  [  5  10   4]
  ...
  [106  97  88]
  [110 100  90]
  [113 103  93]]

 ...

 [[171 152 135]
  [170 153 137]
  [174 158 143]
  ...
  [151 140 120]
  [151 140 120]
  [150 139 119]]

 [[172 149 131]
  [168 147 128]
  [166 149 133]
  ...
  [150 139 121]
  [150 139 121]
  [150 139 121]]

 [[172 147 127]
  [169 146 128]
  [166 147 130]
  ...
  [150 139 121]
  [150 139 121]
  [149 138 120]]]","[[[ 58  64  62]
  [ 58  64  62]
  [ 55  64  63]
  ...
  [137 134 129]
  [137 134 129]
  [134 131 126]]

 [[ 58  64  62]
  [ 59  65  63]
  [ 57  66  65]
  ...
  [137 134 129]
  [138 135 130]
  [138 135 130]]

 [[ 56  65  64]
  [ 57  66  65]
  [ 56  65  64]
  ...
  [135 131 128]
  [136 132 129]
  [138 134 131]]

 ...

 [[ 52  58  58]
  [ 51  57  57]
  [ 53  59  57]
  ...
  [119 121 120]
  [120 122 121]
  [121 123 122]]

 [[ 50  56  56]
  [ 50  56  56]
  [ 52  58  56]
  ...
  [119 121 120]
  [119 121 120]
  [120 122 121]]

 [[ 51  57  57]
  [ 52  58  58]
  [ 54  60  58]
  ...
  [119 121 120]
  [118 120 119]
  [119 121 120]]]"
1726692900.793504,0.969444,-1.366951,1.937541,-2.62292,-1.300578,-0.414387,-0.193978,-0.517294,0.266678,-2.596855,0.025769,3.035175,2.8e-05,9.4e-05,0.00019,6.7e-05,-4.6e-05,0.000352,51.019867,0.0,0.496563,0.981,0.0,moving back to original position with yellow ducky FAIL,"[[[  8   9   3]
  [  8   9   3]
  [  9  10   4]
  ...
  [112 103  98]
  [114 107 101]
  [118 111 105]]

 [[  8   9   3]
  [  8   9   3]
  [  9  10   4]
  ...
  [106  97  92]
  [109 102  96]
  [112 105  99]]

 [[  8   9   3]
  [  8   9   3]
  [  9  10   2]
  ...
  [106  97  92]
  [108 101  95]
  [111 104  98]]

 ...

 [[170 149 130]
  [171 153 133]
  [174 157 139]
  ...
  [148 140 117]
  [148 140 117]
  [148 140 117]]

 [[174 147 128]
  [171 146 126]
  [169 146 128]
  ...
  [148 141 115]
  [147 140 114]
  [147 140 114]]

 [[178 147 127]
  [173 145 124]
  [170 145 125]
  ...
  [148 141 115]
  [148 141 115]
  [147 140 114]]]","[[[ 57  61  60]
  [ 59  63  62]
  [ 60  64  65]
  ...
  [137 134 127]
  [136 133 126]
  [139 136 129]]

 [[ 59  63  62]
  [ 60  64  63]
  [ 62  66  67]
  ...
  [138 135 130]
  [136 133 128]
  [138 135 130]]

 [[ 61  65  64]
  [ 61  65  64]
  [ 62  66  67]
  ...
  [138 134 131]
  [137 133 130]
  [137 133 130]]

 ...

 [[ 52  58  56]
  [ 52  58  56]
  [ 51  57  55]
  ...
  [118 122 123]
  [117 121 122]
  [118 122 123]]

 [[ 52  58  56]
  [ 53  59  57]
  [ 52  58  56]
  ...
  [117 121 122]
  [118 122 123]
  [119 123 124]]

 [[ 52  58  56]
  [ 54  60  58]
  [ 53  59  57]
  ...
  [115 119 120]
  [117 121 122]
  [120 124 125]]]"
1726692900.889504,0.966546,-1.398169,1.942008,-2.595387,-1.299177,-0.417374,-0.19115,-0.5106,0.277984,-2.596962,0.025562,3.035325,4.5e-05,8.4e-05,0.000192,0.000172,0.000162,0.000203,51.019867,0.0,0.496563,0.981,0.0,moving back to original position with yellow ducky FAIL,"[[[  4   9   3]
  [  3   8   2]
  [  6   8   3]
  ...
  [111 104  96]
  [112 108  97]
  [114 110  99]]

 [[  5  10   4]
  [  4   9   3]
  [  6   8   3]
  ...
  [107 100  92]
  [108 104  93]
  [111 107  96]]

 [[  5  10   4]
  [  4   9   3]
  [  6   8   3]
  ...
  [105  98  90]
  [109 102  92]
  [112 105  95]]

 ...

 [[166 149 129]
  [171 154 136]
  [176 161 142]
  ...
  [149 141 120]
  [149 141 122]
  [149 141 122]]

 [[170 148 124]
  [170 150 125]
  [169 151 129]
  ...
  [149 141 120]
  [150 142 123]
  [150 142 123]]

 [[176 152 124]
  [174 153 126]
  [173 151 127]
  ...
  [147 139 118]
  [148 140 121]
  [149 141 122]]]","[[[ 56  65  62]
  [ 56  65  62]
  [ 56  65  62]
  ...
  [137 134 129]
  [137 134 129]
  [137 134 129]]

 [[ 57  66  63]
  [ 56  65  62]
  [ 56  65  62]
  ...
  [137 134 129]
  [136 133 128]
  [137 134 129]]

 [[ 55  64  63]
  [ 55  64  63]
  [ 55  64  63]
  ...
  [137 133 130]
  [135 131 128]
  [137 133 130]]

 ...

 [[ 54  58  57]
  [ 54  58  57]
  [ 54  58  57]
  ...
  [ 94  97 104]
  [ 53  57  68]
  [ 45  49  60]]

 [[ 55  59  60]
  [ 55  59  60]
  [ 55  59  58]
  ...
  [ 98 101 108]
  [ 64  68  79]
  [ 53  57  68]]

 [[ 53  57  58]
  [ 53  57  58]
  [ 55  59  58]
  ...
  [105 108 115]
  [ 74  78  89]
  [ 61  65  76]]]"
1726692900.985504,0.962474,-1.43935,1.946199,-2.557311,-1.296878,-0.421296,-0.187371,-0.501647,0.293079,-2.596956,0.025679,3.035457,8.7e-05,0.000106,0.000282,0.000163,4.5e-05,7.4e-05,51.019867,0.0,0.496563,0.981,0.0,moving back to original position with yellow ducky FAIL,"[[[  5  10   3]
  [  4   9   2]
  [  5  10   3]
  ...
  [109 104  98]
  [112 107 101]
  [115 110 104]]

 [[  6  11   4]
  [  5  10   3]
  [  6  11   4]
  ...
  [106 101  95]
  [110 105  99]
  [115 110 104]]

 [[  5  10   3]
  [  5  10   3]
  [  5  10   3]
  ...
  [103  98  92]
  [107 102  96]
  [111 106 100]]

 ...

 [[173 152 133]
  [172 153 136]
  [174 156 142]
  ...
  [149 139 114]
  [150 140 115]
  [149 139 114]]

 [[172 150 129]
  [167 146 125]
  [164 145 128]
  ...
  [150 140 115]
  [150 140 113]
  [149 139 112]]

 [[173 148 126]
  [169 147 126]
  [170 149 130]
  ...
  [150 140 115]
  [150 140 113]
  [148 138 111]]]","[[[ 58  62  63]
  [ 60  64  65]
  [ 60  64  65]
  ...
  [137 133 132]
  [138 134 133]
  [137 133 132]]

 [[ 57  61  62]
  [ 58  62  63]
  [ 58  62  63]
  ...
  [136 132 131]
  [139 135 134]
  [139 135 134]]

 [[ 56  60  61]
  [ 57  61  62]
  [ 56  60  61]
  ...
  [136 132 131]
  [139 135 134]
  [139 135 134]]

 ...

 [[ 56  57  59]
  [ 56  58  57]
  [ 56  57  59]
  ...
  [ 59  65  55]
  [ 47  53  41]
  [ 46  52  40]]

 [[ 54  55  59]
  [ 54  55  57]
  [ 55  56  60]
  ...
  [ 62  68  58]
  [ 59  65  53]
  [ 59  65  53]]

 [[ 55  56  60]
  [ 55  56  60]
  [ 54  55  59]
  ...
  [ 61  67  57]
  [ 61  67  55]
  [ 60  66  54]]]"
1726692901.081504,0.957301,-1.490042,1.948367,-2.507238,-1.294137,-0.42613,-0.182564,-0.490439,0.312059,-2.59716,0.025856,3.035388,5.5e-05,0.000116,0.00028,0.000364,-0.000131,0.000145,51.019867,0.0,0.496563,0.981,0.0,moving back to original position with yellow ducky FAIL,"[[[ 10  12   7]
  [ 10  12   7]
  [  8  10   5]
  ...
  [114 103  99]
  [115 104 100]
  [114 103  99]]

 [[  8  10   5]
  [  8  10   5]
  [  7   9   4]
  ...
  [107  96  92]
  [112 101  97]
  [117 106 102]]

 [[  7   9   4]
  [  7   9   4]
  [  7   9   4]
  ...
  [103  94  89]
  [109  98  94]
  [116 105 101]]

 ...

 [[169 150 133]
  [172 153 136]
  [176 158 144]
  ...
  [147 139 118]
  [149 141 120]
  [149 141 120]]

 [[172 150 129]
  [173 151 130]
  [172 151 134]
  ...
  [147 139 118]
  [148 140 121]
  [151 143 124]]

 [[173 148 126]
  [174 149 127]
  [170 147 129]
  ...
  [146 138 117]
  [147 139 120]
  [151 143 124]]]","[[[ 57  61  60]
  [ 60  64  63]
  [ 57  61  60]
  ...
  [138 134 131]
  [135 131 128]
  [134 130 127]]

 [[ 58  62  61]
  [ 60  64  63]
  [ 57  61  60]
  ...
  [138 134 131]
  [135 131 128]
  [134 130 127]]

 [[ 59  63  62]
  [ 60  64  63]
  [ 57  61  60]
  ...
  [137 133 130]
  [135 131 128]
  [135 131 128]]

 ...

 [[ 53  52  57]
  [ 52  53  55]
  [ 54  55  57]
  ...
  [ 60  62  57]
  [ 59  61  56]
  [ 60  62  57]]

 [[ 55  54  60]
  [ 52  53  57]
  [ 53  54  56]
  ...
  [ 66  69  62]
  [ 67  69  64]
  [ 67  69  64]]

 [[ 57  56  62]
  [ 53  54  58]
  [ 53  54  58]
  ...
  [ 63  66  59]
  [ 67  69  64]
  [ 66  68  63]]]"
1726692901.177504,0.951385,-1.542486,1.94711,-2.452061,-1.291011,-0.431815,-0.177485,-0.478482,0.332264,-2.5971,0.025853,3.035446,5.7e-05,9.4e-05,0.000267,0.000301,-0.000126,8.9e-05,51.019867,0.0,0.496563,0.981,0.0,moving back to original position with yellow ducky FAIL,"[[[ 10  11   5]
  [  8   9   3]
  [  5   8   1]
  ...
  [114 105 100]
  [114 105  98]
  [115 106  99]]

 [[ 10  11   5]
  [  8   9   3]
  [  6   9   2]
  ...
  [110 101  96]
  [113 104  97]
  [116 107 100]]

 [[  9  10   4]
  [  8   9   3]
  [  6   9   2]
  ...
  [106  97  92]
  [110 101  94]
  [114 105  98]]

 ...

 [[174 151 137]
  [175 153 139]
  [176 158 144]
  ...
  [149 138 116]
  [150 140 115]
  [150 140 115]]

 [[174 149 129]
  [171 148 130]
  [167 148 131]
  ...
  [150 139 117]
  [151 141 116]
  [151 141 116]]

 [[176 149 128]
  [176 151 129]
  [171 153 133]
  ...
  [151 140 118]
  [152 142 117]
  [151 141 116]]]","[[[ 52  60  63]
  [ 52  60  63]
  [ 51  59  62]
  ...
  [135 132 127]
  [135 132 127]
  [136 133 128]]

 [[ 53  61  64]
  [ 53  61  64]
  [ 52  60  63]
  ...
  [137 134 129]
  [138 135 130]
  [139 136 131]]

 [[ 52  60  63]
  [ 53  61  64]
  [ 52  60  63]
  ...
  [137 133 130]
  [137 133 130]
  [138 134 131]]

 ...

 [[ 55  57  56]
  [ 52  56  55]
  [ 50  56  54]
  ...
  [ 64  67  58]
  [ 66  69  62]
  [ 66  69  60]]

 [[ 53  57  58]
  [ 52  56  57]
  [ 50  56  56]
  ...
  [ 68  71  60]
  [ 67  70  61]
  [ 65  68  57]]

 [[ 56  60  61]
  [ 54  58  59]
  [ 52  58  58]
  ...
  [ 63  66  55]
  [ 64  67  56]
  [ 63  66  55]]]"
1726692901.273504,0.945169,-1.593063,1.942032,-2.39479,-1.28779,-0.437813,-0.172394,-0.46654,0.35247,-2.597091,0.025844,3.03549,4.7e-05,8.8e-05,0.000253,0.000287,-0.000116,4.9e-05,51.019867,0.0,0.496563,0.981,0.0,moving back to original position with yellow ducky FAIL,"[[[  5  10   4]
  [  5  10   4]
  [  4   9   3]
  ...
  [114 105  96]
  [116 108  97]
  [119 111 100]]

 [[  5  10   4]
  [  5  10   4]
  [  4   9   3]
  ...
  [108  99  90]
  [111 103  92]
  [116 108  97]]

 [[  7  10   3]
  [  7  10   3]
  [  6   9   2]
  ...
  [105  96  87]
  [109 100  91]
  [115 106  97]]

 ...

 [[170 151 134]
  [168 151 135]
  [172 154 140]
  ...
  [152 139 120]
  [153 138 119]
  [152 137 118]]

 [[175 155 131]
  [170 149 128]
  [168 147 128]
  ...
  [152 139 120]
  [154 139 120]
  [154 139 120]]

 [[173 152 125]
  [172 150 126]
  [169 148 127]
  ...
  [150 137 118]
  [151 136 117]
  [152 137 118]]]","[[[ 54  59  62]
  [ 54  59  62]
  [ 54  59  62]
  ...
  [137 134 129]
  [134 131 126]
  [135 132 127]]

 [[ 54  59  62]
  [ 53  58  61]
  [ 54  59  62]
  ...
  [138 135 130]
  [135 132 127]
  [135 132 127]]

 [[ 54  59  62]
  [ 53  58  61]
  [ 55  60  63]
  ...
  [139 135 132]
  [136 132 129]
  [134 130 127]]

 ...

 [[ 46  55  54]
  [ 48  57  56]
  [ 52  61  60]
  ...
  [ 67  70  63]
  [ 66  67  59]
  [ 63  64  56]]

 [[ 46  56  57]
  [ 48  58  59]
  [ 51  61  62]
  ...
  [ 66  69  60]
  [ 66  67  59]
  [ 64  65  57]]

 [[ 47  57  58]
  [ 45  55  56]
  [ 48  58  59]
  ...
  [ 64  67  58]
  [ 65  66  58]
  [ 64  65  57]]]"
1726692901.369504,0.938486,-1.64152,1.933074,-2.335881,-1.28439,-0.444242,-0.167354,-0.454598,0.372751,-2.596858,0.025704,3.035499,8.8e-05,8.1e-05,0.000164,5e-05,2.5e-05,4.3e-05,51.019867,0.0,0.496563,0.981,0.0,moving back to original position with yellow ducky FAIL,"[[[  8  13   9]
  [  7  12   8]
  [  5  10   6]
  ...
  [113 109  97]
  [113 109  97]
  [117 114  99]]

 [[  7  12   8]
  [  6  11   7]
  [  4   9   5]
  ...
  [106 102  91]
  [109 105  93]
  [113 110  95]]

 [[  5  10   6]
  [  4   9   5]
  [  3   8   2]
  ...
  [103  99  88]
  [107 103  91]
  [109 105  93]]

 ...

 [[168 154 128]
  [169 155 129]
  [174 162 140]
  ...
  [149 141 120]
  [152 139 120]
  [152 139 120]]

 [[169 150 117]
  [167 151 118]
  [167 152 123]
  ...
  [148 140 119]
  [151 138 119]
  [150 137 118]]

 [[171 152 112]
  [171 153 115]
  [169 150 120]
  ...
  [149 141 120]
  [150 137 118]
  [149 136 117]]]","[[[ 55  61  57]
  [ 55  61  57]
  [ 55  61  59]
  ...
  [137 132 129]
  [137 132 129]
  [138 133 130]]

 [[ 55  61  57]
  [ 55  61  57]
  [ 55  61  59]
  ...
  [137 132 129]
  [137 132 129]
  [137 132 129]]

 [[ 54  60  58]
  [ 54  60  58]
  [ 54  60  58]
  ...
  [137 132 129]
  [137 132 129]
  [136 131 128]]

 ...

 [[ 50  58  61]
  [ 49  57  60]
  [ 48  56  58]
  ...
  [ 49  52  43]
  [ 47  50  41]
  [ 46  49  40]]

 [[ 50  58  61]
  [ 49  57  60]
  [ 49  57  59]
  ...
  [ 50  53  42]
  [ 50  53  42]
  [ 51  54  43]]

 [[ 50  58  61]
  [ 49  57  60]
  [ 49  57  59]
  ...
  [ 48  51  40]
  [ 49  52  41]
  [ 50  53  42]]]"
1726692901.465504,0.93148,-1.687546,1.920525,-2.275332,-1.280785,-0.451068,-0.162263,-0.442661,0.392923,-2.596907,0.025776,3.035587,7.8e-05,7.9e-05,0.000185,9.6e-05,-4.4e-05,-4.2e-05,51.019867,0.0,0.496563,0.981,0.0,moving back to original position with yellow ducky FAIL,"[[[  8  14  10]
  [  6  12   8]
  [  4  10   6]
  ...
  [112 107 101]
  [116 107 102]
  [116 107 102]]

 [[  8  14  10]
  [  6  12   8]
  [  5  11   7]
  ...
  [106  99  93]
  [112 103  98]
  [116 107 102]]

 [[  7  12   6]
  [  6  11   5]
  [  6  11   5]
  ...
  [105  98  92]
  [110 101  96]
  [113 104  99]]

 ...

 [[167 152 129]
  [165 153 131]
  [169 156 137]
  ...
  [149 141 118]
  [148 140 117]
  [149 141 118]]

 [[170 155 124]
  [166 151 122]
  [164 150 124]
  ...
  [149 141 118]
  [148 140 117]
  [149 141 118]]

 [[169 153 119]
  [166 151 118]
  [166 151 122]
  ...
  [149 141 118]
  [149 141 118]
  [150 142 119]]]","[[[ 54  58  67]
  [ 55  59  68]
  [ 51  55  64]
  ...
  [135 131 128]
  [134 130 127]
  [138 134 131]]

 [[ 54  58  67]
  [ 55  59  68]
  [ 51  55  64]
  ...
  [136 132 129]
  [134 130 127]
  [135 131 128]]

 [[ 54  59  65]
  [ 55  60  66]
  [ 51  56  62]
  ...
  [138 134 131]
  [135 131 128]
  [134 130 127]]

 ...

 [[ 54  55  57]
  [ 51  55  56]
  [ 51  55  56]
  ...
  [ 52  59  52]
  [ 56  66  58]
  [ 56  67  59]]

 [[ 54  55  57]
  [ 52  56  57]
  [ 51  55  56]
  ...
  [ 51  58  51]
  [ 52  62  54]
  [ 54  64  56]]

 [[ 53  54  56]
  [ 51  55  56]
  [ 51  55  56]
  ...
  [ 51  58  51]
  [ 46  56  48]
  [ 46  56  48]]]"
1726692901.561504,0.924055,-1.730982,1.904071,-2.213433,-1.277134,-0.458169,-0.157173,-0.430733,0.413197,-2.59692,0.025778,3.035492,6.9e-05,8.7e-05,0.000103,0.000106,-4.6e-05,5.6e-05,51.019867,0.0,0.496563,0.981,0.0,moving back to original position with yellow ducky FAIL,"[[[  6  11   7]
  [  5  10   6]
  [  4   9   3]
  ...
  [112 107 103]
  [112 107 103]
  [111 106 102]]

 [[  6  11   7]
  [  5  10   6]
  [  4   9   3]
  ...
  [107 102  98]
  [110 105 101]
  [113 108 104]]

 [[  8  10   5]
  [  8  10   5]
  [  8  10   5]
  ...
  [102  97  91]
  [107 102  96]
  [111 106 100]]

 ...

 [[175 149 134]
  [172 151 134]
  [174 157 141]
  ...
  [149 141 120]
  [147 139 118]
  [148 140 119]]

 [[176 149 130]
  [173 148 128]
  [170 149 130]
  ...
  [148 140 119]
  [147 139 118]
  [149 141 120]]

 [[174 146 125]
  [174 147 126]
  [172 151 132]
  ...
  [147 139 118]
  [147 139 118]
  [149 141 120]]]","[[[ 57  59  56]
  [ 54  56  53]
  [ 52  54  53]
  ...
  [135 131 128]
  [136 132 129]
  [137 133 130]]

 [[ 55  57  54]
  [ 56  58  55]
  [ 54  56  55]
  ...
  [136 132 129]
  [135 131 128]
  [136 132 129]]

 [[ 52  56  55]
  [ 56  60  59]
  [ 55  59  58]
  ...
  [137 133 130]
  [135 131 128]
  [136 132 129]]

 ...

 [[ 53  59  59]
  [ 52  58  58]
  [ 52  58  58]
  ...
  [ 61  62  56]
  [ 62  63  57]
  [ 62  63  57]]

 [[ 52  56  57]
  [ 52  56  57]
  [ 52  56  57]
  ...
  [ 55  56  50]
  [ 57  58  52]
  [ 58  59  53]]

 [[ 52  56  57]
  [ 53  57  58]
  [ 53  57  58]
  ...
  [ 53  54  48]
  [ 52  53  47]
  [ 54  55  49]]]"
1726692901.657504,0.916343,-1.771098,1.884719,-2.151694,-1.273302,-0.465701,-0.152082,-0.418947,0.433016,-2.597022,0.025856,3.035545,-3.2e-05,2.3e-05,0.000116,0.000204,-0.000123,5e-06,51.019867,0.0,0.496563,0.981,0.0,moving back to original position with yellow ducky FAIL,"[[[  7   8   0]
  [  7   8   0]
  [  5   8   1]
  ...
  [115 104 100]
  [117 106 100]
  [118 107 101]]

 [[  7   8   0]
  [  7   8   0]
  [  5   8   1]
  ...
  [110  99  95]
  [114 103  97]
  [117 106 100]]

 [[  8   9   3]
  [  8   9   3]
  [  6   9   2]
  ...
  [106  97  92]
  [112 101  95]
  [116 105  99]]

 ...

 [[168 151 131]
  [170 155 134]
  [171 158 139]
  ...
  [148 140 119]
  [149 141 122]
  [150 142 123]]

 [[170 150 125]
  [166 149 123]
  [164 148 123]
  ...
  [148 140 119]
  [149 141 122]
  [150 142 123]]

 [[170 149 122]
  [169 149 122]
  [168 151 125]
  ...
  [148 140 119]
  [149 141 122]
  [150 142 123]]]","[[[ 53  59  57]
  [ 53  59  57]
  [ 53  59  57]
  ...
  [139 135 136]
  [138 134 135]
  [139 135 136]]

 [[ 55  61  59]
  [ 55  61  59]
  [ 54  60  58]
  ...
  [138 134 135]
  [139 135 136]
  [140 136 137]]

 [[ 56  62  62]
  [ 55  61  61]
  [ 54  60  60]
  ...
  [138 134 135]
  [141 137 138]
  [141 137 138]]

 ...

 [[ 50  62  62]
  [ 50  62  62]
  [ 51  61  62]
  ...
  [ 59  60  52]
  [ 60  61  53]
  [ 63  64  56]]

 [[ 48  62  62]
  [ 47  61  61]
  [ 49  61  61]
  ...
  [ 56  58  47]
  [ 57  59  48]
  [ 59  61  50]]

 [[ 47  61  61]
  [ 46  60  60]
  [ 48  60  60]
  ...
  [ 53  55  44]
  [ 54  56  45]
  [ 53  55  44]]]"
1726692901.753504,0.9093,-1.802173,1.865596,-2.099371,-1.269925,-0.472682,-0.147968,-0.409151,0.449605,-2.597167,0.025837,3.035643,2.8e-05,3e-05,0.000112,0.000346,-0.000103,-9.1e-05,51.019867,0.0,0.496563,0.981,0.0,moving back to original position with yellow ducky FAIL,"[[[ 11  12   4]
  [  8   9   1]
  [  8   9   1]
  ...
  [109 104  98]
  [111 108 101]
  [113 110 103]]

 [[ 10  11   3]
  [  9  10   2]
  [  9  10   2]
  ...
  [106 101  95]
  [110 107 100]
  [113 110 103]]

 [[  8   9   1]
  [  9  10   2]
  [  9  10   2]
  ...
  [101  96  90]
  [107 102  96]
  [111 106 100]]

 ...

 [[169 152 136]
  [171 155 139]
  [176 160 145]
  ...
  [148 140 119]
  [149 141 120]
  [150 142 121]]

 [[169 151 129]
  [168 150 130]
  [168 151 133]
  ...
  [148 140 119]
  [149 141 120]
  [150 142 121]]

 [[167 147 123]
  [168 150 126]
  [169 151 131]
  ...
  [147 139 118]
  [148 140 119]
  [148 140 119]]]","[[[ 57  59  58]
  [ 52  56  55]
  [ 52  56  55]
  ...
  [141 137 138]
  [140 136 137]
  [138 134 135]]

 [[ 57  59  58]
  [ 52  56  55]
  [ 53  57  56]
  ...
  [140 136 137]
  [140 136 137]
  [139 135 134]]

 [[ 58  60  59]
  [ 54  58  57]
  [ 54  58  57]
  ...
  [140 136 135]
  [140 136 135]
  [140 136 133]]

 ...

 [[ 52  61  66]
  [ 50  60  62]
  [ 52  62  64]
  ...
  [ 61  63  52]
  [ 61  62  54]
  [ 61  62  54]]

 [[ 49  58  65]
  [ 49  58  63]
  [ 50  59  64]
  ...
  [ 58  60  49]
  [ 59  61  50]
  [ 58  60  49]]

 [[ 47  56  63]
  [ 48  57  64]
  [ 48  57  62]
  ...
  [ 54  56  45]
  [ 56  58  47]
  [ 53  55  44]]]"
1726692901.849504,0.903612,-1.824721,1.849347,-2.059193,-1.267279,-0.478068,-0.144795,-0.401599,0.462389,-2.597016,0.02573,3.035484,5.2e-05,-1.1e-05,3.5e-05,0.000193,6e-06,7.1e-05,51.019867,0.0,0.496563,0.981,0.0,moving back to original position with yellow ducky FAIL,"[[[  7   9   6]
  [  6   8   5]
  [  6   8   5]
  ...
  [116 110  98]
  [117 109  98]
  [116 108  97]]

 [[  9  11   8]
  [  7   9   6]
  [  6   8   5]
  ...
  [106 100  88]
  [111 103  92]
  [115 107  96]]

 [[ 10  12   9]
  [  8  10   7]
  [  6   8   3]
  ...
  [106  99  89]
  [112 104  93]
  [116 108  97]]

 ...

 [[174 152 129]
  [174 153 132]
  [174 157 137]
  ...
  [148 141 113]
  [147 140 112]
  [148 141 113]]

 [[174 150 124]
  [171 149 125]
  [169 149 125]
  ...
  [148 141 113]
  [148 141 113]
  [148 141 112]]

 [[173 149 121]
  [172 151 124]
  [172 150 126]
  ...
  [148 141 113]
  [148 141 112]
  [148 141 112]]]","[[[ 57  62  66]
  [ 57  62  66]
  [ 57  62  65]
  ...
  [133 128 134]
  [133 128 135]
  [133 128 135]]

 [[ 55  60  64]
  [ 55  60  64]
  [ 55  60  63]
  ...
  [136 131 137]
  [136 131 138]
  [135 130 137]]

 [[ 53  58  61]
  [ 53  58  61]
  [ 54  59  62]
  ...
  [138 133 137]
  [137 132 138]
  [137 132 138]]

 ...

 [[ 58  64  64]
  [ 56  62  62]
  [ 55  61  61]
  ...
  [ 56  57  51]
  [ 54  55  49]
  [ 52  53  47]]

 [[ 51  57  57]
  [ 50  56  56]
  [ 51  57  57]
  ...
  [ 55  56  51]
  [ 56  57  52]
  [ 55  56  51]]

 [[ 49  55  55]
  [ 51  57  57]
  [ 53  59  59]
  ...
  [ 58  59  54]
  [ 56  57  52]
  [ 53  54  49]]]"
1726692901.945504,0.89954,-1.839725,1.837228,-2.031222,-1.265375,-0.481883,-0.142559,-0.396335,0.471314,-2.596772,0.025613,3.035346,3.8e-05,-5.5e-05,-6e-05,-5.3e-05,0.000123,0.00021,51.019867,0.0,0.496563,0.981,0.0,moving back to original position with yellow ducky FAIL,"[[[ 11  10   6]
  [ 11  12   7]
  [ 10  11   5]
  ...
  [112 103  94]
  [113 104  95]
  [114 105  96]]

 [[ 11  10   6]
  [ 10  11   6]
  [  9  10   4]
  ...
  [111 102  93]
  [113 104  95]
  [114 105  96]]

 [[ 10   9   5]
  [  8   9   4]
  [  7   8   2]
  ...
  [107  97  88]
  [110 100  91]
  [112 102  93]]

 ...

 [[169 152 136]
  [169 153 138]
  [173 160 144]
  ...
  [149 139 114]
  [148 141 115]
  [148 141 115]]

 [[167 148 131]
  [166 147 130]
  [165 148 132]
  ...
  [152 142 117]
  [151 141 114]
  [149 139 112]]

 [[173 152 133]
  [168 150 130]
  [166 147 132]
  ...
  [150 140 115]
  [148 138 111]
  [148 138 111]]]","[[[ 53  62  61]
  [ 53  62  61]
  [ 53  62  61]
  ...
  [135 131 132]
  [134 130 131]
  [134 130 131]]

 [[ 53  62  61]
  [ 53  62  61]
  [ 53  62  61]
  ...
  [135 131 132]
  [133 129 130]
  [133 129 130]]

 [[ 53  62  61]
  [ 53  62  61]
  [ 53  62  61]
  ...
  [137 133 134]
  [135 131 132]
  [135 131 132]]

 ...

 [[ 49  58  57]
  [ 51  60  59]
  [ 49  58  57]
  ...
  [ 55  57  46]
  [ 60  62  49]
  [ 67  69  56]]

 [[ 49  58  55]
  [ 51  60  57]
  [ 48  57  54]
  ...
  [ 56  58  47]
  [ 60  62  49]
  [ 67  69  55]]

 [[ 52  61  58]
  [ 53  62  59]
  [ 48  57  54]
  ...
  [ 61  63  52]
  [ 64  66  53]
  [ 67  69  55]]]"
1726692902.041504,0.896918,-1.849596,1.828559,-2.011689,-1.264202,-0.484653,-0.14095,-0.392764,0.477356,-2.597005,0.025575,3.03548,-3e-05,-5e-06,2.4e-05,0.000179,0.000161,7.6e-05,51.019867,0.0,0.496563,0.981,0.0,moving back to original position with yellow ducky FAIL,"[[[  4  11   3]
  [  5  12   4]
  [  6  11   4]
  ...
  [111 107  96]
  [113 109  98]
  [113 109  98]]

 [[  5  12   4]
  [  5  12   4]
  [  6  11   4]
  ...
  [106 102  91]
  [110 106  95]
  [111 107  96]]

 [[  6  11   4]
  [  6  11   4]
  [  6  11   4]
  ...
  [103  99  90]
  [108 104  95]
  [110 106  97]]

 ...

 [[169 154 135]
  [168 155 138]
  [172 159 142]
  ...
  [150 140 115]
  [150 140 113]
  [151 141 114]]

 [[169 153 128]
  [165 151 125]
  [165 150 129]
  ...
  [150 140 113]
  [150 140 113]
  [151 141 114]]

 [[168 153 124]
  [165 149 123]
  [164 150 124]
  ...
  [150 140 113]
  [150 140 113]
  [151 141 114]]]","[[[ 56  62  62]
  [ 56  62  62]
  [ 55  61  61]
  ...
  [133 129 128]
  [135 131 128]
  [137 133 130]]

 [[ 54  60  60]
  [ 55  61  61]
  [ 55  61  61]
  ...
  [134 130 129]
  [135 131 130]
  [137 133 130]]

 [[ 53  59  59]
  [ 55  61  61]
  [ 57  63  63]
  ...
  [134 130 129]
  [134 130 129]
  [136 132 131]]

 ...

 [[ 49  58  57]
  [ 48  57  56]
  [ 48  57  56]
  ...
  [ 67  70  63]
  [ 70  71  65]
  [ 71  72  66]]

 [[ 49  58  57]
  [ 48  57  56]
  [ 48  57  56]
  ...
  [ 63  64  58]
  [ 67  68  62]
  [ 65  66  60]]

 [[ 50  59  58]
  [ 50  59  58]
  [ 49  58  57]
  ...
  [ 61  62  56]
  [ 65  66  60]
  [ 58  59  53]]]"
1726692902.137504,0.896882,-1.849536,1.828571,-2.011713,-1.26413,-0.484606,-0.140974,-0.392781,0.47733,-2.597012,0.02568,3.035436,-6e-06,1.2e-05,5e-05,0.000186,5.6e-05,0.000121,51.019867,0.0,0.496563,0.981,0.0,moving back to original position with yellow ducky FAIL,"[[[  8  11   4]
  [  9  12   5]
  [  7  12   5]
  ...
  [111 106 102]
  [114 109 105]
  [112 107 103]]

 [[  8  11   4]
  [  8  11   4]
  [  6  11   4]
  ...
  [105 100  96]
  [111 106 102]
  [114 109 105]]

 [[  7  10   3]
  [  7  10   3]
  [  6  11   4]
  ...
  [100  95  91]
  [105 100  96]
  [113 108 104]]

 ...

 [[169 153 138]
  [170 154 139]
  [172 159 143]
  ...
  [150 139 117]
  [151 140 118]
  [152 141 119]]

 [[170 149 130]
  [165 147 127]
  [164 147 129]
  ...
  [151 140 118]
  [151 140 118]
  [152 141 119]]

 [[172 150 127]
  [170 150 126]
  [170 149 130]
  ...
  [151 140 118]
  [150 139 117]
  [151 140 118]]]","[[[ 55  61  59]
  [ 55  61  59]
  [ 53  59  59]
  ...
  [134 129 133]
  [136 131 135]
  [135 130 134]]

 [[ 54  60  58]
  [ 54  60  58]
  [ 51  57  57]
  ...
  [133 128 132]
  [135 130 134]
  [134 129 133]]

 [[ 53  59  59]
  [ 52  58  58]
  [ 50  56  56]
  ...
  [132 127 131]
  [134 129 133]
  [134 129 133]]

 ...

 [[ 50  54  57]
  [ 53  57  60]
  [ 55  59  62]
  ...
  [ 67  70  63]
  [ 67  72  65]
  [ 66  71  64]]

 [[ 50  54  57]
  [ 52  56  59]
  [ 51  55  58]
  ...
  [ 62  65  58]
  [ 64  67  60]
  [ 66  69  62]]

 [[ 49  53  56]
  [ 53  57  60]
  [ 52  56  59]
  ...
  [ 58  61  54]
  [ 61  64  57]
  [ 64  67  60]]]"
1726692902.233503,0.896858,-1.849584,1.828607,-2.011701,-1.263962,-0.484618,-0.14096,-0.392769,0.477333,-2.596931,0.0258,3.035498,-2e-05,0.0,4.7e-05,0.000105,-6.5e-05,5.8e-05,51.019867,0.0,0.496563,0.981,0.0,moving back to original position with yellow ducky FAIL,"[[[  2  12   1]
  [  2  12   1]
  [  3  13   2]
  ...
  [109 104  98]
  [112 107 101]
  [117 112 106]]

 [[  3  13   2]
  [  3  13   2]
  [  3  13   2]
  ...
  [105 100  94]
  [109 104  98]
  [114 109 103]]

 [[  3  13   4]
  [  3  13   4]
  [  3  13   4]
  ...
  [103  98  92]
  [107 102  96]
  [110 105  99]]

 ...

 [[167 154 137]
  [168 157 139]
  [174 162 146]
  ...
  [146 140 118]
  [148 142 120]
  [149 143 121]]

 [[166 151 130]
  [164 149 128]
  [164 149 130]
  ...
  [146 140 118]
  [147 141 119]
  [147 141 119]]

 [[169 153 130]
  [165 149 126]
  [164 149 130]
  ...
  [145 139 117]
  [145 139 117]
  [145 139 117]]]","[[[ 57  58  62]
  [ 58  59  63]
  [ 54  58  61]
  ...
  [135 133 134]
  [133 133 133]
  [131 131 131]]

 [[ 57  58  62]
  [ 58  59  63]
  [ 55  59  62]
  ...
  [134 132 133]
  [133 133 133]
  [132 132 132]]

 [[ 55  59  62]
  [ 57  61  64]
  [ 55  59  62]
  ...
  [133 131 132]
  [132 132 132]
  [132 132 132]]

 ...

 [[ 51  62  56]
  [ 48  59  53]
  [ 46  57  51]
  ...
  [ 72  75  68]
  [ 72  74  69]
  [ 66  68  63]]

 [[ 47  60  51]
  [ 46  59  50]
  [ 46  57  51]
  ...
  [ 65  68  61]
  [ 66  69  62]
  [ 62  65  58]]

 [[ 47  60  51]
  [ 47  60  51]
  [ 48  59  53]
  ...
  [ 58  61  54]
  [ 62  65  58]
  [ 63  66  59]]]"
