correlllab/MAGPIE/datasets/trajectories/1726695290.9792943_red_handle_id-0/move.csv
timestamp,actual_q_0,actual_q_1,actual_q_2,actual_q_3,actual_q_4,actual_q_5,actual_TCP_pose_0,actual_TCP_pose_1,actual_TCP_pose_2,actual_TCP_pose_3,actual_TCP_pose_4,actual_TCP_pose_5,actual_qd_0,actual_qd_1,actual_qd_2,actual_qd_3,actual_qd_4,actual_qd_5,target_q_0,target_q_1,target_q_2,target_q_3,target_q_4,target_q_5,target_TCP_pose_0,target_TCP_pose_1,target_TCP_pose_2,target_TCP_pose_3,target_TCP_pose_4,target_TCP_pose_5
19811.072000,0.896822,-1.849584,1.828630,-2.011833,-1.263878,-0.484857,-0.140970,-0.392770,0.477339,-0.170734,-3.017073,0.845010,0.000000,0.000000,-0.000000,0.000000,0.000000,0.000000,0.896786,-1.849620,1.828571,-2.011785,-1.263914,-0.484762,-0.140978,-0.392752,0.477377,-0.170932,-3.017014,0.845030
19811.168000,0.896929,-1.849176,1.828786,-2.012721,-1.263998,-0.484678,-0.141048,-0.392921,0.477202,-0.170784,-3.016790,0.845266,0.007427,0.029580,0.011735,-0.047649,-0.005800,0.006160,0.896972,-1.848932,1.828843,-2.012798,-1.264002,-0.484581,-0.141090,-0.393002,0.477085,-0.170932,-3.017014,0.845030
19811.264000,0.898714,-1.841980,1.831397,-2.023370,-1.264753,-0.483118,-0.142269,-0.395510,0.474271,-0.170394,-3.016526,0.845699,0.031255,0.120060,0.045598,-0.164328,-0.006831,0.022554,0.898925,-1.841625,1.831654,-2.023473,-1.264918,-0.482692,-0.142280,-0.395638,0.474007,-0.170929,-3.017015,0.845030
19811.360000,0.902738,-1.826280,1.837109,-2.045375,-1.266597,-0.479076,-0.144775,-0.401075,0.467644,-0.170764,-3.017057,0.845164,0.052155,0.204825,0.070180,-0.281414,-0.045252,0.050406,0.902908,-1.826097,1.837161,-2.045637,-1.266793,-0.478840,-0.144766,-0.401151,0.467570,-0.170923,-3.017017,0.845029
19811.456000,0.908678,-1.802185,1.844581,-2.078760,-1.269471,-0.473246,-0.148484,-0.409432,0.457896,-0.170876,-3.016910,0.845270,0.068224,0.299062,0.084522,-0.397133,-0.033340,0.068454,0.908724,-1.801844,1.844583,-2.078946,-1.269547,-0.473222,-0.148550,-0.409539,0.457774,-0.170913,-3.017019,0.845028
19811.552000,0.915960,-1.768604,1.852783,-2.122754,-1.273063,-0.466013,-0.153588,-0.420648,0.444777,-0.171162,-3.016723,0.845381,0.085328,0.403092,0.083870,-0.503505,-0.041921,0.083051,0.916101,-1.768145,1.852724,-2.122837,-1.273071,-0.466106,-0.153632,-0.420804,0.444621,-0.170901,-3.017023,0.845027
19811.648000,0.924522,-1.724662,1.860052,-2.176107,-1.277181,-0.457928,-0.159978,-0.434758,0.428263,-0.170958,-3.016883,0.845159,0.092448,0.494607,0.063174,-0.575243,-0.046858,0.085999,0.924690,-1.724329,1.859951,-2.176231,-1.277216,-0.457838,-0.159982,-0.434883,0.428181,-0.170885,-3.017028,0.845025
19811.744000,0.933097,-1.676165,1.864075,-2.231074,-1.281384,-0.449784,-0.166696,-0.449765,0.410819,-0.170780,-3.016743,0.845286,0.084829,0.511570,0.023751,-0.558417,-0.038373,0.079431,0.933139,-1.675838,1.864038,-2.231084,-1.281339,-0.449726,-0.166739,-0.449862,0.410689,-0.170869,-3.017033,0.845024
19811.840000,0.940953,-1.625884,1.864374,-2.283864,-1.285252,-0.442191,-0.173464,-0.464787,0.393347,-0.170835,-3.016658,0.845444,0.079268,0.532100,-0.013972,-0.540752,-0.034251,0.074734,0.940956,-1.625647,1.864413,-2.283723,-1.285196,-0.442240,-0.173496,-0.464841,0.393198,-0.170852,-3.017038,0.845022
19811.936000,0.948139,-1.574045,1.861201,-2.334045,-1.288808,-0.435282,-0.180273,-0.479786,0.375687,-0.170980,-3.016992,0.845065,0.073017,0.544052,-0.051849,-0.517167,-0.035138,0.067160,0.948212,-1.573998,1.861088,-2.333940,-1.288810,-0.435314,-0.180254,-0.479821,0.375707,-0.170835,-3.017043,0.845020
19812.032000,0.954894,-1.521119,1.854208,-2.381581,-1.292173,-0.428901,-0.187035,-0.494776,0.358154,-0.170920,-3.017119,0.844935,0.069055,0.554994,-0.091310,-0.488884,-0.033436,0.064619,0.954965,-1.521132,1.854084,-2.381537,-1.292204,-0.428889,-0.187011,-0.494800,0.358215,-0.170819,-3.017048,0.845019
19812.128000,0.961157,-1.467261,1.843539,-2.426414,-1.295346,-0.422940,-0.193813,-0.509751,0.340672,-0.170921,-3.017080,0.845000,0.063903,0.567330,-0.130248,-0.448929,-0.029745,0.060496,0.961266,-1.467282,1.843433,-2.426332,-1.295394,-0.422914,-0.193768,-0.509779,0.340723,-0.170802,-3.017053,0.845017
19812.224000,0.967097,-1.412627,1.829313,-2.468255,-1.298411,-0.417422,-0.200550,-0.524734,0.323156,-0.170789,-3.017084,0.844897,0.058023,0.572405,-0.168981,-0.424337,-0.029122,0.055463,0.967159,-1.412665,1.829175,-2.468162,-1.298397,-0.417347,-0.200525,-0.524759,0.323232,-0.170785,-3.017058,0.845015
19812.320000,0.972582,-1.358703,1.811890,-2.505967,-1.301177,-0.412312,-0.207111,-0.539392,0.306066,-0.170721,-3.017220,0.844764,0.050059,0.521311,-0.182467,-0.359095,-0.023849,0.049447,0.972541,-1.358943,1.811872,-2.505907,-1.301154,-0.412281,-0.207103,-0.539343,0.306202,-0.170769,-3.017062,0.845014
19812.416000,0.976702,-1.314144,1.795198,-2.534884,-1.303368,-0.408282,-0.212566,-0.551379,0.292009,-0.170970,-3.017165,0.844767,0.038848,0.412794,-0.164251,-0.262191,-0.032381,0.033915,0.976741,-1.314324,1.795085,-2.534761,-1.303312,-0.408343,-0.212531,-0.551376,0.292151,-0.170756,-3.017066,0.845012
19812.512000,0.979840,-1.280089,1.780865,-2.555501,-1.304697,-0.405439,-0.216639,-0.560566,0.281369,-0.170688,-3.017227,0.845176,0.024825,0.300226,-0.131743,-0.184773,-0.036432,0.027468,0.979801,-1.280244,1.780807,-2.555300,-1.304887,-0.405480,-0.216662,-0.560532,0.281459,-0.170745,-3.017069,0.845011
19812.608000,0.981851,-1.256703,1.770244,-2.568789,-1.305775,-0.403580,-0.219492,-0.566847,0.274082,-0.170655,-3.017165,0.845185,0.017999,0.189280,-0.090351,-0.111933,-0.021596,0.022746,0.981836,-1.256822,1.770267,-2.568670,-1.305936,-0.403581,-0.219495,-0.566813,0.274125,-0.170738,-3.017071,0.845011
19812.704000,0.982929,-1.244057,1.764221,-2.575768,-1.306338,-0.402716,-0.221030,-0.570251,0.270168,-0.170414,-3.017056,0.845284,0.008808,0.079678,-0.035716,-0.042784,-0.049998,0.006999,0.982919,-1.244113,1.764302,-2.575671,-1.306494,-0.402572,-0.221031,-0.570218,0.270149,-0.170735,-3.017073,0.845010
